(G-CODE GENERATED BY FLATCAM v8.99 - www.flatcam.org - Version Date: 2019/12/15)

(Name: copper_iso_cnc)
(Type: G-code from Geometry)
(Units: MM)

(Created on Monday, 19 October 2020 at 23:01)

(TOOL DIAMETER: 0.6 mm)
(Feedrate: 150.0 mm/min)
(Feedrate_Z: 76.2 mm/min)
(Feedrate rapids 76.2 mm/min)

(Z_Cut: -0.15 mm)
(Z_Move: 1.0 mm)
(Z Toolchange: 20.0 mm)
(X,Y Toolchange: 0.0000, 0.0000 mm)
(Z Start: None mm)
(Z End: 20.0 mm)
(Steps per circle: 128)
(Preprocessor Geometry: default)

(X range:  -47.5251 ...   -0.4749  mm)
(Y range:   -0.0504 ...   45.5251  mm)

(Spindle Speed: 12000 RPM)
G21
G90
G94




G01 F150.00
G00 Z1.0000

M03 S12000
G00 X-10.4488 Y8.1909
G01 F76.20
G01 Z-0.1500
G01 F150.00
G01 X-10.4451 Y8.1346
G01 X-10.4364 Y8.0640
G01 X-10.4278 Y8.0153
G01 X-10.4172 Y7.9677
G01 X-10.4004 Y7.9064
G01 X-10.4004 Y6.0338
G01 X-10.4137 Y5.9865
G01 X-10.4264 Y5.9316
G01 X-10.4385 Y5.8614
G01 X-10.4439 Y5.8183
G01 X-10.4482 Y5.7638
G01 X-10.4499 Y5.6926
G01 X-10.4482 Y5.6362
G01 X-10.4451 Y5.5946
G01 X-10.4364 Y5.5240
G01 X-10.4278 Y5.4753
G01 X-10.4172 Y5.4277
G01 X-10.4004 Y5.3664
G01 X-10.4004 Y4.4979
G01 X-10.3986 Y4.4366
G01 X-10.3943 Y4.3827
G01 X-10.3873 Y4.3292
G01 X-10.3806 Y4.2905
G01 X-10.3691 Y4.2377
G01 X-10.3508 Y4.1715
G01 X-10.3335 Y4.1203
G01 X-10.3137 Y4.0700
G01 X-10.2919 Y4.0215
G01 X-10.2739 Y3.9857
G01 X-10.2476 Y3.9386
G01 X-10.2190 Y3.8927
G01 X-10.1829 Y3.8411
G01 X-10.1459 Y3.7942
G01 X-10.1103 Y3.7535
G01 X-10.0781 Y3.7198
G01 X-8.9249 Y2.5668
G01 X-8.8855 Y2.5298
G01 X-8.8558 Y2.5041
G01 X-8.8089 Y2.4671
G01 X-8.7573 Y2.4310
G01 X-8.7229 Y2.4093
G01 X-8.6773 Y2.3831
G01 X-8.6285 Y2.3581
G01 X-8.5698 Y2.3320
G01 X-8.5158 Y2.3115
G01 X-8.4644 Y2.2949
G01 X-8.4266 Y2.2845
G01 X-8.3671 Y2.2708
G01 X-8.3062 Y2.2605
G01 X-8.2526 Y2.2543
G01 X-8.1987 Y2.2507
G01 X-8.1594 Y2.2497
G01 X-5.6246 Y2.2497
G01 X-5.5707 Y2.2514
G01 X-5.5315 Y2.2543
G01 X-5.4778 Y2.2605
G01 X-5.4246 Y2.2694
G01 X-5.3575 Y2.2845
G01 X-5.3056 Y2.2992
G01 X-5.2682 Y2.3115
G01 X-5.2143 Y2.3320
G01 X-5.1556 Y2.3581
G01 X-5.1068 Y2.3831
G01 X-5.0600 Y2.4100
G01 X-5.0146 Y2.4392
G01 X-4.9752 Y2.4671
G01 X-4.9397 Y2.4948
G01 X-4.8985 Y2.5298
G01 X-4.8592 Y2.5668
G01 X-3.4268 Y3.9992
G01 X-3.3898 Y4.0385
G01 X-3.3641 Y4.0683
G01 X-3.3271 Y4.1152
G01 X-3.2910 Y4.1668
G01 X-3.2693 Y4.2012
G01 X-3.2431 Y4.2468
G01 X-3.2181 Y4.2956
G01 X-3.1920 Y4.3543
G01 X-3.1715 Y4.4082
G01 X-3.1549 Y4.4596
G01 X-3.1445 Y4.4975
G01 X-3.1308 Y4.5570
G01 X-3.1205 Y4.6178
G01 X-3.1155 Y4.6586
G01 X-3.1114 Y4.7107
G01 X-3.1096 Y4.7720
G01 X-3.1096 Y24.0584
G01 X-3.0912 Y24.0880
G01 X-3.0601 Y24.1437
G01 X-3.0377 Y24.1883
G01 X-3.0119 Y24.2457
G01 X-2.9836 Y24.3190
G01 X-2.9639 Y24.3797
G01 X-2.9473 Y24.4413
G01 X-2.9350 Y24.4961
G01 X-2.9252 Y24.5520
G01 X-2.9156 Y24.6299
G01 X-2.9113 Y24.6936
G01 X-2.9100 Y24.7500
G01 X-2.9113 Y24.8064
G01 X-2.9156 Y24.8701
G01 X-2.9252 Y24.9480
G01 X-2.9365 Y25.0108
G01 X-2.9508 Y25.0730
G01 X-2.9682 Y25.1344
G01 X-2.9836 Y25.1810
G01 X-3.0076 Y25.2441
G01 X-3.0377 Y25.3117
G01 X-3.0671 Y25.3693
G01 X-3.0912 Y25.4120
G01 X-3.1096 Y25.4416
G01 X-3.1096 Y26.0100
G01 X-3.1107 Y26.0566
G01 X-3.1143 Y26.1105
G01 X-3.1205 Y26.1642
G01 X-3.1308 Y26.2250
G01 X-3.1409 Y26.2702
G01 X-3.1549 Y26.3224
G01 X-3.1715 Y26.3738
G01 X-3.1920 Y26.4277
G01 X-3.2122 Y26.4738
G01 X-3.2361 Y26.5222
G01 X-3.2624 Y26.5694
G01 X-3.2910 Y26.6152
G01 X-3.3271 Y26.6668
G01 X-3.3548 Y26.7023
G01 X-3.3898 Y26.7435
G01 X-3.4319 Y26.7881
G01 X-10.3400 Y33.6962
G01 X-10.3403 Y34.8539
G01 X-10.3429 Y34.8817
G01 X-10.3481 Y34.9091
G01 X-10.3557 Y34.9359
G01 X-10.3659 Y34.9618
G01 X-10.3721 Y34.9751
G01 X-10.3866 Y35.0007
G01 X-10.4036 Y35.0246
G01 X-10.4227 Y35.0469
G01 X-10.4440 Y35.0671
G01 X-10.4671 Y35.0852
G01 X-10.4919 Y35.1009
G01 X-10.5182 Y35.1141
G01 X-10.5441 Y35.1243
G01 X-10.5709 Y35.1319
G01 X-10.5983 Y35.1371
G01 X-10.6261 Y35.1397
G01 X-13.0400 Y35.1400
G01 X-13.0678 Y35.1387
G01 X-13.0954 Y35.1348
G01 X-13.1226 Y35.1284
G01 X-13.1490 Y35.1195
G01 X-13.1751 Y35.1079
G01 X-13.2006 Y35.0934
G01 X-13.2129 Y35.0852
G01 X-13.2360 Y35.0671
G01 X-13.2573 Y35.0469
G01 X-13.2764 Y35.0246
G01 X-13.2852 Y35.0129
G01 X-13.3009 Y34.9881
G01 X-13.3141 Y34.9618
G01 X-13.3195 Y34.9490
G01 X-13.3284 Y34.9226
G01 X-13.3348 Y34.8954
G01 X-13.3387 Y34.8678
G01 X-13.3400 Y34.8400
G01 X-13.3397 Y32.4261
G01 X-13.3371 Y32.3983
G01 X-13.3319 Y32.3709
G01 X-13.3243 Y32.3441
G01 X-13.3195 Y32.3310
G01 X-13.3079 Y32.3049
G01 X-13.3009 Y32.2919
G01 X-13.2934 Y32.2794
G01 X-13.2764 Y32.2554
G01 X-13.2573 Y32.2331
G01 X-13.2360 Y32.2129
G01 X-13.2129 Y32.1948
G01 X-13.1881 Y32.1791
G01 X-13.1618 Y32.1659
G01 X-13.1359 Y32.1557
G01 X-13.1091 Y32.1481
G01 X-13.0817 Y32.1429
G01 X-13.0678 Y32.1413
G01 X-13.0400 Y32.1400
G01 X-11.8962 Y32.1400
G01 X-5.3104 Y25.5542
G01 X-5.3104 Y25.4416
G01 X-5.3288 Y25.4120
G01 X-5.3599 Y25.3563
G01 X-5.3823 Y25.3117
G01 X-5.4081 Y25.2543
G01 X-5.4364 Y25.1810
G01 X-5.4561 Y25.1203
G01 X-5.4727 Y25.0587
G01 X-5.4850 Y25.0039
G01 X-5.4948 Y24.9480
G01 X-5.5029 Y24.8847
G01 X-5.5080 Y24.8211
G01 X-5.5100 Y24.7500
G01 X-5.5080 Y24.6789
G01 X-5.5029 Y24.6153
G01 X-5.4969 Y24.5665
G01 X-5.4835 Y24.4892
G01 X-5.4692 Y24.4270
G01 X-5.4561 Y24.3797
G01 X-5.4314 Y24.3051
G01 X-5.4124 Y24.2559
G01 X-5.3883 Y24.2009
G01 X-5.3529 Y24.1307
G01 X-5.3288 Y24.0880
G01 X-5.3104 Y24.0584
G01 X-5.3104 Y5.2278
G01 X-6.0878 Y4.4504
G01 X-7.6963 Y4.4504
G01 X-8.1996 Y4.9537
G01 X-8.1996 Y5.3662
G01 X-8.1828 Y5.4277
G01 X-8.1722 Y5.4753
G01 X-8.1636 Y5.5240
G01 X-8.1549 Y5.5946
G01 X-8.1511 Y5.6509
G01 X-8.1500 Y5.7000
G01 X-8.1511 Y5.7491
G01 X-8.1549 Y5.8054
G01 X-8.1636 Y5.8760
G01 X-8.1722 Y5.9247
G01 X-8.1828 Y5.9723
G01 X-8.1996 Y6.0336
G01 X-8.1996 Y7.9062
G01 X-8.1828 Y7.9677
G01 X-8.1722 Y8.0153
G01 X-8.1636 Y8.0640
G01 X-8.1549 Y8.1346
G01 X-8.1511 Y8.1909
G01 X-8.1500 Y8.2400
G01 X-8.1511 Y8.2891
G01 X-8.1549 Y8.3454
G01 X-8.1636 Y8.4160
G01 X-8.1722 Y8.4647
G01 X-8.1828 Y8.5123
G01 X-8.1996 Y8.5736
G01 X-8.1996 Y10.4462
G01 X-8.1828 Y10.5077
G01 X-8.1722 Y10.5553
G01 X-8.1636 Y10.6040
G01 X-8.1549 Y10.6746
G01 X-8.1511 Y10.7309
G01 X-8.1500 Y10.7800
G01 X-8.1511 Y10.8291
G01 X-8.1549 Y10.8854
G01 X-8.1636 Y10.9560
G01 X-8.1722 Y11.0047
G01 X-8.1828 Y11.0523
G01 X-8.1996 Y11.1136
G01 X-8.1996 Y12.9862
G01 X-8.1828 Y13.0477
G01 X-8.1722 Y13.0953
G01 X-8.1636 Y13.1440
G01 X-8.1549 Y13.2146
G01 X-8.1511 Y13.2709
G01 X-8.1500 Y13.3200
G01 X-8.1511 Y13.3691
G01 X-8.1549 Y13.4254
G01 X-8.1636 Y13.4960
G01 X-8.1722 Y13.5447
G01 X-8.1828 Y13.5923
G01 X-8.1996 Y13.6536
G01 X-8.1996 Y15.5262
G01 X-8.1828 Y15.5877
G01 X-8.1722 Y15.6353
G01 X-8.1636 Y15.6840
G01 X-8.1549 Y15.7546
G01 X-8.1511 Y15.8109
G01 X-8.1501 Y15.8526
G01 X-8.1518 Y15.9238
G01 X-8.1563 Y15.9800
G01 X-8.1615 Y16.0214
G01 X-8.1736 Y16.0916
G01 X-8.1863 Y16.1465
G01 X-8.1996 Y16.1936
G01 X-8.1996 Y17.3849
G01 X-8.1891 Y17.4019
G01 X-8.1821 Y17.4149
G01 X-8.1759 Y17.4282
G01 X-8.1657 Y17.4541
G01 X-8.1616 Y17.4674
G01 X-8.1552 Y17.4946
G01 X-8.1513 Y17.5222
G01 X-8.1503 Y17.5361
G01 X-8.1500 Y19.2500
G01 X-8.1513 Y19.2778
G01 X-8.1552 Y19.3054
G01 X-8.1616 Y19.3326
G01 X-8.1705 Y19.3590
G01 X-8.1821 Y19.3851
G01 X-8.1966 Y19.4106
G01 X-8.2048 Y19.4229
G01 X-8.2229 Y19.4460
G01 X-8.2431 Y19.4673
G01 X-8.2654 Y19.4864
G01 X-8.2771 Y19.4952
G01 X-8.3019 Y19.5109
G01 X-8.3149 Y19.5179
G01 X-8.3410 Y19.5295
G01 X-8.3674 Y19.5384
G01 X-8.3946 Y19.5448
G01 X-8.4222 Y19.5487
G01 X-8.4500 Y19.5500
G01 X-10.1500 Y19.5500
G01 X-10.1639 Y19.5497
G01 X-10.1917 Y19.5471
G01 X-10.2191 Y19.5419
G01 X-10.2459 Y19.5343
G01 X-10.2718 Y19.5241
G01 X-10.2851 Y19.5179
G01 X-10.2981 Y19.5109
G01 X-10.3229 Y19.4952
G01 X-10.3346 Y19.4864
G01 X-10.3569 Y19.4673
G01 X-10.3673 Y19.4569
G01 X-10.3864 Y19.4346
G01 X-10.3952 Y19.4229
G01 X-10.4109 Y19.3981
G01 X-10.4179 Y19.3851
G01 X-10.4295 Y19.3590
G01 X-10.4384 Y19.3326
G01 X-10.4448 Y19.3054
G01 X-10.4487 Y19.2778
G01 X-10.4500 Y19.2500
G01 X-10.4500 Y17.5500
G01 X-10.4487 Y17.5222
G01 X-10.4471 Y17.5083
G01 X-10.4448 Y17.4946
G01 X-10.4384 Y17.4674
G01 X-10.4343 Y17.4541
G01 X-10.4241 Y17.4282
G01 X-10.4109 Y17.4019
G01 X-10.4004 Y17.3849
G01 X-10.4004 Y16.1938
G01 X-10.4172 Y16.1323
G01 X-10.4278 Y16.0847
G01 X-10.4364 Y16.0360
G01 X-10.4451 Y15.9654
G01 X-10.4489 Y15.9091
G01 X-10.4500 Y15.8600
G01 X-10.4489 Y15.8109
G01 X-10.4451 Y15.7546
G01 X-10.4364 Y15.6840
G01 X-10.4278 Y15.6353
G01 X-10.4172 Y15.5877
G01 X-10.4004 Y15.5264
G01 X-10.4004 Y13.6538
G01 X-10.4172 Y13.5923
G01 X-10.4278 Y13.5447
G01 X-10.4364 Y13.4960
G01 X-10.4451 Y13.4254
G01 X-10.4489 Y13.3691
G01 X-10.4500 Y13.3200
G01 X-10.4489 Y13.2709
G01 X-10.4451 Y13.2146
G01 X-10.4364 Y13.1440
G01 X-10.4278 Y13.0953
G01 X-10.4172 Y13.0477
G01 X-10.4004 Y12.9864
G01 X-10.4004 Y11.1138
G01 X-10.4172 Y11.0523
G01 X-10.4278 Y11.0047
G01 X-10.4364 Y10.9560
G01 X-10.4451 Y10.8854
G01 X-10.4489 Y10.8291
G01 X-10.4500 Y10.7800
G01 X-10.4489 Y10.7309
G01 X-10.4451 Y10.6746
G01 X-10.4364 Y10.6040
G01 X-10.4278 Y10.5553
G01 X-10.4172 Y10.5077
G01 X-10.4004 Y10.4464
G01 X-10.4004 Y8.5738
G01 X-10.4137 Y8.5265
G01 X-10.4264 Y8.4716
G01 X-10.4385 Y8.4014
G01 X-10.4451 Y8.3454
G01 X-10.4489 Y8.2891
G01 X-10.4500 Y8.2400
G01 X-10.4488 Y8.1909
G00 Z1.0000
G00 X-19.3456 Y6.6150
G01 F76.20
G01 Z-0.1500
G01 F150.00
G01 X-19.4201 Y6.5651
G01 X-19.6853 Y6.1682
G01 X-19.7784 Y5.7000
G01 X-19.6853 Y5.2318
G01 X-19.4201 Y4.8349
G01 X-19.0232 Y4.5697
G01 X-18.6732 Y4.5001
G01 X-12.2565 Y4.5001
G01 X-12.2220 Y4.4986
G01 X-12.1866 Y4.4943
G01 X-11.9631 Y4.4501
G01 X-11.7169 Y4.4501
G01 X-11.3523 Y4.5226
G01 X-11.1564 Y4.6535
G01 X-11.1324 Y4.6684
G01 X-11.1140 Y4.6784
G01 X-11.0894 Y4.6900
G01 X-11.0561 Y4.7029
G01 X-11.0361 Y4.7091
G01 X-11.0158 Y4.7143
G01 X-10.9891 Y4.7196
G01 X-10.9537 Y4.7240
G01 X-10.9265 Y4.7253
G01 X-10.9056 Y4.7252
G01 X-10.8718 Y4.7228
G01 X-10.8492 Y4.7196
G01 X-10.8226 Y4.7143
G01 X-10.8023 Y4.7091
G01 X-10.7823 Y4.7029
G01 X-10.7591 Y4.6943
G01 X-10.7433 Y4.6875
G01 X-10.7244 Y4.6784
G01 X-10.7060 Y4.6684
G01 X-10.6881 Y4.6575
G01 X-10.6707 Y4.6457
G01 X-10.6540 Y4.6331
G01 X-10.6379 Y4.6197
G01 X-10.6225 Y4.6055
G01 X-10.6078 Y4.5906
G01 X-10.5938 Y4.5749
G01 X-10.5806 Y4.5586
G01 X-10.5683 Y4.5417
G01 X-10.5567 Y4.5242
G01 X-10.5392 Y4.4931
G01 X-10.5275 Y4.4686
G01 X-10.5147 Y4.4353
G01 X-10.5068 Y4.4092
G01 X-10.5003 Y4.3817
G01 X-10.4303 Y4.0297
G01 X-10.1651 Y3.6328
G01 X-10.0815 Y3.5762
G01 X-10.0620 Y3.5607
G01 X-10.0404 Y3.5413
G01 X-9.1139 Y2.6148
G01 X-9.0945 Y2.5941
G01 X-9.0738 Y2.5685
G01 X-9.0172 Y2.4849
G01 X-8.6203 Y2.2197
G01 X-8.2719 Y2.1504
G01 X-5.5122 Y2.1504
G01 X-5.1638 Y2.2197
G01 X-4.8685 Y2.4170
G01 X-3.2770 Y4.0085
G01 X-3.0797 Y4.3038
G01 X-2.9866 Y4.7720
G01 X-3.0019 Y4.8489
G01 X-3.0064 Y4.8769
G01 X-3.0091 Y4.9039
G01 X-3.0101 Y4.9322
G01 X-3.0100 Y23.9111
G01 X-3.0086 Y23.9383
G01 X-3.0043 Y23.9737
G01 X-3.0003 Y23.9943
G01 X-2.9954 Y24.0146
G01 X-2.9875 Y24.0407
G01 X-2.9776 Y24.0672
G01 X-2.8101 Y24.4715
G01 X-2.8101 Y25.0285
G01 X-2.9803 Y25.4397
G01 X-2.9875 Y25.4593
G01 X-2.9937 Y25.4794
G01 X-2.9990 Y25.4997
G01 X-3.0032 Y25.5202
G01 X-3.0072 Y25.5471
G01 X-3.0091 Y25.5680
G01 X-3.0100 Y25.5889
G01 X-3.0098 Y25.8634
G01 X-3.0074 Y25.8972
G01 X-3.0043 Y25.9197
G01 X-2.9866 Y26.0100
G01 X-3.0797 Y26.4782
G01 X-3.3449 Y26.8751
G01 X-3.4285 Y26.9317
G01 X-3.4480 Y26.9472
G01 X-3.4696 Y26.9667
G01 X-4.2041 Y27.7010
G01 X-4.2234 Y27.7217
G01 X-4.2368 Y27.7378
G01 X-4.2494 Y27.7546
G01 X-4.2612 Y27.7719
G01 X-4.2752 Y27.7952
G01 X-4.2912 Y27.8271
G01 X-4.2980 Y27.8430
G01 X-4.3066 Y27.8661
G01 X-4.3128 Y27.8861
G01 X-4.3180 Y27.9064
G01 X-4.3233 Y27.9331
G01 X-4.3277 Y27.9685
G01 X-4.3291 Y28.0030
G01 X-4.3282 Y28.0313
G01 X-4.3265 Y28.0504
G01 X-4.3233 Y28.0729
G01 X-4.3180 Y28.0996
G01 X-4.3128 Y28.1199
G01 X-4.3066 Y28.1399
G01 X-4.2980 Y28.1630
G01 X-4.2853 Y28.1915
G01 X-4.2752 Y28.2108
G01 X-4.2645 Y28.2288
G01 X-4.2530 Y28.2463
G01 X-4.2368 Y28.2682
G01 X-4.2234 Y28.2843
G01 X-4.2041 Y28.3050
G01 X-4.1834 Y28.3243
G01 X-4.1673 Y28.3377
G01 X-4.1454 Y28.3539
G01 X-4.1153 Y28.3730
G01 X-4.0906 Y28.3862
G01 X-4.0621 Y28.3989
G01 X-4.0331 Y28.4095
G01 X-3.9987 Y28.4190
G01 X-3.9720 Y28.4243
G01 X-3.9476 Y28.4276
G01 X-3.4270 Y28.6432
G01 X-3.0332 Y29.0370
G01 X-2.8201 Y29.5515
G01 X-2.8201 Y30.1085
G01 X-3.0332 Y30.6230
G01 X-3.4270 Y31.0168
G01 X-3.8438 Y31.1897
G01 X-3.8627 Y31.1988
G01 X-3.8938 Y31.2164
G01 X-3.9164 Y31.2315
G01 X-3.9431 Y31.2523
G01 X-3.9699 Y31.2769
G01 X-4.1650 Y31.4719
G01 X-4.1843 Y31.4926
G01 X-4.2016 Y31.5137
G01 X-4.2139 Y31.5306
G01 X-4.2330 Y31.5607
G01 X-4.2430 Y31.5791
G01 X-4.2521 Y31.5980
G01 X-4.2603 Y31.6173
G01 X-4.2695 Y31.6429
G01 X-4.2754 Y31.6630
G01 X-4.2818 Y31.6903
G01 X-4.2872 Y31.7247
G01 X-4.2891 Y31.7456
G01 X-4.2901 Y31.7739
G01 X-4.2901 Y34.5161
G01 X-4.2891 Y34.5444
G01 X-4.2864 Y34.5715
G01 X-4.2818 Y34.5997
G01 X-4.2754 Y34.6270
G01 X-4.2675 Y34.6530
G01 X-4.2589 Y34.6762
G01 X-4.2462 Y34.7046
G01 X-4.2361 Y34.7239
G01 X-4.2221 Y34.7472
G01 X-4.2051 Y34.7718
G01 X-4.1843 Y34.7974
G01 X-4.1650 Y34.8181
G01 X-3.8793 Y35.1038
G01 X-3.5901 Y35.8021
G01 X-3.5901 Y36.5579
G01 X-3.8793 Y37.2562
G01 X-4.4138 Y37.7907
G01 X-5.1121 Y38.0799
G01 X-5.8679 Y38.0799
G01 X-6.5662 Y37.7907
G01 X-7.1007 Y37.2562
G01 X-7.3899 Y36.5579
G01 X-7.3899 Y35.8021
G01 X-7.1007 Y35.1038
G01 X-6.8150 Y34.8181
G01 X-6.7957 Y34.7974
G01 X-6.7749 Y34.7718
G01 X-6.7579 Y34.7472
G01 X-6.7439 Y34.7239
G01 X-6.7279 Y34.6920
G01 X-6.7175 Y34.6669
G01 X-6.7063 Y34.6330
G01 X-6.6997 Y34.6066
G01 X-6.6936 Y34.5715
G01 X-6.6909 Y34.5444
G01 X-6.6899 Y34.5161
G01 X-6.6899 Y31.2602
G01 X-6.6914 Y31.2257
G01 X-6.6957 Y31.1903
G01 X-6.7067 Y31.1344
G01 X-6.7133 Y31.1080
G01 X-6.7245 Y31.0742
G01 X-6.7349 Y31.0490
G01 X-6.7509 Y31.0172
G01 X-6.7649 Y30.9939
G01 X-6.7855 Y30.9647
G01 X-6.8027 Y30.9437
G01 X-6.8273 Y30.9178
G01 X-6.8427 Y30.9036
G01 X-6.8588 Y30.8902
G01 X-6.8807 Y30.8740
G01 X-6.9108 Y30.8549
G01 X-6.9355 Y30.8418
G01 X-6.9732 Y30.8254
G01 X-7.0071 Y30.8142
G01 X-7.0274 Y30.8090
G01 X-7.0541 Y30.8037
G01 X-7.0895 Y30.7993
G01 X-7.1104 Y30.7981
G01 X-7.1376 Y30.7981
G01 X-7.1714 Y30.8005
G01 X-7.1940 Y30.8037
G01 X-7.2206 Y30.8090
G01 X-7.2409 Y30.8142
G01 X-7.2748 Y30.8254
G01 X-7.2999 Y30.8358
G01 X-7.3188 Y30.8449
G01 X-7.3486 Y30.8617
G01 X-7.3674 Y30.8740
G01 X-7.3892 Y30.8902
G01 X-7.4053 Y30.9036
G01 X-7.4260 Y30.9230
G01 X-10.0988 Y33.5957
G01 X-10.1181 Y33.6164
G01 X-10.1354 Y33.6375
G01 X-10.1559 Y33.6666
G01 X-10.1668 Y33.6845
G01 X-10.1800 Y33.7092
G01 X-10.1941 Y33.7411
G01 X-10.2032 Y33.7667
G01 X-10.2128 Y33.8011
G01 X-10.2181 Y33.8278
G01 X-10.2224 Y33.8632
G01 X-10.2239 Y33.8977
G01 X-10.2239 Y34.7979
G01 X-10.2633 Y34.9960
G01 X-10.3517 Y35.1283
G01 X-10.4840 Y35.2167
G01 X-10.6821 Y35.2561
G01 X-12.9979 Y35.2561
G01 X-13.1960 Y35.2167
G01 X-13.3283 Y35.1283
G01 X-13.4167 Y34.9960
G01 X-13.4561 Y34.7979
G01 X-13.4561 Y32.4821
G01 X-13.4167 Y32.2840
G01 X-13.3283 Y32.1517
G01 X-13.1960 Y32.0633
G01 X-12.9979 Y32.0239
G01 X-12.0977 Y32.0239
G01 X-12.0632 Y32.0224
G01 X-12.0278 Y32.0181
G01 X-12.0011 Y32.0128
G01 X-11.9667 Y32.0032
G01 X-11.9377 Y31.9927
G01 X-11.9029 Y31.9768
G01 X-11.8731 Y31.9600
G01 X-11.8493 Y31.9441
G01 X-11.8226 Y31.9234
G01 X-11.7957 Y31.8988
G01 X-7.7994 Y27.9021
G01 X-7.7855 Y27.8865
G01 X-7.7688 Y27.8656
G01 X-7.7517 Y27.8410
G01 X-7.7378 Y27.8177
G01 X-7.7277 Y27.7984
G01 X-7.7149 Y27.7700
G01 X-7.7064 Y27.7468
G01 X-7.6985 Y27.7208
G01 X-7.6920 Y27.6935
G01 X-7.6874 Y27.6653
G01 X-7.6852 Y27.6444
G01 X-7.6839 Y27.6173
G01 X-7.6840 Y27.5963
G01 X-7.6864 Y27.5625
G01 X-7.6896 Y27.5400
G01 X-7.6935 Y27.5194
G01 X-7.6985 Y27.4990
G01 X-7.7044 Y27.4789
G01 X-7.7149 Y27.4499
G01 X-7.7308 Y27.4151
G01 X-7.7476 Y27.3853
G01 X-7.7688 Y27.3542
G01 X-7.7855 Y27.3334
G01 X-7.8089 Y27.3079
G01 X-7.8343 Y27.2845
G01 X-7.8552 Y27.2679
G01 X-7.8850 Y27.2475
G01 X-7.9161 Y27.2299
G01 X-7.9508 Y27.2140
G01 X-7.9799 Y27.2035
G01 X-8.0142 Y27.1940
G01 X-8.0348 Y27.1897
G01 X-8.0555 Y27.1865
G01 X-8.0825 Y27.1838
G01 X-8.1035 Y27.1829
G01 X-8.1244 Y27.1831
G01 X-8.1583 Y27.1855
G01 X-8.1808 Y27.1886
G01 X-8.4575 Y27.2434
G01 X-8.5478 Y27.2257
G01 X-8.5832 Y27.2214
G01 X-8.6104 Y27.2200
G01 X-9.7545 Y27.2199
G01 X-9.7828 Y27.2209
G01 X-9.8098 Y27.2236
G01 X-9.8381 Y27.2282
G01 X-9.8654 Y27.2346
G01 X-9.8914 Y27.2425
G01 X-9.9145 Y27.2511
G01 X-9.9430 Y27.2638
G01 X-9.9677 Y27.2770
G01 X-9.9944 Y27.2937
G01 X-10.2361 Y27.3409
G01 X-10.2778 Y27.3316
G01 X-10.3315 Y27.3222
G01 X-10.4071 Y27.3129
G01 X-10.4684 Y27.3087
G01 X-10.5225 Y27.3075
G01 X-10.6175 Y27.3075
G01 X-10.6863 Y27.3095
G01 X-10.7458 Y27.3141
G01 X-10.8085 Y27.3222
G01 X-10.8622 Y27.3316
G01 X-10.9064 Y27.3415
G01 X-11.1452 Y27.2940
G01 X-11.5926 Y26.9951
G01 X-11.8915 Y26.5477
G01 X-11.9964 Y26.0200
G01 X-11.8915 Y25.4923
G01 X-11.7885 Y25.3381
G01 X-11.7746 Y25.3148
G01 X-11.7585 Y25.2829
G01 X-11.7517 Y25.2670
G01 X-11.7431 Y25.2439
G01 X-11.7369 Y25.2239
G01 X-11.7317 Y25.2036
G01 X-11.7274 Y25.1831
G01 X-11.7242 Y25.1624
G01 X-11.7220 Y25.1415
G01 X-11.7208 Y25.1206
G01 X-11.7207 Y25.0996
G01 X-11.7215 Y25.0787
G01 X-11.7242 Y25.0516
G01 X-11.7274 Y25.0309
G01 X-11.7317 Y25.0104
G01 X-11.7369 Y24.9901
G01 X-11.7431 Y24.9701
G01 X-11.7517 Y24.9470
G01 X-11.7676 Y24.9122
G01 X-11.7776 Y24.8938
G01 X-11.7885 Y24.8759
G01 X-11.8003 Y24.8586
G01 X-11.8129 Y24.8418
G01 X-11.8263 Y24.8257
G01 X-11.8457 Y24.8050
G01 X-11.8711 Y24.7816
G01 X-11.8992 Y24.7597
G01 X-11.9165 Y24.7479
G01 X-11.9344 Y24.7370
G01 X-11.9591 Y24.7238
G01 X-11.9969 Y24.7075
G01 X-12.0307 Y24.6963
G01 X-12.0640 Y24.6882
G01 X-12.0985 Y24.6828
G01 X-12.1193 Y24.6809
G01 X-12.1476 Y24.6799
G01 X-12.9571 Y24.6800
G01 X-12.9843 Y24.6814
G01 X-13.0197 Y24.6857
G01 X-13.1100 Y24.7034
G01 X-13.5782 Y24.6103
G01 X-13.9751 Y24.3451
G01 X-14.0317 Y24.2615
G01 X-14.0525 Y24.2359
G01 X-14.0718 Y24.2152
G01 X-16.0219 Y22.2650
G01 X-16.0426 Y22.2457
G01 X-16.0587 Y22.2323
G01 X-16.0755 Y22.2197
G01 X-16.0928 Y22.2079
G01 X-16.1107 Y22.1970
G01 X-16.1347 Y22.1842
G01 X-16.1537 Y22.1753
G01 X-16.1732 Y22.1675
G01 X-16.2070 Y22.1563
G01 X-16.2403 Y22.1482
G01 X-16.2747 Y22.1428
G01 X-16.2956 Y22.1409
G01 X-16.3166 Y22.1400
G01 X-17.2083 Y22.1399
G01 X-17.2366 Y22.1409
G01 X-17.2557 Y22.1426
G01 X-17.2782 Y22.1457
G01 X-17.2988 Y22.1497
G01 X-17.3252 Y22.1563
G01 X-17.3452 Y22.1625
G01 X-17.3683 Y22.1711
G01 X-17.3842 Y22.1779
G01 X-17.4031 Y22.1870
G01 X-17.4329 Y22.2038
G01 X-17.4516 Y22.2161
G01 X-17.4685 Y22.2284
G01 X-17.4834 Y22.2404
G01 X-17.5005 Y22.2556
G01 X-17.5197 Y22.2748
G01 X-17.5337 Y22.2904
G01 X-17.5468 Y22.3067
G01 X-17.5592 Y22.3237
G01 X-17.5707 Y22.3412
G01 X-17.5814 Y22.3592
G01 X-17.5915 Y22.3785
G01 X-17.5999 Y22.3968
G01 X-17.6078 Y22.4162
G01 X-17.6147 Y22.4360
G01 X-17.6207 Y22.4561
G01 X-17.6271 Y22.4834
G01 X-17.6325 Y22.5178
G01 X-17.6344 Y22.5387
G01 X-17.6353 Y22.5670
G01 X-17.6344 Y22.5953
G01 X-17.6327 Y22.6144
G01 X-17.6271 Y22.6506
G01 X-17.6190 Y22.6839
G01 X-17.6078 Y22.7178
G01 X-17.5974 Y22.7429
G01 X-17.5814 Y22.7748
G01 X-17.5634 Y22.8043
G01 X-17.4247 Y23.0118
G01 X-17.3316 Y23.4800
G01 X-17.4247 Y23.9482
G01 X-17.6899 Y24.3451
G01 X-17.7705 Y24.3991
G01 X-17.8023 Y24.4234
G01 X-17.8194 Y24.4386
G01 X-17.8386 Y24.4578
G01 X-17.8619 Y24.4848
G01 X-17.8745 Y24.5016
G01 X-17.8896 Y24.5242
G01 X-17.9003 Y24.5422
G01 X-17.9104 Y24.5615
G01 X-17.9231 Y24.5900
G01 X-17.9317 Y24.6131
G01 X-17.9396 Y24.6391
G01 X-17.9460 Y24.6664
G01 X-17.9506 Y24.6946
G01 X-17.9533 Y24.7217
G01 X-17.9541 Y24.7426
G01 X-17.9540 Y24.7636
G01 X-17.9528 Y24.7845
G01 X-17.9506 Y24.8054
G01 X-17.9445 Y24.8405
G01 X-17.9396 Y24.8609
G01 X-17.9336 Y24.8810
G01 X-17.9231 Y24.9100
G01 X-17.9072 Y24.9448
G01 X-17.8904 Y24.9746
G01 X-17.8745 Y24.9984
G01 X-17.8538 Y25.0252
G01 X-17.8292 Y25.0520
G01 X-17.8085 Y25.0713
G01 X-17.7923 Y25.0847
G01 X-17.7756 Y25.0973
G01 X-17.6899 Y25.1549
G01 X-17.4247 Y25.5518
G01 X-17.3316 Y26.0200
G01 X-17.4247 Y26.4882
G01 X-17.6899 Y26.8851
G01 X-17.7756 Y26.9427
G01 X-17.7923 Y26.9553
G01 X-17.8085 Y26.9687
G01 X-17.8292 Y26.9880
G01 X-17.8526 Y27.0134
G01 X-17.8692 Y27.0343
G01 X-17.8863 Y27.0589
G01 X-17.9003 Y27.0822
G01 X-17.9163 Y27.1141
G01 X-17.9267 Y27.1392
G01 X-17.9379 Y27.1731
G01 X-17.9445 Y27.1995
G01 X-17.9484 Y27.2201
G01 X-17.9528 Y27.2555
G01 X-17.9541 Y27.2826
G01 X-17.9533 Y27.3183
G01 X-17.9506 Y27.3454
G01 X-17.9460 Y27.3736
G01 X-17.9379 Y27.4069
G01 X-17.9267 Y27.4408
G01 X-17.9163 Y27.4659
G01 X-17.9003 Y27.4978
G01 X-17.8863 Y27.5211
G01 X-17.8692 Y27.5457
G01 X-17.8526 Y27.5666
G01 X-17.8292 Y27.5920
G01 X-17.8085 Y27.6113
G01 X-17.7923 Y27.6247
G01 X-17.7756 Y27.6373
G01 X-17.6899 Y27.6949
G01 X-17.4247 Y28.0918
G01 X-17.3316 Y28.5600
G01 X-17.4247 Y29.0282
G01 X-17.6899 Y29.4251
G01 X-17.7705 Y29.4791
G01 X-17.7874 Y29.4914
G01 X-17.8037 Y29.5046
G01 X-17.8194 Y29.5186
G01 X-17.8386 Y29.5378
G01 X-17.8619 Y29.5648
G01 X-17.8781 Y29.5867
G01 X-17.8972 Y29.6168
G01 X-17.9104 Y29.6415
G01 X-17.9231 Y29.6700
G01 X-17.9336 Y29.6990
G01 X-17.9431 Y29.7334
G01 X-17.9474 Y29.7539
G01 X-17.9514 Y29.7808
G01 X-17.9540 Y29.8164
G01 X-17.9540 Y29.8436
G01 X-17.9516 Y29.8774
G01 X-17.9460 Y29.9136
G01 X-17.9396 Y29.9409
G01 X-17.9317 Y29.9669
G01 X-17.9188 Y30.0002
G01 X-17.9072 Y30.0248
G01 X-17.8972 Y30.0432
G01 X-17.8863 Y30.0611
G01 X-17.8692 Y30.0857
G01 X-17.8526 Y30.1066
G01 X-17.8291 Y30.1320
G01 X-17.8085 Y30.1513
G01 X-17.7923 Y30.1647
G01 X-17.7756 Y30.1773
G01 X-17.6899 Y30.2349
G01 X-17.4247 Y30.6318
G01 X-17.3316 Y31.1000
G01 X-17.4247 Y31.5682
G01 X-17.6899 Y31.9651
G01 X-18.0868 Y32.2303
G01 X-18.4368 Y32.2999
G01 X-18.6732 Y32.2999
G01 X-19.0232 Y32.2303
G01 X-19.4201 Y31.9651
G01 X-19.6853 Y31.5682
G01 X-19.7784 Y31.1000
G01 X-19.6853 Y30.6318
G01 X-19.4201 Y30.2349
G01 X-19.3344 Y30.1773
G01 X-19.3177 Y30.1647
G01 X-19.3016 Y30.1513
G01 X-19.2809 Y30.1320
G01 X-19.2574 Y30.1066
G01 X-19.2408 Y30.0857
G01 X-19.2237 Y30.0611
G01 X-19.2097 Y30.0378
G01 X-19.1937 Y30.0059
G01 X-19.1833 Y29.9808
G01 X-19.1721 Y29.9469
G01 X-19.1655 Y29.9205
G01 X-19.1616 Y29.8999
G01 X-19.1572 Y29.8645
G01 X-19.1559 Y29.8374
G01 X-19.1567 Y29.8017
G01 X-19.1594 Y29.7746
G01 X-19.1640 Y29.7464
G01 X-19.1721 Y29.7131
G01 X-19.1833 Y29.6792
G01 X-19.1937 Y29.6541
G01 X-19.2097 Y29.6222
G01 X-19.2237 Y29.5989
G01 X-19.2408 Y29.5743
G01 X-19.2574 Y29.5534
G01 X-19.2809 Y29.5280
G01 X-19.3016 Y29.5087
G01 X-19.3177 Y29.4953
G01 X-19.3344 Y29.4827
G01 X-19.4201 Y29.4251
G01 X-19.6853 Y29.0282
G01 X-19.7784 Y28.5600
G01 X-19.6853 Y28.0918
G01 X-19.4201 Y27.6949
G01 X-19.3344 Y27.6373
G01 X-19.3177 Y27.6247
G01 X-19.3016 Y27.6113
G01 X-19.2809 Y27.5920
G01 X-19.2574 Y27.5666
G01 X-19.2408 Y27.5457
G01 X-19.2237 Y27.5211
G01 X-19.2097 Y27.4978
G01 X-19.1937 Y27.4659
G01 X-19.1833 Y27.4408
G01 X-19.1721 Y27.4069
G01 X-19.1655 Y27.3805
G01 X-19.1616 Y27.3599
G01 X-19.1572 Y27.3245
G01 X-19.1559 Y27.2974
G01 X-19.1567 Y27.2617
G01 X-19.1594 Y27.2346
G01 X-19.1640 Y27.2064
G01 X-19.1721 Y27.1731
G01 X-19.1833 Y27.1392
G01 X-19.1937 Y27.1141
G01 X-19.2097 Y27.0822
G01 X-19.2237 Y27.0589
G01 X-19.2408 Y27.0343
G01 X-19.2574 Y27.0134
G01 X-19.2809 Y26.9880
G01 X-19.3016 Y26.9687
G01 X-19.3177 Y26.9553
G01 X-19.3344 Y26.9427
G01 X-19.4201 Y26.8851
G01 X-19.6853 Y26.4882
G01 X-19.7784 Y26.0200
G01 X-19.6853 Y25.5518
G01 X-19.4201 Y25.1549
G01 X-19.3344 Y25.0973
G01 X-19.3177 Y25.0847
G01 X-19.3016 Y25.0713
G01 X-19.2809 Y25.0520
G01 X-19.2574 Y25.0266
G01 X-19.2408 Y25.0057
G01 X-19.2237 Y24.9811
G01 X-19.2097 Y24.9578
G01 X-19.1937 Y24.9259
G01 X-19.1833 Y24.9008
G01 X-19.1721 Y24.8669
G01 X-19.1655 Y24.8405
G01 X-19.1616 Y24.8199
G01 X-19.1572 Y24.7845
G01 X-19.1559 Y24.7574
G01 X-19.1567 Y24.7217
G01 X-19.1594 Y24.6946
G01 X-19.1640 Y24.6664
G01 X-19.1721 Y24.6331
G01 X-19.1833 Y24.5992
G01 X-19.1937 Y24.5741
G01 X-19.2097 Y24.5422
G01 X-19.2237 Y24.5189
G01 X-19.2408 Y24.4943
G01 X-19.2574 Y24.4734
G01 X-19.2809 Y24.4480
G01 X-19.3016 Y24.4287
G01 X-19.3177 Y24.4153
G01 X-19.3344 Y24.4027
G01 X-19.4201 Y24.3451
G01 X-19.6853 Y23.9482
G01 X-19.7784 Y23.4800
G01 X-19.6853 Y23.0118
G01 X-19.4201 Y22.6149
G01 X-19.3395 Y22.5609
G01 X-19.3226 Y22.5486
G01 X-19.3063 Y22.5354
G01 X-19.2906 Y22.5214
G01 X-19.2714 Y22.5022
G01 X-19.2481 Y22.4752
G01 X-19.2319 Y22.4533
G01 X-19.2128 Y22.4232
G01 X-19.1996 Y22.3985
G01 X-19.1869 Y22.3700
G01 X-19.1764 Y22.3410
G01 X-19.1669 Y22.3066
G01 X-19.1626 Y22.2861
G01 X-19.1586 Y22.2592
G01 X-19.1560 Y22.2236
G01 X-19.1560 Y22.1964
G01 X-19.1584 Y22.1626
G01 X-19.1640 Y22.1264
G01 X-19.1704 Y22.0991
G01 X-19.1783 Y22.0731
G01 X-19.1912 Y22.0398
G01 X-19.2028 Y22.0152
G01 X-19.2128 Y21.9968
G01 X-19.2237 Y21.9789
G01 X-19.2408 Y21.9543
G01 X-19.2574 Y21.9334
G01 X-19.2809 Y21.9080
G01 X-19.3016 Y21.8887
G01 X-19.3177 Y21.8753
G01 X-19.3344 Y21.8627
G01 X-19.4201 Y21.8051
G01 X-19.6853 Y21.4082
G01 X-19.7784 Y20.9400
G01 X-19.6853 Y20.4718
G01 X-19.4201 Y20.0749
G01 X-19.3395 Y20.0209
G01 X-19.3226 Y20.0086
G01 X-19.3063 Y19.9954
G01 X-19.2906 Y19.9814
G01 X-19.2714 Y19.9622
G01 X-19.2481 Y19.9352
G01 X-19.2319 Y19.9133
G01 X-19.2128 Y19.8832
G01 X-19.1996 Y19.8585
G01 X-19.1869 Y19.8300
G01 X-19.1764 Y19.8010
G01 X-19.1669 Y19.7666
G01 X-19.1626 Y19.7461
G01 X-19.1586 Y19.7192
G01 X-19.1560 Y19.6836
G01 X-19.1560 Y19.6564
G01 X-19.1584 Y19.6226
G01 X-19.1640 Y19.5864
G01 X-19.1704 Y19.5591
G01 X-19.1783 Y19.5331
G01 X-19.1912 Y19.4998
G01 X-19.2028 Y19.4752
G01 X-19.2128 Y19.4568
G01 X-19.2237 Y19.4389
G01 X-19.2408 Y19.4143
G01 X-19.2574 Y19.3934
G01 X-19.2809 Y19.3680
G01 X-19.3016 Y19.3487
G01 X-19.3177 Y19.3353
G01 X-19.3344 Y19.3227
G01 X-19.4201 Y19.2651
G01 X-19.6853 Y18.8682
G01 X-19.7784 Y18.4000
G01 X-19.6853 Y17.9318
G01 X-19.4201 Y17.5349
G01 X-19.3395 Y17.4809
G01 X-19.3226 Y17.4686
G01 X-19.3063 Y17.4554
G01 X-19.2906 Y17.4414
G01 X-19.2714 Y17.4222
G01 X-19.2481 Y17.3952
G01 X-19.2319 Y17.3733
G01 X-19.2128 Y17.3432
G01 X-19.1996 Y17.3185
G01 X-19.1869 Y17.2900
G01 X-19.1764 Y17.2610
G01 X-19.1669 Y17.2266
G01 X-19.1626 Y17.2061
G01 X-19.1586 Y17.1792
G01 X-19.1560 Y17.1436
G01 X-19.1560 Y17.1164
G01 X-19.1584 Y17.0826
G01 X-19.1640 Y17.0464
G01 X-19.1704 Y17.0191
G01 X-19.1783 Y16.9931
G01 X-19.1912 Y16.9598
G01 X-19.2028 Y16.9352
G01 X-19.2128 Y16.9168
G01 X-19.2237 Y16.8989
G01 X-19.2408 Y16.8743
G01 X-19.2574 Y16.8534
G01 X-19.2809 Y16.8280
G01 X-19.3016 Y16.8087
G01 X-19.3177 Y16.7953
G01 X-19.3344 Y16.7827
G01 X-19.4201 Y16.7251
G01 X-19.6853 Y16.3282
G01 X-19.7784 Y15.8600
G01 X-19.6853 Y15.3918
G01 X-19.4201 Y14.9949
G01 X-19.3395 Y14.9409
G01 X-19.3226 Y14.9286
G01 X-19.3063 Y14.9154
G01 X-19.2906 Y14.9014
G01 X-19.2714 Y14.8822
G01 X-19.2481 Y14.8552
G01 X-19.2319 Y14.8333
G01 X-19.2128 Y14.8032
G01 X-19.1996 Y14.7785
G01 X-19.1869 Y14.7500
G01 X-19.1764 Y14.7210
G01 X-19.1669 Y14.6866
G01 X-19.1626 Y14.6661
G01 X-19.1586 Y14.6392
G01 X-19.1560 Y14.6036
G01 X-19.1560 Y14.5764
G01 X-19.1584 Y14.5426
G01 X-19.1640 Y14.5064
G01 X-19.1704 Y14.4791
G01 X-19.1783 Y14.4531
G01 X-19.1912 Y14.4198
G01 X-19.2028 Y14.3952
G01 X-19.2128 Y14.3768
G01 X-19.2237 Y14.3589
G01 X-19.2408 Y14.3343
G01 X-19.2574 Y14.3134
G01 X-19.2809 Y14.2880
G01 X-19.3016 Y14.2687
G01 X-19.3177 Y14.2553
G01 X-19.3344 Y14.2427
G01 X-19.4201 Y14.1851
G01 X-19.6853 Y13.7882
G01 X-19.7784 Y13.3200
G01 X-19.6853 Y12.8518
G01 X-19.4201 Y12.4549
G01 X-19.3395 Y12.4009
G01 X-19.3226 Y12.3886
G01 X-19.3063 Y12.3754
G01 X-19.2906 Y12.3614
G01 X-19.2714 Y12.3422
G01 X-19.2481 Y12.3152
G01 X-19.2319 Y12.2933
G01 X-19.2128 Y12.2632
G01 X-19.2028 Y12.2448
G01 X-19.1912 Y12.2202
G01 X-19.1783 Y12.1869
G01 X-19.1704 Y12.1609
G01 X-19.1640 Y12.1336
G01 X-19.1594 Y12.1054
G01 X-19.1567 Y12.0783
G01 X-19.1559 Y12.0426
G01 X-19.1584 Y12.0026
G01 X-19.1640 Y11.9664
G01 X-19.1704 Y11.9391
G01 X-19.1783 Y11.9131
G01 X-19.1912 Y11.8798
G01 X-19.2028 Y11.8552
G01 X-19.2128 Y11.8368
G01 X-19.2237 Y11.8189
G01 X-19.2408 Y11.7943
G01 X-19.2574 Y11.7734
G01 X-19.2809 Y11.7480
G01 X-19.3016 Y11.7287
G01 X-19.3177 Y11.7153
G01 X-19.3344 Y11.7027
G01 X-19.4201 Y11.6451
G01 X-19.6853 Y11.2482
G01 X-19.7784 Y10.7800
G01 X-19.6853 Y10.3118
G01 X-19.4201 Y9.9149
G01 X-19.3395 Y9.8609
G01 X-19.3226 Y9.8486
G01 X-19.3063 Y9.8354
G01 X-19.2906 Y9.8214
G01 X-19.2714 Y9.8022
G01 X-19.2481 Y9.7752
G01 X-19.2319 Y9.7533
G01 X-19.2128 Y9.7232
G01 X-19.2028 Y9.7048
G01 X-19.1912 Y9.6802
G01 X-19.1833 Y9.6608
G01 X-19.1721 Y9.6269
G01 X-19.1669 Y9.6066
G01 X-19.1626 Y9.5861
G01 X-19.1586 Y9.5592
G01 X-19.1560 Y9.5236
G01 X-19.1560 Y9.4964
G01 X-19.1572 Y9.4755
G01 X-19.1594 Y9.4546
G01 X-19.1655 Y9.4195
G01 X-19.1704 Y9.3991
G01 X-19.1764 Y9.3790
G01 X-19.1869 Y9.3500
G01 X-19.2028 Y9.3152
G01 X-19.2196 Y9.2854
G01 X-19.2355 Y9.2616
G01 X-19.2563 Y9.2348
G01 X-19.2809 Y9.2080
G01 X-19.3016 Y9.1887
G01 X-19.3177 Y9.1753
G01 X-19.3344 Y9.1627
G01 X-19.4201 Y9.1051
G01 X-19.6853 Y8.7082
G01 X-19.7784 Y8.2400
G01 X-19.6853 Y7.7718
G01 X-19.4201 Y7.3749
G01 X-19.3395 Y7.3209
G01 X-19.3077 Y7.2966
G01 X-19.2906 Y7.2814
G01 X-19.2714 Y7.2622
G01 X-19.2574 Y7.2466
G01 X-19.2408 Y7.2257
G01 X-19.2204 Y7.1958
G01 X-19.2097 Y7.1778
G01 X-19.1996 Y7.1585
G01 X-19.1833 Y7.1208
G01 X-19.1764 Y7.1010
G01 X-19.1704 Y7.0809
G01 X-19.1640 Y7.0536
G01 X-19.1586 Y7.0192
G01 X-19.1560 Y6.9836
G01 X-19.1560 Y6.9564
G01 X-19.1584 Y6.9226
G01 X-19.1640 Y6.8864
G01 X-19.1721 Y6.8531
G01 X-19.1833 Y6.8192
G01 X-19.1937 Y6.7941
G01 X-19.2097 Y6.7622
G01 X-19.2196 Y6.7454
G01 X-19.2319 Y6.7267
G01 X-19.2481 Y6.7048
G01 X-19.2714 Y6.6778
G01 X-19.2906 Y6.6586
G01 X-19.3177 Y6.6353
G01 X-19.3456 Y6.6150
G00 Z1.0000
G00 X-19.6542 Y5.6534
G01 F76.20
G01 Z-0.1500
G01 F150.00
G01 X-19.6493 Y5.5848
G01 X-19.6423 Y5.5313
G01 X-19.6327 Y5.4781
G01 X-19.6205 Y5.4255
G01 X-19.6058 Y5.3736
G01 X-19.5885 Y5.3224
G01 X-19.5730 Y5.2823
G01 X-19.5528 Y5.2362
G01 X-19.5289 Y5.1878
G01 X-19.4950 Y5.1280
G01 X-19.4658 Y5.0826
G01 X-19.4379 Y5.0432
G01 X-19.4102 Y5.0077
G01 X-19.3752 Y4.9665
G01 X-19.3278 Y4.9168
G01 X-19.2885 Y4.8798
G01 X-19.2473 Y4.8448
G01 X-19.2118 Y4.8171
G01 X-19.1602 Y4.7810
G01 X-19.1258 Y4.7593
G01 X-19.0802 Y4.7331
G01 X-19.0314 Y4.7081
G01 X-18.9829 Y4.6863
G01 X-18.9188 Y4.6615
G01 X-18.8674 Y4.6449
G01 X-18.8152 Y4.6309
G01 X-18.7700 Y4.6208
G01 X-18.7092 Y4.6105
G01 X-18.6684 Y4.6055
G01 X-18.6163 Y4.6014
G01 X-18.5550 Y4.5996
G01 X-12.1738 Y4.5996
G01 X-12.1123 Y4.5828
G01 X-12.0647 Y4.5722
G01 X-12.0160 Y4.5636
G01 X-11.9454 Y4.5549
G01 X-11.8891 Y4.5511
G01 X-11.8400 Y4.5500
G01 X-11.7762 Y4.5518
G01 X-11.7200 Y4.5563
G01 X-11.6640 Y4.5636
G01 X-11.6153 Y4.5722
G01 X-11.5677 Y4.5828
G01 X-11.5132 Y4.5975
G01 X-11.4595 Y4.6148
G01 X-11.4033 Y4.6362
G01 X-11.3550 Y4.6573
G01 X-11.3044 Y4.6824
G01 X-11.2551 Y4.7099
G01 X-11.2073 Y4.7398
G01 X-11.1537 Y4.7773
G01 X-11.1162 Y4.8064
G01 X-11.0732 Y4.8430
G01 X-11.0268 Y4.8868
G01 X-10.9830 Y4.9332
G01 X-10.9464 Y4.9762
G01 X-10.9173 Y5.0137
G01 X-10.8798 Y5.0673
G01 X-10.8499 Y5.1151
G01 X-10.8224 Y5.1644
G01 X-10.7973 Y5.2150
G01 X-10.7762 Y5.2633
G01 X-10.7548 Y5.3195
G01 X-10.7375 Y5.3732
G01 X-10.7228 Y5.4277
G01 X-10.7122 Y5.4753
G01 X-10.7036 Y5.5240
G01 X-10.6961 Y5.5817
G01 X-10.6918 Y5.6362
G01 X-10.6900 Y5.7000
G01 X-10.6918 Y5.7638
G01 X-10.6963 Y5.8200
G01 X-10.7036 Y5.8760
G01 X-10.7122 Y5.9247
G01 X-10.7228 Y5.9723
G01 X-10.7375 Y6.0268
G01 X-10.7548 Y6.0805
G01 X-10.7762 Y6.1367
G01 X-10.7973 Y6.1850
G01 X-10.8224 Y6.2356
G01 X-10.8499 Y6.2849
G01 X-10.8798 Y6.3327
G01 X-10.9173 Y6.3863
G01 X-10.9464 Y6.4238
G01 X-10.9830 Y6.4668
G01 X-11.0268 Y6.5132
G01 X-11.0732 Y6.5570
G01 X-11.1162 Y6.5936
G01 X-11.1537 Y6.6227
G01 X-11.2073 Y6.6602
G01 X-11.2551 Y6.6901
G01 X-11.3044 Y6.7176
G01 X-11.3550 Y6.7427
G01 X-11.4033 Y6.7638
G01 X-11.4595 Y6.7852
G01 X-11.5132 Y6.8025
G01 X-11.5677 Y6.8172
G01 X-11.6153 Y6.8278
G01 X-11.6640 Y6.8364
G01 X-11.7217 Y6.8439
G01 X-11.7762 Y6.8482
G01 X-11.8400 Y6.8500
G01 X-11.8891 Y6.8489
G01 X-11.9454 Y6.8451
G01 X-12.0160 Y6.8364
G01 X-12.0647 Y6.8278
G01 X-12.1123 Y6.8172
G01 X-12.1736 Y6.8004
G01 X-18.5550 Y6.8004
G01 X-18.6016 Y6.7993
G01 X-18.6555 Y6.7957
G01 X-18.7237 Y6.7873
G01 X-18.7700 Y6.7792
G01 X-18.8152 Y6.7691
G01 X-18.8674 Y6.7551
G01 X-18.9188 Y6.7385
G01 X-18.9727 Y6.7180
G01 X-19.0188 Y6.6978
G01 X-19.0672 Y6.6739
G01 X-19.1144 Y6.6476
G01 X-19.1724 Y6.6108
G01 X-19.2118 Y6.5829
G01 X-19.2587 Y6.5459
G01 X-19.2994 Y6.5103
G01 X-19.3331 Y6.4781
G01 X-19.3653 Y6.4444
G01 X-19.4021 Y6.4023
G01 X-19.4379 Y6.3568
G01 X-19.4658 Y6.3174
G01 X-19.4957 Y6.2708
G01 X-19.5219 Y6.2252
G01 X-19.5469 Y6.1764
G01 X-19.5687 Y6.1279
G01 X-19.5935 Y6.0638
G01 X-19.6101 Y6.0124
G01 X-19.6241 Y5.9602
G01 X-19.6342 Y5.9150
G01 X-19.6445 Y5.8542
G01 X-19.6507 Y5.8005
G01 X-19.6543 Y5.7466
G01 X-19.6554 Y5.7000
G01 X-19.6542 Y5.6534
G00 Z1.0000
G00 X-19.6542 Y8.1934
G01 F76.20
G01 Z-0.1500
G01 F150.00
G01 X-19.6493 Y8.1248
G01 X-19.6423 Y8.0713
G01 X-19.6327 Y8.0181
G01 X-19.6205 Y7.9655
G01 X-19.6058 Y7.9136
G01 X-19.5885 Y7.8624
G01 X-19.5730 Y7.8223
G01 X-19.5528 Y7.7762
G01 X-19.5289 Y7.7278
G01 X-19.4950 Y7.6680
G01 X-19.4658 Y7.6226
G01 X-19.4379 Y7.5832
G01 X-19.4102 Y7.5477
G01 X-19.3752 Y7.5065
G01 X-19.3278 Y7.4568
G01 X-19.2885 Y7.4198
G01 X-19.2473 Y7.3848
G01 X-19.2118 Y7.3571
G01 X-19.1602 Y7.3210
G01 X-19.1258 Y7.2993
G01 X-19.0802 Y7.2731
G01 X-19.0314 Y7.2481
G01 X-18.9829 Y7.2263
G01 X-18.9188 Y7.2015
G01 X-18.8674 Y7.1849
G01 X-18.8152 Y7.1709
G01 X-18.7700 Y7.1608
G01 X-18.7092 Y7.1505
G01 X-18.6684 Y7.1455
G01 X-18.6163 Y7.1414
G01 X-18.5550 Y7.1396
G01 X-12.1738 Y7.1396
G01 X-12.1123 Y7.1228
G01 X-12.0647 Y7.1122
G01 X-12.0160 Y7.1036
G01 X-11.9454 Y7.0949
G01 X-11.8891 Y7.0911
G01 X-11.8400 Y7.0900
G01 X-11.7762 Y7.0918
G01 X-11.7200 Y7.0963
G01 X-11.6640 Y7.1036
G01 X-11.6153 Y7.1122
G01 X-11.5677 Y7.1228
G01 X-11.5132 Y7.1375
G01 X-11.4595 Y7.1548
G01 X-11.4033 Y7.1762
G01 X-11.3550 Y7.1973
G01 X-11.3044 Y7.2224
G01 X-11.2551 Y7.2499
G01 X-11.2073 Y7.2798
G01 X-11.1537 Y7.3173
G01 X-11.1162 Y7.3464
G01 X-11.0732 Y7.3830
G01 X-11.0268 Y7.4268
G01 X-10.9830 Y7.4732
G01 X-10.9464 Y7.5162
G01 X-10.9173 Y7.5537
G01 X-10.8798 Y7.6073
G01 X-10.8499 Y7.6551
G01 X-10.8224 Y7.7044
G01 X-10.7973 Y7.7550
G01 X-10.7762 Y7.8033
G01 X-10.7548 Y7.8595
G01 X-10.7375 Y7.9132
G01 X-10.7228 Y7.9677
G01 X-10.7122 Y8.0153
G01 X-10.7036 Y8.0640
G01 X-10.6961 Y8.1217
G01 X-10.6918 Y8.1762
G01 X-10.6900 Y8.2400
G01 X-10.6918 Y8.3038
G01 X-10.6961 Y8.3583
G01 X-10.7036 Y8.4160
G01 X-10.7122 Y8.4647
G01 X-10.7228 Y8.5123
G01 X-10.7375 Y8.5668
G01 X-10.7548 Y8.6205
G01 X-10.7762 Y8.6767
G01 X-10.7973 Y8.7250
G01 X-10.8224 Y8.7756
G01 X-10.8499 Y8.8249
G01 X-10.8798 Y8.8727
G01 X-10.9173 Y8.9263
G01 X-10.9464 Y8.9638
G01 X-10.9830 Y9.0068
G01 X-11.0268 Y9.0532
G01 X-11.0732 Y9.0970
G01 X-11.1162 Y9.1336
G01 X-11.1537 Y9.1627
G01 X-11.2073 Y9.2002
G01 X-11.2551 Y9.2301
G01 X-11.3044 Y9.2576
G01 X-11.3550 Y9.2827
G01 X-11.4033 Y9.3038
G01 X-11.4595 Y9.3252
G01 X-11.5132 Y9.3425
G01 X-11.5677 Y9.3572
G01 X-11.6153 Y9.3678
G01 X-11.6640 Y9.3764
G01 X-11.7217 Y9.3839
G01 X-11.7762 Y9.3882
G01 X-11.8400 Y9.3900
G01 X-11.8891 Y9.3889
G01 X-11.9454 Y9.3851
G01 X-12.0160 Y9.3764
G01 X-12.0647 Y9.3678
G01 X-12.1123 Y9.3572
G01 X-12.1736 Y9.3404
G01 X-18.5550 Y9.3404
G01 X-18.6016 Y9.3393
G01 X-18.6555 Y9.3357
G01 X-18.7237 Y9.3273
G01 X-18.7700 Y9.3192
G01 X-18.8152 Y9.3091
G01 X-18.8674 Y9.2951
G01 X-18.9188 Y9.2785
G01 X-18.9727 Y9.2580
G01 X-19.0188 Y9.2378
G01 X-19.0672 Y9.2139
G01 X-19.1144 Y9.1876
G01 X-19.1724 Y9.1508
G01 X-19.2118 Y9.1229
G01 X-19.2587 Y9.0859
G01 X-19.2994 Y9.0503
G01 X-19.3331 Y9.0181
G01 X-19.3653 Y8.9844
G01 X-19.4021 Y8.9423
G01 X-19.4379 Y8.8968
G01 X-19.4658 Y8.8574
G01 X-19.4957 Y8.8108
G01 X-19.5219 Y8.7652
G01 X-19.5469 Y8.7164
G01 X-19.5687 Y8.6679
G01 X-19.5935 Y8.6038
G01 X-19.6101 Y8.5524
G01 X-19.6241 Y8.5002
G01 X-19.6342 Y8.4550
G01 X-19.6445 Y8.3942
G01 X-19.6507 Y8.3405
G01 X-19.6543 Y8.2866
G01 X-19.6554 Y8.2400
G01 X-19.6542 Y8.1934
G00 Z1.0000
G00 X-19.6542 Y10.7334
G01 F76.20
G01 Z-0.1500
G01 F150.00
G01 X-19.6493 Y10.6648
G01 X-19.6423 Y10.6113
G01 X-19.6327 Y10.5581
G01 X-19.6205 Y10.5055
G01 X-19.6058 Y10.4536
G01 X-19.5885 Y10.4024
G01 X-19.5730 Y10.3623
G01 X-19.5528 Y10.3162
G01 X-19.5289 Y10.2678
G01 X-19.4950 Y10.2080
G01 X-19.4658 Y10.1626
G01 X-19.4379 Y10.1232
G01 X-19.4102 Y10.0877
G01 X-19.3752 Y10.0465
G01 X-19.3278 Y9.9968
G01 X-19.2885 Y9.9598
G01 X-19.2473 Y9.9248
G01 X-19.2118 Y9.8971
G01 X-19.1602 Y9.8610
G01 X-19.1258 Y9.8393
G01 X-19.0802 Y9.8131
G01 X-19.0314 Y9.7881
G01 X-18.9829 Y9.7663
G01 X-18.9188 Y9.7415
G01 X-18.8674 Y9.7249
G01 X-18.8152 Y9.7109
G01 X-18.7700 Y9.7008
G01 X-18.7092 Y9.6905
G01 X-18.6684 Y9.6855
G01 X-18.6163 Y9.6814
G01 X-18.5550 Y9.6796
G01 X-12.1738 Y9.6796
G01 X-12.1123 Y9.6628
G01 X-12.0647 Y9.6522
G01 X-12.0160 Y9.6436
G01 X-11.9454 Y9.6349
G01 X-11.8891 Y9.6311
G01 X-11.8400 Y9.6300
G01 X-11.7762 Y9.6318
G01 X-11.7200 Y9.6363
G01 X-11.6640 Y9.6436
G01 X-11.6153 Y9.6522
G01 X-11.5677 Y9.6628
G01 X-11.5132 Y9.6775
G01 X-11.4595 Y9.6948
G01 X-11.4033 Y9.7162
G01 X-11.3550 Y9.7373
G01 X-11.3044 Y9.7624
G01 X-11.2551 Y9.7899
G01 X-11.2073 Y9.8198
G01 X-11.1537 Y9.8573
G01 X-11.1162 Y9.8864
G01 X-11.0732 Y9.9230
G01 X-11.0268 Y9.9668
G01 X-10.9830 Y10.0132
G01 X-10.9464 Y10.0562
G01 X-10.9173 Y10.0937
G01 X-10.8798 Y10.1473
G01 X-10.8499 Y10.1951
G01 X-10.8224 Y10.2444
G01 X-10.7973 Y10.2950
G01 X-10.7762 Y10.3433
G01 X-10.7548 Y10.3995
G01 X-10.7375 Y10.4532
G01 X-10.7228 Y10.5077
G01 X-10.7122 Y10.5553
G01 X-10.7036 Y10.6040
G01 X-10.6961 Y10.6617
G01 X-10.6918 Y10.7162
G01 X-10.6900 Y10.7800
G01 X-10.6918 Y10.8438
G01 X-10.6963 Y10.9000
G01 X-10.7036 Y10.9560
G01 X-10.7122 Y11.0047
G01 X-10.7228 Y11.0523
G01 X-10.7375 Y11.1068
G01 X-10.7548 Y11.1605
G01 X-10.7762 Y11.2167
G01 X-10.7973 Y11.2650
G01 X-10.8224 Y11.3156
G01 X-10.8499 Y11.3649
G01 X-10.8798 Y11.4127
G01 X-10.9173 Y11.4663
G01 X-10.9464 Y11.5038
G01 X-10.9830 Y11.5468
G01 X-11.0268 Y11.5932
G01 X-11.0732 Y11.6370
G01 X-11.1162 Y11.6736
G01 X-11.1537 Y11.7027
G01 X-11.2073 Y11.7402
G01 X-11.2551 Y11.7701
G01 X-11.3044 Y11.7976
G01 X-11.3550 Y11.8227
G01 X-11.4033 Y11.8438
G01 X-11.4595 Y11.8652
G01 X-11.5132 Y11.8825
G01 X-11.5677 Y11.8972
G01 X-11.6153 Y11.9078
G01 X-11.6640 Y11.9164
G01 X-11.7217 Y11.9239
G01 X-11.7762 Y11.9282
G01 X-11.8400 Y11.9300
G01 X-11.8891 Y11.9289
G01 X-11.9454 Y11.9251
G01 X-12.0160 Y11.9164
G01 X-12.0647 Y11.9078
G01 X-12.1123 Y11.8972
G01 X-12.1736 Y11.8804
G01 X-18.5550 Y11.8804
G01 X-18.6016 Y11.8793
G01 X-18.6555 Y11.8757
G01 X-18.7237 Y11.8673
G01 X-18.7700 Y11.8592
G01 X-18.8152 Y11.8491
G01 X-18.8674 Y11.8351
G01 X-18.9188 Y11.8185
G01 X-18.9727 Y11.7980
G01 X-19.0188 Y11.7778
G01 X-19.0672 Y11.7539
G01 X-19.1144 Y11.7276
G01 X-19.1724 Y11.6908
G01 X-19.2118 Y11.6629
G01 X-19.2587 Y11.6259
G01 X-19.2994 Y11.5903
G01 X-19.3331 Y11.5581
G01 X-19.3653 Y11.5244
G01 X-19.4021 Y11.4823
G01 X-19.4379 Y11.4368
G01 X-19.4658 Y11.3974
G01 X-19.4957 Y11.3508
G01 X-19.5219 Y11.3052
G01 X-19.5469 Y11.2564
G01 X-19.5687 Y11.2079
G01 X-19.5935 Y11.1438
G01 X-19.6101 Y11.0924
G01 X-19.6241 Y11.0402
G01 X-19.6342 Y10.9950
G01 X-19.6445 Y10.9342
G01 X-19.6507 Y10.8805
G01 X-19.6543 Y10.8266
G01 X-19.6554 Y10.7800
G01 X-19.6542 Y10.7334
G00 Z1.0000
G00 X-19.6542 Y13.2734
G01 F76.20
G01 Z-0.1500
G01 F150.00
G01 X-19.6493 Y13.2048
G01 X-19.6423 Y13.1513
G01 X-19.6327 Y13.0981
G01 X-19.6205 Y13.0455
G01 X-19.6058 Y12.9936
G01 X-19.5885 Y12.9424
G01 X-19.5730 Y12.9023
G01 X-19.5528 Y12.8562
G01 X-19.5289 Y12.8078
G01 X-19.4950 Y12.7480
G01 X-19.4658 Y12.7026
G01 X-19.4379 Y12.6632
G01 X-19.4102 Y12.6277
G01 X-19.3752 Y12.5865
G01 X-19.3278 Y12.5368
G01 X-19.2885 Y12.4998
G01 X-19.2473 Y12.4648
G01 X-19.2118 Y12.4371
G01 X-19.1602 Y12.4010
G01 X-19.1258 Y12.3793
G01 X-19.0802 Y12.3531
G01 X-19.0314 Y12.3281
G01 X-18.9829 Y12.3063
G01 X-18.9188 Y12.2815
G01 X-18.8674 Y12.2649
G01 X-18.8152 Y12.2509
G01 X-18.7700 Y12.2408
G01 X-18.7092 Y12.2305
G01 X-18.6684 Y12.2255
G01 X-18.6163 Y12.2214
G01 X-18.5550 Y12.2196
G01 X-12.1738 Y12.2196
G01 X-12.1123 Y12.2028
G01 X-12.0647 Y12.1922
G01 X-12.0160 Y12.1836
G01 X-11.9454 Y12.1749
G01 X-11.8891 Y12.1711
G01 X-11.8400 Y12.1700
G01 X-11.7762 Y12.1718
G01 X-11.7200 Y12.1763
G01 X-11.6640 Y12.1836
G01 X-11.6153 Y12.1922
G01 X-11.5677 Y12.2028
G01 X-11.5132 Y12.2175
G01 X-11.4595 Y12.2348
G01 X-11.4033 Y12.2562
G01 X-11.3550 Y12.2773
G01 X-11.3044 Y12.3024
G01 X-11.2551 Y12.3299
G01 X-11.2073 Y12.3598
G01 X-11.1537 Y12.3973
G01 X-11.1162 Y12.4264
G01 X-11.0732 Y12.4630
G01 X-11.0268 Y12.5068
G01 X-10.9830 Y12.5532
G01 X-10.9464 Y12.5962
G01 X-10.9173 Y12.6337
G01 X-10.8798 Y12.6873
G01 X-10.8499 Y12.7351
G01 X-10.8224 Y12.7844
G01 X-10.7973 Y12.8350
G01 X-10.7762 Y12.8833
G01 X-10.7548 Y12.9395
G01 X-10.7375 Y12.9932
G01 X-10.7228 Y13.0477
G01 X-10.7122 Y13.0953
G01 X-10.7036 Y13.1440
G01 X-10.6961 Y13.2017
G01 X-10.6918 Y13.2562
G01 X-10.6900 Y13.3200
G01 X-10.6918 Y13.3838
G01 X-10.6963 Y13.4400
G01 X-10.7036 Y13.4960
G01 X-10.7122 Y13.5447
G01 X-10.7228 Y13.5923
G01 X-10.7375 Y13.6468
G01 X-10.7548 Y13.7005
G01 X-10.7762 Y13.7567
G01 X-10.7973 Y13.8050
G01 X-10.8224 Y13.8556
G01 X-10.8499 Y13.9049
G01 X-10.8798 Y13.9527
G01 X-10.9173 Y14.0063
G01 X-10.9464 Y14.0438
G01 X-10.9830 Y14.0868
G01 X-11.0268 Y14.1332
G01 X-11.0732 Y14.1770
G01 X-11.1162 Y14.2136
G01 X-11.1537 Y14.2427
G01 X-11.2073 Y14.2802
G01 X-11.2551 Y14.3101
G01 X-11.3044 Y14.3376
G01 X-11.3550 Y14.3627
G01 X-11.4033 Y14.3838
G01 X-11.4595 Y14.4052
G01 X-11.5132 Y14.4225
G01 X-11.5677 Y14.4372
G01 X-11.6153 Y14.4478
G01 X-11.6640 Y14.4564
G01 X-11.7217 Y14.4639
G01 X-11.7762 Y14.4682
G01 X-11.8400 Y14.4700
G01 X-11.8891 Y14.4689
G01 X-11.9454 Y14.4651
G01 X-12.0160 Y14.4564
G01 X-12.0647 Y14.4478
G01 X-12.1123 Y14.4372
G01 X-12.1736 Y14.4204
G01 X-18.5550 Y14.4204
G01 X-18.6016 Y14.4193
G01 X-18.6555 Y14.4157
G01 X-18.7237 Y14.4073
G01 X-18.7700 Y14.3992
G01 X-18.8152 Y14.3891
G01 X-18.8674 Y14.3751
G01 X-18.9188 Y14.3585
G01 X-18.9727 Y14.3380
G01 X-19.0188 Y14.3178
G01 X-19.0672 Y14.2939
G01 X-19.1144 Y14.2676
G01 X-19.1724 Y14.2308
G01 X-19.2118 Y14.2029
G01 X-19.2587 Y14.1659
G01 X-19.2994 Y14.1303
G01 X-19.3331 Y14.0981
G01 X-19.3653 Y14.0644
G01 X-19.4021 Y14.0223
G01 X-19.4379 Y13.9768
G01 X-19.4658 Y13.9374
G01 X-19.4957 Y13.8908
G01 X-19.5219 Y13.8452
G01 X-19.5469 Y13.7964
G01 X-19.5687 Y13.7479
G01 X-19.5935 Y13.6838
G01 X-19.6101 Y13.6324
G01 X-19.6241 Y13.5802
G01 X-19.6342 Y13.5350
G01 X-19.6445 Y13.4742
G01 X-19.6507 Y13.4205
G01 X-19.6543 Y13.3666
G01 X-19.6554 Y13.3200
G01 X-19.6542 Y13.2734
G00 Z1.0000
G00 X-19.6542 Y15.8134
G01 F76.20
G01 Z-0.1500
G01 F150.00
G01 X-19.6493 Y15.7448
G01 X-19.6423 Y15.6913
G01 X-19.6327 Y15.6381
G01 X-19.6205 Y15.5855
G01 X-19.6058 Y15.5336
G01 X-19.5885 Y15.4824
G01 X-19.5730 Y15.4423
G01 X-19.5528 Y15.3962
G01 X-19.5289 Y15.3478
G01 X-19.4950 Y15.2880
G01 X-19.4658 Y15.2426
G01 X-19.4379 Y15.2032
G01 X-19.4102 Y15.1677
G01 X-19.3752 Y15.1265
G01 X-19.3278 Y15.0768
G01 X-19.2885 Y15.0398
G01 X-19.2473 Y15.0048
G01 X-19.2118 Y14.9771
G01 X-19.1602 Y14.9410
G01 X-19.1258 Y14.9193
G01 X-19.0802 Y14.8931
G01 X-19.0314 Y14.8681
G01 X-18.9829 Y14.8463
G01 X-18.9188 Y14.8215
G01 X-18.8674 Y14.8049
G01 X-18.8152 Y14.7909
G01 X-18.7700 Y14.7808
G01 X-18.7092 Y14.7705
G01 X-18.6684 Y14.7655
G01 X-18.6163 Y14.7614
G01 X-18.5550 Y14.7596
G01 X-12.1738 Y14.7596
G01 X-12.1123 Y14.7428
G01 X-12.0647 Y14.7322
G01 X-12.0160 Y14.7236
G01 X-11.9454 Y14.7149
G01 X-11.8891 Y14.7111
G01 X-11.8400 Y14.7100
G01 X-11.7762 Y14.7118
G01 X-11.7200 Y14.7163
G01 X-11.6640 Y14.7236
G01 X-11.6153 Y14.7322
G01 X-11.5677 Y14.7428
G01 X-11.5132 Y14.7575
G01 X-11.4595 Y14.7748
G01 X-11.4033 Y14.7962
G01 X-11.3550 Y14.8173
G01 X-11.3044 Y14.8424
G01 X-11.2551 Y14.8699
G01 X-11.2073 Y14.8998
G01 X-11.1537 Y14.9373
G01 X-11.1162 Y14.9664
G01 X-11.0732 Y15.0030
G01 X-11.0268 Y15.0468
G01 X-10.9830 Y15.0932
G01 X-10.9464 Y15.1362
G01 X-10.9173 Y15.1737
G01 X-10.8798 Y15.2273
G01 X-10.8499 Y15.2751
G01 X-10.8224 Y15.3244
G01 X-10.7973 Y15.3750
G01 X-10.7762 Y15.4233
G01 X-10.7548 Y15.4795
G01 X-10.7375 Y15.5332
G01 X-10.7228 Y15.5877
G01 X-10.7122 Y15.6353
G01 X-10.7036 Y15.6840
G01 X-10.6961 Y15.7417
G01 X-10.6918 Y15.7962
G01 X-10.6900 Y15.8600
G01 X-10.6918 Y15.9238
G01 X-10.6963 Y15.9800
G01 X-10.7036 Y16.0360
G01 X-10.7122 Y16.0847
G01 X-10.7228 Y16.1323
G01 X-10.7375 Y16.1868
G01 X-10.7548 Y16.2405
G01 X-10.7762 Y16.2967
G01 X-10.7973 Y16.3450
G01 X-10.8224 Y16.3956
G01 X-10.8499 Y16.4449
G01 X-10.8798 Y16.4927
G01 X-10.9173 Y16.5463
G01 X-10.9464 Y16.5838
G01 X-10.9830 Y16.6268
G01 X-11.0268 Y16.6732
G01 X-11.0732 Y16.7170
G01 X-11.1162 Y16.7536
G01 X-11.1537 Y16.7827
G01 X-11.2073 Y16.8202
G01 X-11.2551 Y16.8501
G01 X-11.3044 Y16.8776
G01 X-11.3550 Y16.9027
G01 X-11.4033 Y16.9238
G01 X-11.4595 Y16.9452
G01 X-11.5132 Y16.9625
G01 X-11.5677 Y16.9772
G01 X-11.6153 Y16.9878
G01 X-11.6640 Y16.9964
G01 X-11.7217 Y17.0039
G01 X-11.7762 Y17.0082
G01 X-11.8400 Y17.0100
G01 X-11.8891 Y17.0089
G01 X-11.9454 Y17.0051
G01 X-12.0160 Y16.9964
G01 X-12.0647 Y16.9878
G01 X-12.1123 Y16.9772
G01 X-12.1736 Y16.9604
G01 X-18.5550 Y16.9604
G01 X-18.6016 Y16.9593
G01 X-18.6555 Y16.9557
G01 X-18.7237 Y16.9473
G01 X-18.7700 Y16.9392
G01 X-18.8152 Y16.9291
G01 X-18.8674 Y16.9151
G01 X-18.9188 Y16.8985
G01 X-18.9727 Y16.8780
G01 X-19.0188 Y16.8578
G01 X-19.0672 Y16.8339
G01 X-19.1144 Y16.8076
G01 X-19.1724 Y16.7708
G01 X-19.2118 Y16.7429
G01 X-19.2587 Y16.7059
G01 X-19.2994 Y16.6703
G01 X-19.3331 Y16.6381
G01 X-19.3653 Y16.6044
G01 X-19.4021 Y16.5623
G01 X-19.4379 Y16.5168
G01 X-19.4658 Y16.4774
G01 X-19.4958 Y16.4308
G01 X-19.5219 Y16.3852
G01 X-19.5469 Y16.3364
G01 X-19.5687 Y16.2879
G01 X-19.5935 Y16.2238
G01 X-19.6101 Y16.1724
G01 X-19.6241 Y16.1202
G01 X-19.6342 Y16.0750
G01 X-19.6445 Y16.0142
G01 X-19.6507 Y15.9605
G01 X-19.6543 Y15.9066
G01 X-19.6554 Y15.8600
G01 X-19.6542 Y15.8134
G00 Z1.0000
G00 X-19.6542 Y18.3534
G01 F76.20
G01 Z-0.1500
G01 F150.00
G01 X-19.6493 Y18.2848
G01 X-19.6423 Y18.2313
G01 X-19.6327 Y18.1781
G01 X-19.6205 Y18.1255
G01 X-19.6058 Y18.0736
G01 X-19.5885 Y18.0224
G01 X-19.5730 Y17.9823
G01 X-19.5528 Y17.9362
G01 X-19.5289 Y17.8878
G01 X-19.4950 Y17.8280
G01 X-19.4658 Y17.7826
G01 X-19.4379 Y17.7432
G01 X-19.4102 Y17.7077
G01 X-19.3752 Y17.6665
G01 X-19.3278 Y17.6168
G01 X-19.2885 Y17.5798
G01 X-19.2473 Y17.5448
G01 X-19.2118 Y17.5171
G01 X-19.1602 Y17.4810
G01 X-19.1258 Y17.4593
G01 X-19.0802 Y17.4331
G01 X-19.0314 Y17.4081
G01 X-18.9829 Y17.3863
G01 X-18.9188 Y17.3615
G01 X-18.8674 Y17.3449
G01 X-18.8152 Y17.3309
G01 X-18.7700 Y17.3208
G01 X-18.7092 Y17.3105
G01 X-18.6684 Y17.3055
G01 X-18.6163 Y17.3014
G01 X-18.5550 Y17.2996
G01 X-12.8551 Y17.2996
G01 X-12.8381 Y17.2891
G01 X-12.8251 Y17.2821
G01 X-12.8118 Y17.2759
G01 X-12.7859 Y17.2657
G01 X-12.7726 Y17.2616
G01 X-12.7454 Y17.2552
G01 X-12.7178 Y17.2513
G01 X-12.7039 Y17.2503
G01 X-10.9900 Y17.2500
G01 X-10.9622 Y17.2513
G01 X-10.9346 Y17.2552
G01 X-10.9074 Y17.2616
G01 X-10.8810 Y17.2705
G01 X-10.8682 Y17.2759
G01 X-10.8549 Y17.2821
G01 X-10.8294 Y17.2966
G01 X-10.8054 Y17.3136
G01 X-10.7831 Y17.3327
G01 X-10.7727 Y17.3431
G01 X-10.7536 Y17.3654
G01 X-10.7366 Y17.3893
G01 X-10.7221 Y17.4149
G01 X-10.7159 Y17.4282
G01 X-10.7057 Y17.4541
G01 X-10.6981 Y17.4809
G01 X-10.6929 Y17.5083
G01 X-10.6913 Y17.5222
G01 X-10.6900 Y17.5500
G01 X-10.6900 Y19.2500
G01 X-10.6913 Y19.2778
G01 X-10.6952 Y19.3054
G01 X-10.7016 Y19.3326
G01 X-10.7105 Y19.3590
G01 X-10.7221 Y19.3851
G01 X-10.7291 Y19.3981
G01 X-10.7448 Y19.4229
G01 X-10.7629 Y19.4460
G01 X-10.7831 Y19.4673
G01 X-10.8054 Y19.4864
G01 X-10.8171 Y19.4952
G01 X-10.8419 Y19.5109
G01 X-10.8682 Y19.5241
G01 X-10.8941 Y19.5343
G01 X-10.9209 Y19.5419
G01 X-10.9483 Y19.5471
G01 X-10.9761 Y19.5497
G01 X-12.7039 Y19.5497
G01 X-12.7178 Y19.5487
G01 X-12.7454 Y19.5448
G01 X-12.7726 Y19.5384
G01 X-12.7859 Y19.5343
G01 X-12.8118 Y19.5241
G01 X-12.8251 Y19.5179
G01 X-12.8381 Y19.5109
G01 X-12.8551 Y19.5004
G01 X-18.5550 Y19.5004
G01 X-18.6163 Y19.4986
G01 X-18.6702 Y19.4943
G01 X-18.7237 Y19.4873
G01 X-18.7700 Y19.4792
G01 X-18.8295 Y19.4655
G01 X-18.8814 Y19.4508
G01 X-18.9326 Y19.4335
G01 X-18.9829 Y19.4137
G01 X-19.0314 Y19.3919
G01 X-19.0802 Y19.3669
G01 X-19.1270 Y19.3400
G01 X-19.1724 Y19.3108
G01 X-19.2118 Y19.2829
G01 X-19.2473 Y19.2552
G01 X-19.2885 Y19.2202
G01 X-19.3331 Y19.1781
G01 X-19.3653 Y19.1444
G01 X-19.4009 Y19.1037
G01 X-19.4379 Y19.0568
G01 X-19.4658 Y19.0174
G01 X-19.4958 Y18.9708
G01 X-19.5219 Y18.9252
G01 X-19.5469 Y18.8764
G01 X-19.5687 Y18.8279
G01 X-19.5935 Y18.7638
G01 X-19.6101 Y18.7124
G01 X-19.6241 Y18.6602
G01 X-19.6342 Y18.6150
G01 X-19.6445 Y18.5542
G01 X-19.6507 Y18.5005
G01 X-19.6543 Y18.4466
G01 X-19.6554 Y18.4000
G01 X-19.6542 Y18.3534
G00 Z1.0000
G00 X-19.6542 Y20.8934
G01 F76.20
G01 Z-0.1500
G01 F150.00
G01 X-19.6493 Y20.8248
G01 X-19.6423 Y20.7713
G01 X-19.6342 Y20.7250
G01 X-19.6241 Y20.6798
G01 X-19.6101 Y20.6276
G01 X-19.5885 Y20.5624
G01 X-19.5730 Y20.5223
G01 X-19.5528 Y20.4762
G01 X-19.5219 Y20.4148
G01 X-19.4950 Y20.3680
G01 X-19.4658 Y20.3226
G01 X-19.4379 Y20.2832
G01 X-19.4102 Y20.2477
G01 X-19.3752 Y20.2065
G01 X-19.3382 Y20.1672
G01 X-19.2885 Y20.1198
G01 X-19.2573 Y20.0929
G01 X-19.2164 Y20.0606
G01 X-19.1602 Y20.0210
G01 X-19.1258 Y19.9993
G01 X-19.0802 Y19.9731
G01 X-19.0314 Y19.9481
G01 X-18.9829 Y19.9263
G01 X-18.9188 Y19.9015
G01 X-18.8674 Y19.8849
G01 X-18.8152 Y19.8709
G01 X-18.7700 Y19.8608
G01 X-18.7237 Y19.8527
G01 X-18.6684 Y19.8455
G01 X-18.6163 Y19.8414
G01 X-18.5550 Y19.8396
G01 X-15.6500 Y19.8396
G01 X-15.6034 Y19.8407
G01 X-15.5495 Y19.8443
G01 X-15.4813 Y19.8527
G01 X-15.4350 Y19.8608
G01 X-15.3898 Y19.8709
G01 X-15.3376 Y19.8849
G01 X-15.2862 Y19.9015
G01 X-15.2323 Y19.9220
G01 X-15.1862 Y19.9422
G01 X-15.1378 Y19.9661
G01 X-15.0906 Y19.9924
G01 X-15.0448 Y20.0210
G01 X-14.9932 Y20.0571
G01 X-14.9463 Y20.0941
G01 X-14.9056 Y20.1297
G01 X-14.8719 Y20.1619
G01 X-12.6542 Y22.3796
G01 X-11.8310 Y22.3796
G01 X-11.8152 Y22.3546
G01 X-11.7971 Y22.3315
G01 X-11.7873 Y22.3206
G01 X-11.7660 Y22.3004
G01 X-11.7429 Y22.2823
G01 X-11.7306 Y22.2741
G01 X-11.7051 Y22.2596
G01 X-11.6918 Y22.2534
G01 X-11.6659 Y22.2432
G01 X-11.6526 Y22.2391
G01 X-11.6254 Y22.2327
G01 X-11.6117 Y22.2304
G01 X-11.5839 Y22.2278
G01 X-9.5561 Y22.2278
G01 X-9.5422 Y22.2288
G01 X-9.5146 Y22.2327
G01 X-9.4874 Y22.2391
G01 X-9.4610 Y22.2480
G01 X-9.4349 Y22.2596
G01 X-9.4219 Y22.2666
G01 X-9.3971 Y22.2823
G01 X-9.3854 Y22.2911
G01 X-9.3631 Y22.3102
G01 X-9.3527 Y22.3206
G01 X-9.3336 Y22.3429
G01 X-9.3166 Y22.3669
G01 X-9.3021 Y22.3924
G01 X-9.2905 Y22.4185
G01 X-9.2816 Y22.4449
G01 X-9.2781 Y22.4584
G01 X-9.2729 Y22.4858
G01 X-9.2703 Y22.5136
G01 X-9.2700 Y24.4325
G01 X-9.2713 Y24.4603
G01 X-9.2729 Y24.4742
G01 X-9.2781 Y24.5016
G01 X-9.2857 Y24.5284
G01 X-9.2959 Y24.5543
G01 X-9.3021 Y24.5676
G01 X-9.3166 Y24.5931
G01 X-9.3248 Y24.6054
G01 X-9.3336 Y24.6171
G01 X-9.3527 Y24.6394
G01 X-9.3740 Y24.6596
G01 X-9.3854 Y24.6689
G01 X-9.3971 Y24.6777
G01 X-9.4219 Y24.6934
G01 X-9.4349 Y24.7004
G01 X-9.4610 Y24.7120
G01 X-9.4741 Y24.7168
G01 X-9.5009 Y24.7244
G01 X-9.5283 Y24.7296
G01 X-9.5422 Y24.7312
G01 X-9.5700 Y24.7325
G01 X-11.5700 Y24.7325
G01 X-11.5978 Y24.7312
G01 X-11.6117 Y24.7296
G01 X-11.6254 Y24.7273
G01 X-11.6526 Y24.7209
G01 X-11.6659 Y24.7168
G01 X-11.6918 Y24.7066
G01 X-11.7181 Y24.6934
G01 X-11.7306 Y24.6859
G01 X-11.7546 Y24.6689
G01 X-11.7769 Y24.6498
G01 X-11.7873 Y24.6394
G01 X-11.8064 Y24.6171
G01 X-11.8152 Y24.6054
G01 X-11.8310 Y24.5804
G01 X-13.1100 Y24.5804
G01 X-13.1566 Y24.5793
G01 X-13.2252 Y24.5743
G01 X-13.2787 Y24.5673
G01 X-13.3250 Y24.5592
G01 X-13.3845 Y24.5455
G01 X-13.4364 Y24.5308
G01 X-13.4738 Y24.5185
G01 X-13.5277 Y24.4980
G01 X-13.5738 Y24.4778
G01 X-13.6222 Y24.4539
G01 X-13.6694 Y24.4276
G01 X-13.7152 Y24.3990
G01 X-13.7668 Y24.3629
G01 X-13.8137 Y24.3259
G01 X-13.8544 Y24.2903
G01 X-13.8881 Y24.2581
G01 X-16.1058 Y22.0404
G01 X-18.5624 Y22.0403
G01 X-18.6163 Y22.0386
G01 X-18.6555 Y22.0357
G01 X-18.7237 Y22.0273
G01 X-18.7700 Y22.0192
G01 X-18.8152 Y22.0091
G01 X-18.8814 Y21.9908
G01 X-18.9326 Y21.9735
G01 X-18.9727 Y21.9580
G01 X-19.0188 Y21.9378
G01 X-19.0672 Y21.9139
G01 X-19.1270 Y21.8800
G01 X-19.1724 Y21.8508
G01 X-19.2118 Y21.8229
G01 X-19.2473 Y21.7952
G01 X-19.2885 Y21.7602
G01 X-19.3382 Y21.7128
G01 X-19.3752 Y21.6735
G01 X-19.4021 Y21.6423
G01 X-19.4379 Y21.5968
G01 X-19.4658 Y21.5574
G01 X-19.5026 Y21.4994
G01 X-19.5289 Y21.4522
G01 X-19.5469 Y21.4164
G01 X-19.5687 Y21.3679
G01 X-19.5885 Y21.3176
G01 X-19.6101 Y21.2524
G01 X-19.6241 Y21.2002
G01 X-19.6342 Y21.1550
G01 X-19.6423 Y21.1087
G01 X-19.6493 Y21.0552
G01 X-19.6543 Y20.9866
G01 X-19.6554 Y20.9400
G01 X-19.6542 Y20.8934
G00 Z1.0000
G00 X-19.6538 Y23.4334
G01 F76.20
G01 Z-0.1500
G01 F150.00
G01 X-19.6503 Y23.3795
G01 X-19.6441 Y23.3259
G01 X-19.6338 Y23.2651
G01 X-19.6237 Y23.2199
G01 X-19.6097 Y23.1678
G01 X-19.5931 Y23.1164
G01 X-19.5726 Y23.0624
G01 X-19.5525 Y23.0164
G01 X-19.5285 Y22.9680
G01 X-19.5022 Y22.9208
G01 X-19.4736 Y22.8750
G01 X-19.4376 Y22.8234
G01 X-19.4099 Y22.7879
G01 X-19.3749 Y22.7468
G01 X-19.3328 Y22.7022
G01 X-19.2991 Y22.6700
G01 X-19.2571 Y22.6332
G01 X-19.2116 Y22.5974
G01 X-19.1722 Y22.5695
G01 X-19.1256 Y22.5396
G01 X-19.0800 Y22.5134
G01 X-19.0312 Y22.4885
G01 X-18.9827 Y22.4666
G01 X-18.9325 Y22.4469
G01 X-18.8813 Y22.4296
G01 X-18.8294 Y22.4148
G01 X-18.7699 Y22.4012
G01 X-18.7237 Y22.3931
G01 X-18.6684 Y22.3859
G01 X-18.6163 Y22.3818
G01 X-18.5550 Y22.3800
G01 X-18.5084 Y22.3811
G01 X-18.4545 Y22.3847
G01 X-18.4009 Y22.3909
G01 X-18.3401 Y22.4012
G01 X-18.2949 Y22.4113
G01 X-18.2428 Y22.4253
G01 X-18.1914 Y22.4419
G01 X-18.1374 Y22.4624
G01 X-18.0914 Y22.4825
G01 X-18.0430 Y22.5065
G01 X-17.9958 Y22.5328
G01 X-17.9500 Y22.5614
G01 X-17.8984 Y22.5974
G01 X-17.8629 Y22.6251
G01 X-17.8218 Y22.6601
G01 X-17.7772 Y22.7022
G01 X-17.7450 Y22.7359
G01 X-17.7082 Y22.7779
G01 X-17.6724 Y22.8234
G01 X-17.6445 Y22.8628
G01 X-17.6146 Y22.9094
G01 X-17.5884 Y22.9550
G01 X-17.5635 Y23.0038
G01 X-17.5416 Y23.0523
G01 X-17.5219 Y23.1025
G01 X-17.5046 Y23.1537
G01 X-17.4898 Y23.2056
G01 X-17.4762 Y23.2651
G01 X-17.4681 Y23.3113
G01 X-17.4609 Y23.3666
G01 X-17.4568 Y23.4187
G01 X-17.4550 Y23.4800
G01 X-17.4561 Y23.5266
G01 X-17.4597 Y23.5805
G01 X-17.4659 Y23.6341
G01 X-17.4762 Y23.6949
G01 X-17.4863 Y23.7401
G01 X-17.5003 Y23.7922
G01 X-17.5169 Y23.8436
G01 X-17.5374 Y23.8976
G01 X-17.5575 Y23.9436
G01 X-17.5815 Y23.9920
G01 X-17.6078 Y24.0392
G01 X-17.6364 Y24.0850
G01 X-17.6724 Y24.1366
G01 X-17.7001 Y24.1721
G01 X-17.7351 Y24.2132
G01 X-17.7772 Y24.2578
G01 X-17.8109 Y24.2900
G01 X-17.8529 Y24.3268
G01 X-17.8984 Y24.3626
G01 X-17.9378 Y24.3905
G01 X-17.9844 Y24.4204
G01 X-18.0300 Y24.4466
G01 X-18.0788 Y24.4715
G01 X-18.1273 Y24.4934
G01 X-18.1775 Y24.5131
G01 X-18.2287 Y24.5304
G01 X-18.2806 Y24.5452
G01 X-18.3401 Y24.5588
G01 X-18.3863 Y24.5669
G01 X-18.4416 Y24.5741
G01 X-18.4937 Y24.5782
G01 X-18.5550 Y24.5800
G01 X-18.6016 Y24.5789
G01 X-18.6555 Y24.5753
G01 X-18.7091 Y24.5691
G01 X-18.7699 Y24.5588
G01 X-18.8151 Y24.5487
G01 X-18.8672 Y24.5347
G01 X-18.9186 Y24.5181
G01 X-18.9726 Y24.4976
G01 X-19.0186 Y24.4775
G01 X-19.0670 Y24.4535
G01 X-19.1142 Y24.4272
G01 X-19.1600 Y24.3986
G01 X-19.2116 Y24.3626
G01 X-19.2471 Y24.3349
G01 X-19.2882 Y24.2999
G01 X-19.3328 Y24.2578
G01 X-19.3650 Y24.2241
G01 X-19.4018 Y24.1821
G01 X-19.4376 Y24.1366
G01 X-19.4655 Y24.0972
G01 X-19.4954 Y24.0506
G01 X-19.5216 Y24.0050
G01 X-19.5465 Y23.9562
G01 X-19.5684 Y23.9077
G01 X-19.5881 Y23.8575
G01 X-19.6054 Y23.8063
G01 X-19.6202 Y23.7544
G01 X-19.6338 Y23.6949
G01 X-19.6419 Y23.6487
G01 X-19.6491 Y23.5934
G01 X-19.6532 Y23.5413
G01 X-19.6550 Y23.4800
G01 X-19.6538 Y23.4334
G00 Z1.0000
G00 X-19.6538 Y25.9734
G01 F76.20
G01 Z-0.1500
G01 F150.00
G01 X-19.6503 Y25.9195
G01 X-19.6441 Y25.8659
G01 X-19.6338 Y25.8051
G01 X-19.6237 Y25.7599
G01 X-19.6097 Y25.7078
G01 X-19.5931 Y25.6564
G01 X-19.5726 Y25.6024
G01 X-19.5525 Y25.5564
G01 X-19.5285 Y25.5080
G01 X-19.5022 Y25.4608
G01 X-19.4736 Y25.4150
G01 X-19.4376 Y25.3634
G01 X-19.4099 Y25.3279
G01 X-19.3749 Y25.2868
G01 X-19.3328 Y25.2422
G01 X-19.2991 Y25.2100
G01 X-19.2571 Y25.1732
G01 X-19.2116 Y25.1374
G01 X-19.1722 Y25.1095
G01 X-19.1256 Y25.0796
G01 X-19.0800 Y25.0534
G01 X-19.0312 Y25.0285
G01 X-18.9827 Y25.0066
G01 X-18.9325 Y24.9869
G01 X-18.8813 Y24.9696
G01 X-18.8294 Y24.9548
G01 X-18.7699 Y24.9412
G01 X-18.7237 Y24.9331
G01 X-18.6684 Y24.9259
G01 X-18.6163 Y24.9218
G01 X-18.5550 Y24.9200
G01 X-18.5084 Y24.9211
G01 X-18.4545 Y24.9247
G01 X-18.4009 Y24.9309
G01 X-18.3401 Y24.9412
G01 X-18.2949 Y24.9513
G01 X-18.2428 Y24.9653
G01 X-18.1914 Y24.9819
G01 X-18.1374 Y25.0024
G01 X-18.0914 Y25.0225
G01 X-18.0430 Y25.0465
G01 X-17.9958 Y25.0728
G01 X-17.9500 Y25.1014
G01 X-17.8984 Y25.1374
G01 X-17.8629 Y25.1651
G01 X-17.8218 Y25.2001
G01 X-17.7772 Y25.2422
G01 X-17.7450 Y25.2759
G01 X-17.7082 Y25.3179
G01 X-17.6724 Y25.3634
G01 X-17.6445 Y25.4028
G01 X-17.6146 Y25.4494
G01 X-17.5884 Y25.4950
G01 X-17.5635 Y25.5438
G01 X-17.5416 Y25.5923
G01 X-17.5219 Y25.6425
G01 X-17.5046 Y25.6937
G01 X-17.4898 Y25.7456
G01 X-17.4762 Y25.8051
G01 X-17.4681 Y25.8513
G01 X-17.4609 Y25.9066
G01 X-17.4568 Y25.9587
G01 X-17.4550 Y26.0200
G01 X-17.4561 Y26.0666
G01 X-17.4597 Y26.1205
G01 X-17.4659 Y26.1741
G01 X-17.4762 Y26.2349
G01 X-17.4863 Y26.2801
G01 X-17.5003 Y26.3322
G01 X-17.5169 Y26.3836
G01 X-17.5374 Y26.4376
G01 X-17.5575 Y26.4836
G01 X-17.5815 Y26.5320
G01 X-17.6078 Y26.5792
G01 X-17.6364 Y26.6250
G01 X-17.6724 Y26.6766
G01 X-17.7001 Y26.7121
G01 X-17.7351 Y26.7532
G01 X-17.7772 Y26.7978
G01 X-17.8109 Y26.8300
G01 X-17.8529 Y26.8668
G01 X-17.8984 Y26.9026
G01 X-17.9378 Y26.9305
G01 X-17.9844 Y26.9604
G01 X-18.0300 Y26.9866
G01 X-18.0788 Y27.0115
G01 X-18.1273 Y27.0334
G01 X-18.1775 Y27.0531
G01 X-18.2287 Y27.0704
G01 X-18.2806 Y27.0852
G01 X-18.3401 Y27.0988
G01 X-18.3863 Y27.1069
G01 X-18.4416 Y27.1141
G01 X-18.4937 Y27.1182
G01 X-18.5550 Y27.1200
G01 X-18.6016 Y27.1189
G01 X-18.6555 Y27.1153
G01 X-18.7091 Y27.1091
G01 X-18.7699 Y27.0988
G01 X-18.8151 Y27.0887
G01 X-18.8672 Y27.0747
G01 X-18.9186 Y27.0581
G01 X-18.9726 Y27.0376
G01 X-19.0186 Y27.0175
G01 X-19.0670 Y26.9935
G01 X-19.1142 Y26.9672
G01 X-19.1600 Y26.9386
G01 X-19.2116 Y26.9026
G01 X-19.2471 Y26.8749
G01 X-19.2882 Y26.8399
G01 X-19.3328 Y26.7978
G01 X-19.3650 Y26.7641
G01 X-19.4018 Y26.7221
G01 X-19.4376 Y26.6766
G01 X-19.4655 Y26.6372
G01 X-19.4954 Y26.5906
G01 X-19.5216 Y26.5450
G01 X-19.5465 Y26.4962
G01 X-19.5684 Y26.4477
G01 X-19.5881 Y26.3975
G01 X-19.6054 Y26.3463
G01 X-19.6202 Y26.2944
G01 X-19.6338 Y26.2349
G01 X-19.6419 Y26.1887
G01 X-19.6491 Y26.1334
G01 X-19.6532 Y26.0813
G01 X-19.6550 Y26.0200
G01 X-19.6538 Y25.9734
G00 Z1.0000
G00 X-19.6538 Y28.5134
G01 F76.20
G01 Z-0.1500
G01 F150.00
G01 X-19.6503 Y28.4595
G01 X-19.6441 Y28.4059
G01 X-19.6338 Y28.3451
G01 X-19.6237 Y28.2999
G01 X-19.6097 Y28.2478
G01 X-19.5931 Y28.1964
G01 X-19.5726 Y28.1424
G01 X-19.5525 Y28.0964
G01 X-19.5285 Y28.0480
G01 X-19.5022 Y28.0008
G01 X-19.4736 Y27.9550
G01 X-19.4376 Y27.9034
G01 X-19.4099 Y27.8679
G01 X-19.3749 Y27.8268
G01 X-19.3328 Y27.7822
G01 X-19.2991 Y27.7500
G01 X-19.2571 Y27.7132
G01 X-19.2116 Y27.6774
G01 X-19.1722 Y27.6495
G01 X-19.1256 Y27.6196
G01 X-19.0800 Y27.5934
G01 X-19.0312 Y27.5685
G01 X-18.9827 Y27.5466
G01 X-18.9325 Y27.5269
G01 X-18.8813 Y27.5096
G01 X-18.8294 Y27.4948
G01 X-18.7699 Y27.4812
G01 X-18.7237 Y27.4731
G01 X-18.6684 Y27.4659
G01 X-18.6163 Y27.4618
G01 X-18.5550 Y27.4600
G01 X-18.5084 Y27.4611
G01 X-18.4545 Y27.4647
G01 X-18.4009 Y27.4709
G01 X-18.3401 Y27.4812
G01 X-18.2949 Y27.4913
G01 X-18.2428 Y27.5053
G01 X-18.1914 Y27.5219
G01 X-18.1374 Y27.5424
G01 X-18.0914 Y27.5625
G01 X-18.0430 Y27.5865
G01 X-17.9958 Y27.6128
G01 X-17.9500 Y27.6414
G01 X-17.8984 Y27.6774
G01 X-17.8629 Y27.7051
G01 X-17.8218 Y27.7401
G01 X-17.7772 Y27.7822
G01 X-17.7450 Y27.8159
G01 X-17.7082 Y27.8579
G01 X-17.6724 Y27.9034
G01 X-17.6445 Y27.9428
G01 X-17.6146 Y27.9894
G01 X-17.5884 Y28.0350
G01 X-17.5635 Y28.0838
G01 X-17.5416 Y28.1323
G01 X-17.5219 Y28.1825
G01 X-17.5046 Y28.2337
G01 X-17.4898 Y28.2856
G01 X-17.4762 Y28.3451
G01 X-17.4681 Y28.3913
G01 X-17.4609 Y28.4466
G01 X-17.4568 Y28.4987
G01 X-17.4550 Y28.5600
G01 X-17.4561 Y28.6066
G01 X-17.4597 Y28.6605
G01 X-17.4659 Y28.7141
G01 X-17.4762 Y28.7749
G01 X-17.4863 Y28.8201
G01 X-17.5003 Y28.8722
G01 X-17.5169 Y28.9236
G01 X-17.5374 Y28.9776
G01 X-17.5575 Y29.0236
G01 X-17.5815 Y29.0720
G01 X-17.6078 Y29.1192
G01 X-17.6364 Y29.1650
G01 X-17.6724 Y29.2166
G01 X-17.7001 Y29.2521
G01 X-17.7351 Y29.2932
G01 X-17.7772 Y29.3378
G01 X-17.8109 Y29.3700
G01 X-17.8529 Y29.4068
G01 X-17.8984 Y29.4426
G01 X-17.9378 Y29.4705
G01 X-17.9844 Y29.5004
G01 X-18.0300 Y29.5266
G01 X-18.0788 Y29.5515
G01 X-18.1273 Y29.5734
G01 X-18.1775 Y29.5931
G01 X-18.2287 Y29.6104
G01 X-18.2806 Y29.6252
G01 X-18.3401 Y29.6388
G01 X-18.3863 Y29.6469
G01 X-18.4416 Y29.6541
G01 X-18.4937 Y29.6582
G01 X-18.5550 Y29.6600
G01 X-18.6016 Y29.6589
G01 X-18.6555 Y29.6553
G01 X-18.7091 Y29.6491
G01 X-18.7699 Y29.6388
G01 X-18.8151 Y29.6287
G01 X-18.8672 Y29.6147
G01 X-18.9186 Y29.5981
G01 X-18.9726 Y29.5776
G01 X-19.0186 Y29.5575
G01 X-19.0670 Y29.5335
G01 X-19.1142 Y29.5072
G01 X-19.1600 Y29.4786
G01 X-19.2116 Y29.4426
G01 X-19.2471 Y29.4149
G01 X-19.2882 Y29.3799
G01 X-19.3328 Y29.3378
G01 X-19.3650 Y29.3041
G01 X-19.4018 Y29.2621
G01 X-19.4376 Y29.2166
G01 X-19.4655 Y29.1772
G01 X-19.4954 Y29.1306
G01 X-19.5216 Y29.0850
G01 X-19.5465 Y29.0362
G01 X-19.5684 Y28.9877
G01 X-19.5881 Y28.9375
G01 X-19.6054 Y28.8863
G01 X-19.6202 Y28.8344
G01 X-19.6338 Y28.7749
G01 X-19.6419 Y28.7287
G01 X-19.6491 Y28.6734
G01 X-19.6532 Y28.6213
G01 X-19.6550 Y28.5600
G01 X-19.6538 Y28.5134
G00 Z1.0000
G00 X-19.6538 Y31.0534
G01 F76.20
G01 Z-0.1500
G01 F150.00
G01 X-19.6503 Y30.9995
G01 X-19.6441 Y30.9459
G01 X-19.6338 Y30.8851
G01 X-19.6237 Y30.8399
G01 X-19.6097 Y30.7878
G01 X-19.5931 Y30.7364
G01 X-19.5726 Y30.6824
G01 X-19.5525 Y30.6364
G01 X-19.5285 Y30.5880
G01 X-19.5022 Y30.5408
G01 X-19.4736 Y30.4950
G01 X-19.4376 Y30.4434
G01 X-19.4099 Y30.4079
G01 X-19.3749 Y30.3668
G01 X-19.3328 Y30.3222
G01 X-19.2991 Y30.2900
G01 X-19.2571 Y30.2532
G01 X-19.2116 Y30.2174
G01 X-19.1722 Y30.1895
G01 X-19.1256 Y30.1596
G01 X-19.0800 Y30.1334
G01 X-19.0312 Y30.1085
G01 X-18.9827 Y30.0866
G01 X-18.9325 Y30.0669
G01 X-18.8813 Y30.0496
G01 X-18.8294 Y30.0348
G01 X-18.7699 Y30.0212
G01 X-18.7237 Y30.0131
G01 X-18.6684 Y30.0059
G01 X-18.6163 Y30.0018
G01 X-18.5550 Y30.0000
G01 X-18.5084 Y30.0011
G01 X-18.4545 Y30.0047
G01 X-18.4009 Y30.0109
G01 X-18.3401 Y30.0212
G01 X-18.2949 Y30.0313
G01 X-18.2428 Y30.0453
G01 X-18.1914 Y30.0619
G01 X-18.1374 Y30.0824
G01 X-18.0914 Y30.1025
G01 X-18.0430 Y30.1265
G01 X-17.9958 Y30.1528
G01 X-17.9500 Y30.1814
G01 X-17.8984 Y30.2174
G01 X-17.8629 Y30.2451
G01 X-17.8218 Y30.2801
G01 X-17.7772 Y30.3222
G01 X-17.7450 Y30.3559
G01 X-17.7082 Y30.3979
G01 X-17.6724 Y30.4434
G01 X-17.6445 Y30.4828
G01 X-17.6146 Y30.5294
G01 X-17.5884 Y30.5750
G01 X-17.5635 Y30.6238
G01 X-17.5416 Y30.6723
G01 X-17.5219 Y30.7225
G01 X-17.5046 Y30.7737
G01 X-17.4898 Y30.8256
G01 X-17.4762 Y30.8851
G01 X-17.4681 Y30.9313
G01 X-17.4609 Y30.9866
G01 X-17.4568 Y31.0387
G01 X-17.4550 Y31.1000
G01 X-17.4561 Y31.1466
G01 X-17.4597 Y31.2005
G01 X-17.4659 Y31.2541
G01 X-17.4762 Y31.3149
G01 X-17.4863 Y31.3601
G01 X-17.5003 Y31.4122
G01 X-17.5169 Y31.4636
G01 X-17.5374 Y31.5176
G01 X-17.5575 Y31.5636
G01 X-17.5815 Y31.6120
G01 X-17.6078 Y31.6592
G01 X-17.6364 Y31.7050
G01 X-17.6724 Y31.7566
G01 X-17.7001 Y31.7921
G01 X-17.7351 Y31.8332
G01 X-17.7772 Y31.8778
G01 X-17.8109 Y31.9100
G01 X-17.8529 Y31.9468
G01 X-17.8984 Y31.9826
G01 X-17.9378 Y32.0105
G01 X-17.9844 Y32.0404
G01 X-18.0300 Y32.0666
G01 X-18.0788 Y32.0915
G01 X-18.1273 Y32.1134
G01 X-18.1775 Y32.1331
G01 X-18.2287 Y32.1504
G01 X-18.2806 Y32.1652
G01 X-18.3401 Y32.1788
G01 X-18.3863 Y32.1869
G01 X-18.4416 Y32.1941
G01 X-18.4937 Y32.1982
G01 X-18.5550 Y32.2000
G01 X-18.6016 Y32.1989
G01 X-18.6555 Y32.1953
G01 X-18.7091 Y32.1891
G01 X-18.7699 Y32.1788
G01 X-18.8151 Y32.1687
G01 X-18.8672 Y32.1547
G01 X-18.9186 Y32.1381
G01 X-18.9726 Y32.1176
G01 X-19.0186 Y32.0975
G01 X-19.0670 Y32.0735
G01 X-19.1142 Y32.0472
G01 X-19.1600 Y32.0186
G01 X-19.2116 Y31.9826
G01 X-19.2471 Y31.9549
G01 X-19.2882 Y31.9199
G01 X-19.3328 Y31.8778
G01 X-19.3650 Y31.8441
G01 X-19.4018 Y31.8021
G01 X-19.4376 Y31.7566
G01 X-19.4655 Y31.7172
G01 X-19.4954 Y31.6706
G01 X-19.5216 Y31.6250
G01 X-19.5465 Y31.5762
G01 X-19.5684 Y31.5277
G01 X-19.5881 Y31.4775
G01 X-19.6054 Y31.4263
G01 X-19.6202 Y31.3744
G01 X-19.6338 Y31.3149
G01 X-19.6419 Y31.2687
G01 X-19.6491 Y31.2134
G01 X-19.6532 Y31.1613
G01 X-19.6550 Y31.1000
G01 X-19.6538 Y31.0534
G00 Z1.0000
G00 X-19.6538 Y36.1334
G01 F76.20
G01 Z-0.1500
G01 F150.00
G01 X-19.6503 Y36.0795
G01 X-19.6441 Y36.0259
G01 X-19.6338 Y35.9651
G01 X-19.6237 Y35.9199
G01 X-19.6097 Y35.8678
G01 X-19.5931 Y35.8164
G01 X-19.5726 Y35.7624
G01 X-19.5525 Y35.7164
G01 X-19.5285 Y35.6680
G01 X-19.5022 Y35.6208
G01 X-19.4736 Y35.5750
G01 X-19.4376 Y35.5234
G01 X-19.4099 Y35.4879
G01 X-19.3749 Y35.4468
G01 X-19.3328 Y35.4022
G01 X-19.2991 Y35.3700
G01 X-19.2571 Y35.3332
G01 X-19.2116 Y35.2974
G01 X-19.1722 Y35.2695
G01 X-19.1256 Y35.2396
G01 X-19.0800 Y35.2134
G01 X-19.0312 Y35.1885
G01 X-18.9827 Y35.1666
G01 X-18.9325 Y35.1469
G01 X-18.8813 Y35.1296
G01 X-18.8294 Y35.1148
G01 X-18.7699 Y35.1012
G01 X-18.7237 Y35.0931
G01 X-18.6684 Y35.0859
G01 X-18.6163 Y35.0818
G01 X-18.5550 Y35.0800
G01 X-18.5084 Y35.0811
G01 X-18.4545 Y35.0847
G01 X-18.4009 Y35.0909
G01 X-18.3401 Y35.1012
G01 X-18.2949 Y35.1113
G01 X-18.2428 Y35.1253
G01 X-18.1914 Y35.1419
G01 X-18.1374 Y35.1624
G01 X-18.0914 Y35.1825
G01 X-18.0430 Y35.2065
G01 X-17.9958 Y35.2328
G01 X-17.9500 Y35.2614
G01 X-17.8984 Y35.2974
G01 X-17.8629 Y35.3251
G01 X-17.8218 Y35.3601
G01 X-17.7772 Y35.4022
G01 X-17.7450 Y35.4359
G01 X-17.7082 Y35.4779
G01 X-17.6724 Y35.5234
G01 X-17.6445 Y35.5628
G01 X-17.6146 Y35.6094
G01 X-17.5884 Y35.6550
G01 X-17.5635 Y35.7038
G01 X-17.5416 Y35.7523
G01 X-17.5219 Y35.8025
G01 X-17.5046 Y35.8537
G01 X-17.4898 Y35.9056
G01 X-17.4762 Y35.9651
G01 X-17.4681 Y36.0113
G01 X-17.4609 Y36.0666
G01 X-17.4568 Y36.1187
G01 X-17.4550 Y36.1800
G01 X-17.4561 Y36.2266
G01 X-17.4597 Y36.2805
G01 X-17.4659 Y36.3341
G01 X-17.4762 Y36.3949
G01 X-17.4863 Y36.4401
G01 X-17.5003 Y36.4922
G01 X-17.5169 Y36.5436
G01 X-17.5374 Y36.5976
G01 X-17.5575 Y36.6436
G01 X-17.5815 Y36.6920
G01 X-17.6078 Y36.7392
G01 X-17.6364 Y36.7850
G01 X-17.6724 Y36.8366
G01 X-17.7001 Y36.8721
G01 X-17.7351 Y36.9132
G01 X-17.7772 Y36.9578
G01 X-17.8109 Y36.9900
G01 X-17.8529 Y37.0268
G01 X-17.8984 Y37.0626
G01 X-17.9378 Y37.0905
G01 X-17.9844 Y37.1204
G01 X-18.0300 Y37.1466
G01 X-18.0788 Y37.1715
G01 X-18.1273 Y37.1934
G01 X-18.1775 Y37.2131
G01 X-18.2287 Y37.2304
G01 X-18.2806 Y37.2452
G01 X-18.3401 Y37.2588
G01 X-18.3863 Y37.2669
G01 X-18.4416 Y37.2741
G01 X-18.4937 Y37.2782
G01 X-18.5550 Y37.2800
G01 X-18.6016 Y37.2789
G01 X-18.6555 Y37.2753
G01 X-18.7091 Y37.2691
G01 X-18.7699 Y37.2588
G01 X-18.8151 Y37.2487
G01 X-18.8672 Y37.2347
G01 X-18.9186 Y37.2181
G01 X-18.9726 Y37.1976
G01 X-19.0186 Y37.1775
G01 X-19.0670 Y37.1535
G01 X-19.1142 Y37.1272
G01 X-19.1600 Y37.0986
G01 X-19.2116 Y37.0626
G01 X-19.2471 Y37.0349
G01 X-19.2882 Y36.9999
G01 X-19.3328 Y36.9578
G01 X-19.3650 Y36.9241
G01 X-19.4018 Y36.8821
G01 X-19.4376 Y36.8366
G01 X-19.4655 Y36.7972
G01 X-19.4954 Y36.7506
G01 X-19.5216 Y36.7050
G01 X-19.5465 Y36.6562
G01 X-19.5684 Y36.6077
G01 X-19.5881 Y36.5575
G01 X-19.6054 Y36.5063
G01 X-19.6202 Y36.4544
G01 X-19.6338 Y36.3949
G01 X-19.6419 Y36.3487
G01 X-19.6491 Y36.2934
G01 X-19.6532 Y36.2413
G01 X-19.6550 Y36.1800
G01 X-19.6538 Y36.1334
G00 Z1.0000
G00 X-19.6538 Y38.6734
G01 F76.20
G01 Z-0.1500
G01 F150.00
G01 X-19.6503 Y38.6195
G01 X-19.6441 Y38.5659
G01 X-19.6338 Y38.5051
G01 X-19.6237 Y38.4599
G01 X-19.6097 Y38.4078
G01 X-19.5931 Y38.3564
G01 X-19.5726 Y38.3024
G01 X-19.5525 Y38.2564
G01 X-19.5285 Y38.2080
G01 X-19.5022 Y38.1608
G01 X-19.4736 Y38.1150
G01 X-19.4376 Y38.0634
G01 X-19.4099 Y38.0279
G01 X-19.3749 Y37.9868
G01 X-19.3328 Y37.9422
G01 X-19.2991 Y37.9100
G01 X-19.2571 Y37.8732
G01 X-19.2116 Y37.8374
G01 X-19.1722 Y37.8095
G01 X-19.1256 Y37.7796
G01 X-19.0800 Y37.7534
G01 X-19.0312 Y37.7285
G01 X-18.9827 Y37.7066
G01 X-18.9325 Y37.6869
G01 X-18.8813 Y37.6696
G01 X-18.8294 Y37.6548
G01 X-18.7699 Y37.6412
G01 X-18.7237 Y37.6331
G01 X-18.6684 Y37.6259
G01 X-18.6163 Y37.6218
G01 X-18.5550 Y37.6200
G01 X-18.5084 Y37.6211
G01 X-18.4545 Y37.6247
G01 X-18.4009 Y37.6309
G01 X-18.3401 Y37.6412
G01 X-18.2949 Y37.6513
G01 X-18.2428 Y37.6653
G01 X-18.1914 Y37.6819
G01 X-18.1374 Y37.7024
G01 X-18.0914 Y37.7225
G01 X-18.0430 Y37.7465
G01 X-17.9958 Y37.7728
G01 X-17.9500 Y37.8014
G01 X-17.8984 Y37.8374
G01 X-17.8629 Y37.8651
G01 X-17.8218 Y37.9001
G01 X-17.7772 Y37.9422
G01 X-17.7450 Y37.9759
G01 X-17.7082 Y38.0179
G01 X-17.6724 Y38.0634
G01 X-17.6445 Y38.1028
G01 X-17.6146 Y38.1494
G01 X-17.5884 Y38.1950
G01 X-17.5635 Y38.2438
G01 X-17.5416 Y38.2923
G01 X-17.5219 Y38.3425
G01 X-17.5046 Y38.3937
G01 X-17.4898 Y38.4456
G01 X-17.4762 Y38.5051
G01 X-17.4681 Y38.5513
G01 X-17.4609 Y38.6066
G01 X-17.4568 Y38.6587
G01 X-17.4550 Y38.7200
G01 X-17.4561 Y38.7666
G01 X-17.4597 Y38.8205
G01 X-17.4659 Y38.8741
G01 X-17.4762 Y38.9349
G01 X-17.4863 Y38.9801
G01 X-17.5003 Y39.0322
G01 X-17.5169 Y39.0836
G01 X-17.5374 Y39.1376
G01 X-17.5575 Y39.1836
G01 X-17.5815 Y39.2320
G01 X-17.6078 Y39.2792
G01 X-17.6364 Y39.3250
G01 X-17.6724 Y39.3766
G01 X-17.7001 Y39.4121
G01 X-17.7351 Y39.4532
G01 X-17.7772 Y39.4978
G01 X-17.8109 Y39.5300
G01 X-17.8529 Y39.5668
G01 X-17.8984 Y39.6026
G01 X-17.9378 Y39.6305
G01 X-17.9844 Y39.6604
G01 X-18.0300 Y39.6866
G01 X-18.0788 Y39.7115
G01 X-18.1273 Y39.7334
G01 X-18.1775 Y39.7531
G01 X-18.2287 Y39.7704
G01 X-18.2806 Y39.7852
G01 X-18.3401 Y39.7988
G01 X-18.3863 Y39.8069
G01 X-18.4416 Y39.8141
G01 X-18.4937 Y39.8182
G01 X-18.5550 Y39.8200
G01 X-18.6016 Y39.8189
G01 X-18.6555 Y39.8153
G01 X-18.7091 Y39.8091
G01 X-18.7699 Y39.7988
G01 X-18.8151 Y39.7887
G01 X-18.8672 Y39.7747
G01 X-18.9186 Y39.7581
G01 X-18.9726 Y39.7376
G01 X-19.0186 Y39.7175
G01 X-19.0670 Y39.6935
G01 X-19.1142 Y39.6672
G01 X-19.1600 Y39.6386
G01 X-19.2116 Y39.6026
G01 X-19.2471 Y39.5749
G01 X-19.2882 Y39.5399
G01 X-19.3328 Y39.4978
G01 X-19.3650 Y39.4641
G01 X-19.4018 Y39.4221
G01 X-19.4376 Y39.3766
G01 X-19.4655 Y39.3372
G01 X-19.4954 Y39.2906
G01 X-19.5216 Y39.2450
G01 X-19.5465 Y39.1962
G01 X-19.5684 Y39.1477
G01 X-19.5881 Y39.0975
G01 X-19.6054 Y39.0463
G01 X-19.6202 Y38.9944
G01 X-19.6338 Y38.9349
G01 X-19.6419 Y38.8887
G01 X-19.6491 Y38.8334
G01 X-19.6532 Y38.7813
G01 X-19.6550 Y38.7200
G01 X-19.6538 Y38.6734
G00 Z1.0000
G00 X-17.4550 Y42.0600
G01 F76.20
G01 Z-0.1500
G01 F150.00
G01 X-17.4563 Y42.0878
G01 X-17.4602 Y42.1154
G01 X-17.4666 Y42.1426
G01 X-17.4755 Y42.1690
G01 X-17.4871 Y42.1951
G01 X-17.5016 Y42.2206
G01 X-17.5186 Y42.2446
G01 X-17.5377 Y42.2669
G01 X-17.5590 Y42.2871
G01 X-17.5821 Y42.3052
G01 X-17.6069 Y42.3209
G01 X-17.6199 Y42.3278
G01 X-17.6460 Y42.3395
G01 X-17.6724 Y42.3484
G01 X-17.6996 Y42.3548
G01 X-17.7272 Y42.3587
G01 X-17.7550 Y42.3600
G01 X-19.3689 Y42.3597
G01 X-19.3967 Y42.3571
G01 X-19.4241 Y42.3519
G01 X-19.4376 Y42.3484
G01 X-19.4640 Y42.3395
G01 X-19.4901 Y42.3279
G01 X-19.5157 Y42.3134
G01 X-19.5396 Y42.2964
G01 X-19.5510 Y42.2871
G01 X-19.5723 Y42.2669
G01 X-19.5821 Y42.2560
G01 X-19.6002 Y42.2329
G01 X-19.6159 Y42.2081
G01 X-19.6291 Y42.1818
G01 X-19.6393 Y42.1559
G01 X-19.6469 Y42.1291
G01 X-19.6521 Y42.1017
G01 X-19.6547 Y42.0739
G01 X-19.6550 Y42.0600
G01 X-19.6547 Y40.4461
G01 X-19.6537 Y40.4322
G01 X-19.6498 Y40.4046
G01 X-19.6434 Y40.3774
G01 X-19.6345 Y40.3510
G01 X-19.6229 Y40.3249
G01 X-19.6084 Y40.2994
G01 X-19.6002 Y40.2871
G01 X-19.5821 Y40.2640
G01 X-19.5619 Y40.2427
G01 X-19.5396 Y40.2236
G01 X-19.5279 Y40.2148
G01 X-19.5031 Y40.1991
G01 X-19.4768 Y40.1859
G01 X-19.4509 Y40.1757
G01 X-19.4241 Y40.1681
G01 X-19.3967 Y40.1629
G01 X-19.3828 Y40.1613
G01 X-19.3550 Y40.1600
G01 X-17.7411 Y40.1603
G01 X-17.7133 Y40.1629
G01 X-17.6859 Y40.1681
G01 X-17.6591 Y40.1757
G01 X-17.6460 Y40.1805
G01 X-17.6199 Y40.1921
G01 X-17.5943 Y40.2066
G01 X-17.5821 Y40.2148
G01 X-17.5590 Y40.2329
G01 X-17.5377 Y40.2531
G01 X-17.5186 Y40.2754
G01 X-17.5016 Y40.2994
G01 X-17.4871 Y40.3249
G01 X-17.4755 Y40.3510
G01 X-17.4666 Y40.3774
G01 X-17.4602 Y40.4046
G01 X-17.4563 Y40.4322
G01 X-17.4553 Y40.4461
G01 X-17.4550 Y42.0600
G00 Z1.0000
G00 X-7.2880 Y36.0990
G01 F76.20
G01 Z-0.1500
G01 F150.00
G01 X-7.2820 Y36.0109
G01 X-7.2715 Y35.9232
G01 X-7.2554 Y35.8285
G01 X-7.2342 Y35.7355
G01 X-7.2103 Y35.6505
G01 X-7.1822 Y35.5667
G01 X-7.1544 Y35.4946
G01 X-7.1202 Y35.4171
G01 X-7.0808 Y35.3380
G01 X-7.0300 Y35.2483
G01 X-6.9825 Y35.1739
G01 X-6.9348 Y35.1065
G01 X-6.8767 Y35.0325
G01 X-6.8187 Y34.9658
G01 X-6.7575 Y34.9021
G01 X-6.6933 Y34.8414
G01 X-6.6361 Y34.7921
G01 X-6.5904 Y34.7561
G01 X-6.5904 Y31.1000
G01 X-6.5893 Y31.0534
G01 X-6.5857 Y30.9995
G01 X-6.5795 Y30.9458
G01 X-6.5692 Y30.8850
G01 X-6.5591 Y30.8398
G01 X-6.5451 Y30.7876
G01 X-6.5285 Y30.7362
G01 X-6.5080 Y30.6823
G01 X-6.4819 Y30.6236
G01 X-6.4639 Y30.5878
G01 X-6.4376 Y30.5406
G01 X-6.4008 Y30.4826
G01 X-6.3729 Y30.4432
G01 X-6.3452 Y30.4077
G01 X-6.3003 Y30.3556
G01 X-6.2681 Y30.3219
G01 X-5.4872 Y29.5410
G01 X-5.4792 Y29.5070
G01 X-5.4618 Y29.4456
G01 X-5.4414 Y29.3851
G01 X-5.4181 Y29.3257
G01 X-5.3923 Y29.2683
G01 X-5.3629 Y29.2107
G01 X-5.3312 Y29.1554
G01 X-5.2967 Y29.1017
G01 X-5.2632 Y29.0543
G01 X-5.2202 Y28.9997
G01 X-5.1782 Y28.9516
G01 X-5.1392 Y28.9108
G01 X-5.0984 Y28.8718
G01 X-5.0489 Y28.8286
G01 X-4.9957 Y28.7868
G01 X-4.9483 Y28.7533
G01 X-4.8820 Y28.7112
G01 X-4.8263 Y28.6801
G01 X-4.7824 Y28.6580
G01 X-4.7141 Y28.6276
G01 X-4.6510 Y28.6036
G01 X-4.5903 Y28.5839
G01 X-4.5430 Y28.5708
G01 X-4.4808 Y28.5565
G01 X-4.4035 Y28.5431
G01 X-4.3401 Y28.5356
G01 X-4.2764 Y28.5313
G01 X-4.2274 Y28.5301
G01 X-4.1489 Y28.5320
G01 X-4.0853 Y28.5371
G01 X-4.0220 Y28.5452
G01 X-3.9736 Y28.5536
G01 X-3.8970 Y28.5708
G01 X-3.8356 Y28.5882
G01 X-3.7751 Y28.6086
G01 X-3.7293 Y28.6262
G01 X-3.6583 Y28.6577
G01 X-3.6137 Y28.6801
G01 X-3.5580 Y28.7112
G01 X-3.4917 Y28.7533
G01 X-3.4443 Y28.7868
G01 X-3.4010 Y28.8205
G01 X-3.3416 Y28.8718
G01 X-3.3008 Y28.9108
G01 X-3.2618 Y28.9516
G01 X-3.2186 Y29.0011
G01 X-3.1715 Y29.0616
G01 X-3.1351 Y29.1139
G01 X-3.1080 Y29.1566
G01 X-3.0701 Y29.2237
G01 X-3.0417 Y29.2809
G01 X-3.0176 Y29.3359
G01 X-2.9936 Y29.3990
G01 X-2.9739 Y29.4597
G01 X-2.9608 Y29.5070
G01 X-2.9436 Y29.5836
G01 X-2.9331 Y29.6465
G01 X-2.9269 Y29.6970
G01 X-2.9213 Y29.7736
G01 X-2.9200 Y29.8300
G01 X-2.9213 Y29.8864
G01 X-2.9271 Y29.9647
G01 X-2.9352 Y30.0280
G01 X-2.9465 Y30.0908
G01 X-2.9608 Y30.1530
G01 X-2.9782 Y30.2144
G01 X-2.9986 Y30.2749
G01 X-3.0176 Y30.3241
G01 X-3.0417 Y30.3791
G01 X-3.0701 Y30.4363
G01 X-3.1088 Y30.5046
G01 X-3.1433 Y30.5583
G01 X-3.1768 Y30.6057
G01 X-3.2105 Y30.6490
G01 X-3.2519 Y30.6975
G01 X-3.3060 Y30.7544
G01 X-3.3525 Y30.7981
G01 X-3.3911 Y30.8314
G01 X-3.4443 Y30.8732
G01 X-3.4917 Y30.9067
G01 X-3.5580 Y30.9488
G01 X-3.6137 Y30.9799
G01 X-3.6583 Y31.0023
G01 X-3.7259 Y31.0324
G01 X-3.7751 Y31.0514
G01 X-3.8356 Y31.0718
G01 X-3.8970 Y31.0892
G01 X-3.9310 Y31.0972
G01 X-4.3896 Y31.5558
G01 X-4.3896 Y34.7561
G01 X-4.3425 Y34.7933
G01 X-4.2758 Y34.8513
G01 X-4.2172 Y34.9072
G01 X-4.1613 Y34.9658
G01 X-4.0940 Y35.0438
G01 X-4.0452 Y35.1065
G01 X-3.9893 Y35.1861
G01 X-3.9492 Y35.2496
G01 X-3.9061 Y35.3250
G01 X-3.8657 Y35.4045
G01 X-3.8299 Y35.4844
G01 X-3.7928 Y35.5806
G01 X-3.7655 Y35.6646
G01 X-3.7422 Y35.7498
G01 X-3.7246 Y35.8285
G01 X-3.7107 Y35.9086
G01 X-3.6993 Y35.9980
G01 X-3.6926 Y36.0843
G01 X-3.6901 Y36.1874
G01 X-3.6926 Y36.2757
G01 X-3.6995 Y36.3637
G01 X-3.7107 Y36.4514
G01 X-3.7246 Y36.5315
G01 X-3.7422 Y36.6102
G01 X-3.7655 Y36.6954
G01 X-3.7978 Y36.7933
G01 X-3.8256 Y36.8654
G01 X-3.8657 Y36.9555
G01 X-3.8992 Y37.0220
G01 X-3.9424 Y37.0990
G01 X-3.9893 Y37.1739
G01 X-4.0399 Y37.2463
G01 X-4.1033 Y37.3275
G01 X-4.1613 Y37.3942
G01 X-4.2172 Y37.4528
G01 X-4.2758 Y37.5087
G01 X-4.3425 Y37.5667
G01 X-4.4237 Y37.6301
G01 X-4.4961 Y37.6807
G01 X-4.5596 Y37.7208
G01 X-4.6350 Y37.7639
G01 X-4.7145 Y37.8043
G01 X-4.8046 Y37.8444
G01 X-4.8767 Y37.8722
G01 X-4.9746 Y37.9045
G01 X-5.0598 Y37.9278
G01 X-5.1385 Y37.9454
G01 X-5.2186 Y37.9593
G01 X-5.3080 Y37.9707
G01 X-5.3943 Y37.9774
G01 X-5.4826 Y37.9799
G01 X-5.5857 Y37.9774
G01 X-5.6737 Y37.9705
G01 X-5.7614 Y37.9593
G01 X-5.8415 Y37.9454
G01 X-5.9202 Y37.9278
G01 X-6.0054 Y37.9045
G01 X-6.0894 Y37.8772
G01 X-6.1856 Y37.8401
G01 X-6.2655 Y37.8043
G01 X-6.3450 Y37.7639
G01 X-6.4217 Y37.7200
G01 X-6.4839 Y37.6807
G01 X-6.5681 Y37.6213
G01 X-6.6375 Y37.5667
G01 X-6.7042 Y37.5087
G01 X-6.7628 Y37.4528
G01 X-6.8286 Y37.3833
G01 X-6.8779 Y37.3261
G01 X-6.9348 Y37.2535
G01 X-6.9825 Y37.1861
G01 X-7.0300 Y37.1117
G01 X-7.0808 Y37.0220
G01 X-7.1202 Y36.9429
G01 X-7.1544 Y36.8654
G01 X-7.1822 Y36.7933
G01 X-7.2103 Y36.7095
G01 X-7.2378 Y36.6102
G01 X-7.2554 Y36.5315
G01 X-7.2715 Y36.4368
G01 X-7.2820 Y36.3491
G01 X-7.2881 Y36.2610
G01 X-7.2900 Y36.1800
G01 X-7.2880 Y36.0990
G00 Z1.0000
G00 X-11.8686 Y25.9659
G01 F76.20
G01 Z-0.1500
G01 F150.00
G01 X-11.8646 Y25.9046
G01 X-11.8553 Y25.8290
G01 X-11.8459 Y25.7753
G01 X-11.8342 Y25.7228
G01 X-11.8181 Y25.6635
G01 X-11.7942 Y25.5911
G01 X-11.7760 Y25.5441
G01 X-11.7528 Y25.4912
G01 X-11.7255 Y25.4361
G01 X-11.6879 Y25.3698
G01 X-11.6548 Y25.3181
G01 X-11.6226 Y25.2726
G01 X-11.5903 Y25.2312
G01 X-11.5405 Y25.1735
G01 X-11.5031 Y25.1343
G01 X-11.4640 Y25.0970
G01 X-11.4063 Y25.0472
G01 X-11.3649 Y25.0149
G01 X-11.3194 Y24.9827
G01 X-11.2665 Y24.9488
G01 X-11.2014 Y24.9120
G01 X-11.1589 Y24.8906
G01 X-11.1036 Y24.8657
G01 X-11.0325 Y24.8383
G01 X-10.9740 Y24.8194
G01 X-10.9290 Y24.8069
G01 X-10.8691 Y24.7931
G01 X-10.7940 Y24.7801
G01 X-10.7329 Y24.7729
G01 X-10.6716 Y24.7687
G01 X-10.6175 Y24.7675
G01 X-10.5225 Y24.7675
G01 X-10.4537 Y24.7695
G01 X-10.3924 Y24.7743
G01 X-10.3460 Y24.7801
G01 X-10.2778 Y24.7916
G01 X-10.2110 Y24.8069
G01 X-10.1519 Y24.8237
G01 X-10.1075 Y24.8383
G01 X-10.0466 Y24.8615
G01 X-9.9811 Y24.8906
G01 X-9.9245 Y24.9196
G01 X-8.9133 Y24.9196
G01 X-7.8604 Y23.8667
G01 X-7.8604 Y19.4151
G01 X-7.8709 Y19.3981
G01 X-7.8779 Y19.3851
G01 X-7.8841 Y19.3718
G01 X-7.8943 Y19.3459
G01 X-7.9019 Y19.3191
G01 X-7.9048 Y19.3054
G01 X-7.9071 Y19.2917
G01 X-7.9097 Y19.2639
G01 X-7.9100 Y17.5500
G01 X-7.9087 Y17.5222
G01 X-7.9071 Y17.5083
G01 X-7.9048 Y17.4946
G01 X-7.8984 Y17.4674
G01 X-7.8943 Y17.4541
G01 X-7.8841 Y17.4282
G01 X-7.8709 Y17.4019
G01 X-7.8604 Y17.3849
G01 X-7.8604 Y16.1938
G01 X-7.8772 Y16.1323
G01 X-7.8878 Y16.0847
G01 X-7.8964 Y16.0360
G01 X-7.9051 Y15.9654
G01 X-7.9089 Y15.9091
G01 X-7.9100 Y15.8600
G01 X-7.9089 Y15.8109
G01 X-7.9051 Y15.7546
G01 X-7.8964 Y15.6840
G01 X-7.8878 Y15.6353
G01 X-7.8772 Y15.5877
G01 X-7.8604 Y15.5264
G01 X-7.8604 Y13.6538
G01 X-7.8772 Y13.5923
G01 X-7.8878 Y13.5447
G01 X-7.8964 Y13.4960
G01 X-7.9051 Y13.4254
G01 X-7.9089 Y13.3691
G01 X-7.9100 Y13.3200
G01 X-7.9089 Y13.2709
G01 X-7.9051 Y13.2146
G01 X-7.8964 Y13.1440
G01 X-7.8878 Y13.0953
G01 X-7.8772 Y13.0477
G01 X-7.8604 Y12.9864
G01 X-7.8604 Y11.1138
G01 X-7.8772 Y11.0523
G01 X-7.8878 Y11.0047
G01 X-7.8964 Y10.9560
G01 X-7.9051 Y10.8854
G01 X-7.9089 Y10.8291
G01 X-7.9100 Y10.7800
G01 X-7.9089 Y10.7309
G01 X-7.9051 Y10.6746
G01 X-7.8964 Y10.6040
G01 X-7.8878 Y10.5553
G01 X-7.8772 Y10.5077
G01 X-7.8604 Y10.4464
G01 X-7.8604 Y8.5738
G01 X-7.8772 Y8.5123
G01 X-7.8878 Y8.4647
G01 X-7.8964 Y8.4160
G01 X-7.9051 Y8.3454
G01 X-7.9089 Y8.2891
G01 X-7.9100 Y8.2400
G01 X-7.9089 Y8.1909
G01 X-7.9051 Y8.1346
G01 X-7.8964 Y8.0640
G01 X-7.8878 Y8.0153
G01 X-7.8772 Y7.9677
G01 X-7.8604 Y7.9064
G01 X-7.8604 Y6.0338
G01 X-7.8737 Y5.9865
G01 X-7.8878 Y5.9247
G01 X-7.8964 Y5.8760
G01 X-7.9039 Y5.8183
G01 X-7.9082 Y5.7638
G01 X-7.9099 Y5.7074
G01 X-7.9082 Y5.6362
G01 X-7.9037 Y5.5800
G01 X-7.8964 Y5.5240
G01 X-7.8878 Y5.4753
G01 X-7.8772 Y5.4277
G01 X-7.8625 Y5.3732
G01 X-7.8452 Y5.3195
G01 X-7.8238 Y5.2633
G01 X-7.7967 Y5.2024
G01 X-7.7707 Y5.1514
G01 X-7.7425 Y5.1025
G01 X-7.7120 Y5.0550
G01 X-7.6827 Y5.0137
G01 X-7.6536 Y4.9762
G01 X-7.6170 Y4.9332
G01 X-7.5732 Y4.8868
G01 X-7.5377 Y4.8529
G01 X-7.4938 Y4.8146
G01 X-7.4463 Y4.7773
G01 X-7.3927 Y4.7398
G01 X-7.3449 Y4.7099
G01 X-7.2956 Y4.6824
G01 X-7.2450 Y4.6573
G01 X-7.1967 Y4.6362
G01 X-7.1543 Y4.6198
G01 X-7.1008 Y4.6017
G01 X-7.0465 Y4.5863
G01 X-6.9847 Y4.5722
G01 X-6.9214 Y4.5615
G01 X-6.8654 Y4.5549
G01 X-6.8091 Y4.5511
G01 X-6.7600 Y4.5500
G01 X-6.7109 Y4.5511
G01 X-6.6546 Y4.5549
G01 X-6.5840 Y4.5636
G01 X-6.5353 Y4.5722
G01 X-6.4735 Y4.5863
G01 X-6.4192 Y4.6017
G01 X-6.3795 Y4.6148
G01 X-6.3233 Y4.6362
G01 X-6.2750 Y4.6573
G01 X-6.2114 Y4.6893
G01 X-6.1625 Y4.7175
G01 X-6.1273 Y4.7398
G01 X-6.0691 Y4.7808
G01 X-6.0248 Y4.8158
G01 X-5.9932 Y4.8430
G01 X-5.9468 Y4.8868
G01 X-5.9129 Y4.9223
G01 X-5.8664 Y4.9762
G01 X-5.8373 Y5.0137
G01 X-5.8080 Y5.0550
G01 X-5.7699 Y5.1151
G01 X-5.7424 Y5.1644
G01 X-5.7233 Y5.2024
G01 X-5.6962 Y5.2633
G01 X-5.6798 Y5.3057
G01 X-5.6575 Y5.3732
G01 X-5.6428 Y5.4277
G01 X-5.6322 Y5.4753
G01 X-5.6236 Y5.5240
G01 X-5.6161 Y5.5817
G01 X-5.6111 Y5.6509
G01 X-5.6100 Y5.7000
G01 X-5.6118 Y5.7638
G01 X-5.6163 Y5.8200
G01 X-5.6215 Y5.8614
G01 X-5.6336 Y5.9316
G01 X-5.6463 Y5.9865
G01 X-5.6596 Y6.0336
G01 X-5.6596 Y7.9062
G01 X-5.6428 Y7.9677
G01 X-5.6322 Y8.0153
G01 X-5.6236 Y8.0640
G01 X-5.6149 Y8.1346
G01 X-5.6111 Y8.1909
G01 X-5.6100 Y8.2400
G01 X-5.6111 Y8.2891
G01 X-5.6149 Y8.3454
G01 X-5.6236 Y8.4160
G01 X-5.6322 Y8.4647
G01 X-5.6428 Y8.5123
G01 X-5.6596 Y8.5736
G01 X-5.6596 Y10.4462
G01 X-5.6428 Y10.5077
G01 X-5.6322 Y10.5553
G01 X-5.6236 Y10.6040
G01 X-5.6149 Y10.6746
G01 X-5.6111 Y10.7309
G01 X-5.6100 Y10.7800
G01 X-5.6111 Y10.8291
G01 X-5.6149 Y10.8854
G01 X-5.6236 Y10.9560
G01 X-5.6322 Y11.0047
G01 X-5.6428 Y11.0523
G01 X-5.6596 Y11.1136
G01 X-5.6596 Y12.9862
G01 X-5.6428 Y13.0477
G01 X-5.6322 Y13.0953
G01 X-5.6236 Y13.1440
G01 X-5.6149 Y13.2146
G01 X-5.6111 Y13.2709
G01 X-5.6100 Y13.3200
G01 X-5.6111 Y13.3691
G01 X-5.6149 Y13.4254
G01 X-5.6236 Y13.4960
G01 X-5.6322 Y13.5447
G01 X-5.6428 Y13.5923
G01 X-5.6596 Y13.6536
G01 X-5.6596 Y15.5262
G01 X-5.6428 Y15.5877
G01 X-5.6322 Y15.6353
G01 X-5.6236 Y15.6840
G01 X-5.6149 Y15.7546
G01 X-5.6111 Y15.8109
G01 X-5.6100 Y15.8600
G01 X-5.6111 Y15.9091
G01 X-5.6149 Y15.9654
G01 X-5.6236 Y16.0360
G01 X-5.6322 Y16.0847
G01 X-5.6428 Y16.1323
G01 X-5.6596 Y16.1936
G01 X-5.6596 Y17.3849
G01 X-5.6491 Y17.4019
G01 X-5.6421 Y17.4149
G01 X-5.6359 Y17.4282
G01 X-5.6257 Y17.4541
G01 X-5.6181 Y17.4809
G01 X-5.6152 Y17.4946
G01 X-5.6113 Y17.5222
G01 X-5.6103 Y17.5361
G01 X-5.6100 Y19.2500
G01 X-5.6113 Y19.2778
G01 X-5.6129 Y19.2917
G01 X-5.6152 Y19.3054
G01 X-5.6216 Y19.3326
G01 X-5.6257 Y19.3459
G01 X-5.6359 Y19.3718
G01 X-5.6491 Y19.3981
G01 X-5.6596 Y19.4151
G01 X-5.6596 Y24.3225
G01 X-5.6614 Y24.3838
G01 X-5.6657 Y24.4377
G01 X-5.6705 Y24.4767
G01 X-5.6808 Y24.5375
G01 X-5.6945 Y24.5970
G01 X-5.7092 Y24.6490
G01 X-5.7215 Y24.6863
G01 X-5.7420 Y24.7402
G01 X-5.7681 Y24.7989
G01 X-5.7931 Y24.8477
G01 X-5.8200 Y24.8945
G01 X-5.8492 Y24.9399
G01 X-5.8771 Y24.9793
G01 X-5.9048 Y25.0148
G01 X-5.9398 Y25.0560
G01 X-5.9819 Y25.1006
G01 X-7.6794 Y26.7981
G01 X-7.7240 Y26.8402
G01 X-7.7552 Y26.8671
G01 X-7.8007 Y26.9029
G01 X-7.8523 Y26.9390
G01 X-7.8867 Y26.9607
G01 X-7.9323 Y26.9869
G01 X-7.9937 Y27.0178
G01 X-8.0398 Y27.0380
G01 X-8.0799 Y27.0535
G01 X-8.1451 Y27.0751
G01 X-8.1973 Y27.0891
G01 X-8.2356 Y27.0977
G01 X-8.2888 Y27.1073
G01 X-8.3441 Y27.1145
G01 X-8.3962 Y27.1186
G01 X-8.4501 Y27.1203
G01 X-9.9245 Y27.1204
G01 X-9.9811 Y27.1494
G01 X-10.0466 Y27.1785
G01 X-10.1075 Y27.2017
G01 X-10.1660 Y27.2206
G01 X-10.2253 Y27.2367
G01 X-10.2778 Y27.2484
G01 X-10.3315 Y27.2578
G01 X-10.3942 Y27.2659
G01 X-10.4684 Y27.2713
G01 X-10.5225 Y27.2725
G01 X-10.6249 Y27.2724
G01 X-10.6863 Y27.2705
G01 X-10.7476 Y27.2657
G01 X-10.8085 Y27.2578
G01 X-10.8622 Y27.2484
G01 X-10.9290 Y27.2331
G01 X-10.9881 Y27.2163
G01 X-11.0464 Y27.1967
G01 X-11.0934 Y27.1785
G01 X-11.1463 Y27.1553
G01 X-11.2014 Y27.1280
G01 X-11.2677 Y27.0904
G01 X-11.3194 Y27.0573
G01 X-11.3649 Y27.0251
G01 X-11.4063 Y26.9928
G01 X-11.4531 Y26.9529
G01 X-11.5083 Y26.9004
G01 X-11.5504 Y26.8556
G01 X-11.5822 Y26.8188
G01 X-11.6226 Y26.7674
G01 X-11.6548 Y26.7219
G01 X-11.6955 Y26.6576
G01 X-11.7255 Y26.6039
G01 X-11.7469 Y26.5614
G01 X-11.7760 Y26.4959
G01 X-11.7942 Y26.4489
G01 X-11.8181 Y26.3765
G01 X-11.8342 Y26.3172
G01 X-11.8459 Y26.2647
G01 X-11.8553 Y26.2110
G01 X-11.8632 Y26.1501
G01 X-11.8688 Y26.0741
G01 X-11.8700 Y26.0200
G01 X-11.8686 Y25.9659
G00 Z1.0000
G00 X-34.8938 Y31.0534
G01 F76.20
G01 Z-0.1500
G01 F150.00
G01 X-34.8903 Y30.9995
G01 X-34.8841 Y30.9459
G01 X-34.8738 Y30.8851
G01 X-34.8637 Y30.8399
G01 X-34.8497 Y30.7878
G01 X-34.8331 Y30.7364
G01 X-34.8126 Y30.6824
G01 X-34.7925 Y30.6364
G01 X-34.7685 Y30.5880
G01 X-34.7422 Y30.5408
G01 X-34.7136 Y30.4950
G01 X-34.6776 Y30.4434
G01 X-34.6499 Y30.4079
G01 X-34.6149 Y30.3668
G01 X-34.5728 Y30.3222
G01 X-34.5391 Y30.2900
G01 X-34.4971 Y30.2532
G01 X-34.4516 Y30.2174
G01 X-34.4122 Y30.1895
G01 X-34.3656 Y30.1596
G01 X-34.3200 Y30.1334
G01 X-34.2712 Y30.1085
G01 X-34.2227 Y30.0866
G01 X-34.1725 Y30.0669
G01 X-34.1213 Y30.0496
G01 X-34.0694 Y30.0348
G01 X-34.0099 Y30.0212
G01 X-33.9637 Y30.0131
G01 X-33.9084 Y30.0059
G01 X-33.8563 Y30.0018
G01 X-33.7950 Y30.0000
G01 X-33.7484 Y30.0011
G01 X-33.6945 Y30.0047
G01 X-33.6409 Y30.0109
G01 X-33.5801 Y30.0212
G01 X-33.5349 Y30.0313
G01 X-33.4828 Y30.0453
G01 X-33.4314 Y30.0619
G01 X-33.3774 Y30.0824
G01 X-33.3314 Y30.1025
G01 X-33.2830 Y30.1265
G01 X-33.2358 Y30.1528
G01 X-33.1900 Y30.1814
G01 X-33.1384 Y30.2174
G01 X-33.1029 Y30.2451
G01 X-33.0618 Y30.2801
G01 X-33.0172 Y30.3222
G01 X-32.9850 Y30.3559
G01 X-32.9482 Y30.3979
G01 X-32.9124 Y30.4434
G01 X-32.8845 Y30.4828
G01 X-32.8546 Y30.5294
G01 X-32.8284 Y30.5750
G01 X-32.8035 Y30.6238
G01 X-32.7816 Y30.6723
G01 X-32.7619 Y30.7225
G01 X-32.7446 Y30.7737
G01 X-32.7298 Y30.8256
G01 X-32.7162 Y30.8851
G01 X-32.7081 Y30.9313
G01 X-32.7009 Y30.9866
G01 X-32.6968 Y31.0387
G01 X-32.6950 Y31.1000
G01 X-32.6961 Y31.1466
G01 X-32.6997 Y31.2005
G01 X-32.7059 Y31.2541
G01 X-32.7162 Y31.3149
G01 X-32.7263 Y31.3601
G01 X-32.7403 Y31.4122
G01 X-32.7569 Y31.4636
G01 X-32.7774 Y31.5176
G01 X-32.7975 Y31.5636
G01 X-32.8215 Y31.6120
G01 X-32.8478 Y31.6592
G01 X-32.8764 Y31.7050
G01 X-32.9124 Y31.7566
G01 X-32.9401 Y31.7921
G01 X-32.9751 Y31.8332
G01 X-33.0172 Y31.8778
G01 X-33.0509 Y31.9100
G01 X-33.0929 Y31.9468
G01 X-33.1384 Y31.9826
G01 X-33.1778 Y32.0105
G01 X-33.2244 Y32.0404
G01 X-33.2700 Y32.0666
G01 X-33.3188 Y32.0915
G01 X-33.3673 Y32.1134
G01 X-33.4175 Y32.1331
G01 X-33.4687 Y32.1504
G01 X-33.5206 Y32.1652
G01 X-33.5801 Y32.1788
G01 X-33.6263 Y32.1869
G01 X-33.6816 Y32.1941
G01 X-33.7337 Y32.1982
G01 X-33.7950 Y32.2000
G01 X-33.8416 Y32.1989
G01 X-33.8955 Y32.1953
G01 X-33.9491 Y32.1891
G01 X-34.0099 Y32.1788
G01 X-34.0551 Y32.1687
G01 X-34.1072 Y32.1547
G01 X-34.1586 Y32.1381
G01 X-34.2126 Y32.1176
G01 X-34.2586 Y32.0975
G01 X-34.3070 Y32.0735
G01 X-34.3542 Y32.0472
G01 X-34.4000 Y32.0186
G01 X-34.4516 Y31.9826
G01 X-34.4871 Y31.9549
G01 X-34.5282 Y31.9199
G01 X-34.5728 Y31.8778
G01 X-34.6050 Y31.8441
G01 X-34.6418 Y31.8021
G01 X-34.6776 Y31.7566
G01 X-34.7055 Y31.7172
G01 X-34.7354 Y31.6706
G01 X-34.7616 Y31.6250
G01 X-34.7865 Y31.5762
G01 X-34.8084 Y31.5277
G01 X-34.8281 Y31.4775
G01 X-34.8454 Y31.4263
G01 X-34.8602 Y31.3744
G01 X-34.8738 Y31.3149
G01 X-34.8819 Y31.2687
G01 X-34.8891 Y31.2134
G01 X-34.8932 Y31.1613
G01 X-34.8950 Y31.1000
G01 X-34.8938 Y31.0534
G00 Z1.0000
G00 X-34.8938 Y36.1334
G01 F76.20
G01 Z-0.1500
G01 F150.00
G01 X-34.8903 Y36.0795
G01 X-34.8841 Y36.0259
G01 X-34.8738 Y35.9651
G01 X-34.8637 Y35.9199
G01 X-34.8497 Y35.8678
G01 X-34.8331 Y35.8164
G01 X-34.8126 Y35.7624
G01 X-34.7925 Y35.7164
G01 X-34.7685 Y35.6680
G01 X-34.7422 Y35.6208
G01 X-34.7136 Y35.5750
G01 X-34.6776 Y35.5234
G01 X-34.6499 Y35.4879
G01 X-34.6149 Y35.4468
G01 X-34.5728 Y35.4022
G01 X-34.5391 Y35.3700
G01 X-34.4971 Y35.3332
G01 X-34.4516 Y35.2974
G01 X-34.4122 Y35.2695
G01 X-34.3656 Y35.2396
G01 X-34.3200 Y35.2134
G01 X-34.2712 Y35.1885
G01 X-34.2227 Y35.1666
G01 X-34.1725 Y35.1469
G01 X-34.1213 Y35.1296
G01 X-34.0694 Y35.1148
G01 X-34.0099 Y35.1012
G01 X-33.9637 Y35.0931
G01 X-33.9084 Y35.0859
G01 X-33.8563 Y35.0818
G01 X-33.7950 Y35.0800
G01 X-33.7484 Y35.0811
G01 X-33.6945 Y35.0847
G01 X-33.6409 Y35.0909
G01 X-33.5801 Y35.1012
G01 X-33.5349 Y35.1113
G01 X-33.4828 Y35.1253
G01 X-33.4314 Y35.1419
G01 X-33.3774 Y35.1624
G01 X-33.3314 Y35.1825
G01 X-33.2830 Y35.2065
G01 X-33.2358 Y35.2328
G01 X-33.1900 Y35.2614
G01 X-33.1384 Y35.2974
G01 X-33.1029 Y35.3251
G01 X-33.0618 Y35.3601
G01 X-33.0172 Y35.4022
G01 X-32.9850 Y35.4359
G01 X-32.9482 Y35.4779
G01 X-32.9124 Y35.5234
G01 X-32.8845 Y35.5628
G01 X-32.8546 Y35.6094
G01 X-32.8284 Y35.6550
G01 X-32.8035 Y35.7038
G01 X-32.7816 Y35.7523
G01 X-32.7619 Y35.8025
G01 X-32.7446 Y35.8537
G01 X-32.7298 Y35.9056
G01 X-32.7162 Y35.9651
G01 X-32.7081 Y36.0113
G01 X-32.7009 Y36.0666
G01 X-32.6968 Y36.1187
G01 X-32.6950 Y36.1800
G01 X-32.6961 Y36.2266
G01 X-32.6997 Y36.2805
G01 X-32.7059 Y36.3341
G01 X-32.7162 Y36.3949
G01 X-32.7263 Y36.4401
G01 X-32.7403 Y36.4922
G01 X-32.7569 Y36.5436
G01 X-32.7774 Y36.5976
G01 X-32.7975 Y36.6436
G01 X-32.8215 Y36.6920
G01 X-32.8478 Y36.7392
G01 X-32.8764 Y36.7850
G01 X-32.9124 Y36.8366
G01 X-32.9401 Y36.8721
G01 X-32.9751 Y36.9132
G01 X-33.0172 Y36.9578
G01 X-33.0509 Y36.9900
G01 X-33.0929 Y37.0268
G01 X-33.1384 Y37.0626
G01 X-33.1778 Y37.0905
G01 X-33.2244 Y37.1204
G01 X-33.2700 Y37.1466
G01 X-33.3188 Y37.1715
G01 X-33.3673 Y37.1934
G01 X-33.4175 Y37.2131
G01 X-33.4687 Y37.2304
G01 X-33.5206 Y37.2452
G01 X-33.5801 Y37.2588
G01 X-33.6263 Y37.2669
G01 X-33.6816 Y37.2741
G01 X-33.7337 Y37.2782
G01 X-33.7950 Y37.2800
G01 X-33.8416 Y37.2789
G01 X-33.8955 Y37.2753
G01 X-33.9491 Y37.2691
G01 X-34.0099 Y37.2588
G01 X-34.0551 Y37.2487
G01 X-34.1072 Y37.2347
G01 X-34.1586 Y37.2181
G01 X-34.2126 Y37.1976
G01 X-34.2586 Y37.1775
G01 X-34.3070 Y37.1535
G01 X-34.3542 Y37.1272
G01 X-34.4000 Y37.0986
G01 X-34.4516 Y37.0626
G01 X-34.4871 Y37.0349
G01 X-34.5282 Y36.9999
G01 X-34.5728 Y36.9578
G01 X-34.6050 Y36.9241
G01 X-34.6418 Y36.8821
G01 X-34.6776 Y36.8366
G01 X-34.7055 Y36.7972
G01 X-34.7354 Y36.7506
G01 X-34.7616 Y36.7050
G01 X-34.7865 Y36.6562
G01 X-34.8084 Y36.6077
G01 X-34.8281 Y36.5575
G01 X-34.8454 Y36.5063
G01 X-34.8602 Y36.4544
G01 X-34.8738 Y36.3949
G01 X-34.8819 Y36.3487
G01 X-34.8891 Y36.2934
G01 X-34.8932 Y36.2413
G01 X-34.8950 Y36.1800
G01 X-34.8938 Y36.1334
G00 Z1.0000
G00 X-42.1492 Y34.8634
G01 F76.20
G01 Z-0.1500
G01 F150.00
G01 X-42.1457 Y34.8095
G01 X-42.1395 Y34.7558
G01 X-42.1292 Y34.6950
G01 X-42.1155 Y34.6355
G01 X-42.1008 Y34.5836
G01 X-42.0835 Y34.5324
G01 X-42.0637 Y34.4821
G01 X-42.0419 Y34.4336
G01 X-42.0239 Y34.3978
G01 X-41.9976 Y34.3506
G01 X-41.9608 Y34.2926
G01 X-41.9329 Y34.2532
G01 X-41.8959 Y34.2063
G01 X-41.8603 Y34.1656
G01 X-41.8228 Y34.1268
G01 X-41.7835 Y34.0898
G01 X-41.7537 Y34.0641
G01 X-41.7114 Y34.0306
G01 X-41.6552 Y33.9910
G01 X-41.6094 Y33.9624
G01 X-41.5622 Y33.9361
G01 X-41.5264 Y33.9181
G01 X-41.4779 Y33.8963
G01 X-41.4138 Y33.8715
G01 X-41.3624 Y33.8549
G01 X-41.3102 Y33.8409
G01 X-41.2650 Y33.8308
G01 X-41.2187 Y33.8227
G01 X-41.1505 Y33.8143
G01 X-41.0966 Y33.8107
G01 X-41.0574 Y33.8097
G01 X-40.2358 Y33.8096
G01 X-38.3404 Y31.9142
G01 X-38.3404 Y30.8736
G01 X-38.3386 Y30.8123
G01 X-38.3343 Y30.7585
G01 X-38.3273 Y30.7049
G01 X-38.3192 Y30.6586
G01 X-38.3091 Y30.6134
G01 X-38.2951 Y30.5613
G01 X-38.2785 Y30.5099
G01 X-38.2580 Y30.4559
G01 X-38.2319 Y30.3973
G01 X-38.2069 Y30.3485
G01 X-38.1800 Y30.3016
G01 X-38.1590 Y30.2685
G01 X-38.1229 Y30.2168
G01 X-38.0952 Y30.1813
G01 X-38.0602 Y30.1402
G01 X-38.0181 Y30.0955
G01 X-35.7045 Y27.7819
G01 X-35.6598 Y27.7398
G01 X-35.6287 Y27.7129
G01 X-35.5832 Y27.6771
G01 X-35.5315 Y27.6410
G01 X-35.4971 Y27.6193
G01 X-35.4515 Y27.5931
G01 X-35.4028 Y27.5681
G01 X-35.3406 Y27.5406
G01 X-35.2901 Y27.5215
G01 X-35.2528 Y27.5092
G01 X-35.1866 Y27.4909
G01 X-35.1414 Y27.4808
G01 X-35.0951 Y27.4727
G01 X-35.0398 Y27.4655
G01 X-34.9877 Y27.4614
G01 X-34.9264 Y27.4596
G01 X-33.7950 Y27.4596
G01 X-33.7484 Y27.4607
G01 X-33.6945 Y27.4643
G01 X-33.6408 Y27.4705
G01 X-33.5800 Y27.4808
G01 X-33.5205 Y27.4945
G01 X-33.4686 Y27.5092
G01 X-33.4174 Y27.5265
G01 X-33.3671 Y27.5463
G01 X-33.3186 Y27.5681
G01 X-33.2698 Y27.5931
G01 X-33.2230 Y27.6200
G01 X-33.1776 Y27.6492
G01 X-33.1382 Y27.6771
G01 X-33.1027 Y27.7048
G01 X-33.0615 Y27.7398
G01 X-33.0169 Y27.7819
G01 X-32.9847 Y27.8156
G01 X-32.9479 Y27.8577
G01 X-32.9121 Y27.9032
G01 X-32.8842 Y27.9426
G01 X-32.8543 Y27.9892
G01 X-32.8211 Y28.0478
G01 X-32.7972 Y28.0962
G01 X-32.7770 Y28.1423
G01 X-32.7615 Y28.1824
G01 X-32.7442 Y28.2336
G01 X-32.7259 Y28.2998
G01 X-32.7158 Y28.3450
G01 X-32.7077 Y28.3913
G01 X-32.6993 Y28.4595
G01 X-32.6957 Y28.5134
G01 X-32.6947 Y28.5674
G01 X-32.6964 Y28.6213
G01 X-32.6993 Y28.6605
G01 X-32.7055 Y28.7142
G01 X-32.7144 Y28.7674
G01 X-32.7295 Y28.8345
G01 X-32.7442 Y28.8864
G01 X-32.7565 Y28.9238
G01 X-32.7813 Y28.9879
G01 X-32.8031 Y29.0364
G01 X-32.8281 Y29.0852
G01 X-32.8550 Y29.1320
G01 X-32.8842 Y29.1774
G01 X-32.9121 Y29.2168
G01 X-32.9398 Y29.2523
G01 X-32.9748 Y29.2935
G01 X-33.0118 Y29.3328
G01 X-33.0615 Y29.3802
G01 X-33.0927 Y29.4071
G01 X-33.1336 Y29.4394
G01 X-33.1898 Y29.4790
G01 X-33.2242 Y29.5007
G01 X-33.2698 Y29.5269
G01 X-33.3186 Y29.5519
G01 X-33.3671 Y29.5737
G01 X-33.4312 Y29.5985
G01 X-33.4826 Y29.6151
G01 X-33.5205 Y29.6255
G01 X-33.5800 Y29.6392
G01 X-33.6263 Y29.6473
G01 X-33.6816 Y29.6545
G01 X-33.7484 Y29.6593
G01 X-33.7950 Y29.6604
G01 X-34.4706 Y29.6604
G01 X-36.1396 Y31.3294
G01 X-36.1396 Y32.3700
G01 X-36.1414 Y32.4313
G01 X-36.1457 Y32.4852
G01 X-36.1527 Y32.5387
G01 X-36.1608 Y32.5850
G01 X-36.1709 Y32.6302
G01 X-36.1892 Y32.6964
G01 X-36.2065 Y32.7476
G01 X-36.2263 Y32.7979
G01 X-36.2481 Y32.8464
G01 X-36.2661 Y32.8822
G01 X-36.2924 Y32.9294
G01 X-36.3292 Y32.9874
G01 X-36.3571 Y33.0268
G01 X-36.3941 Y33.0737
G01 X-36.4297 Y33.1144
G01 X-36.4619 Y33.1481
G01 X-39.0019 Y35.6881
G01 X-39.0465 Y35.7302
G01 X-39.0777 Y35.7571
G01 X-39.1232 Y35.7929
G01 X-39.1748 Y35.8290
G01 X-39.2092 Y35.8507
G01 X-39.2548 Y35.8769
G01 X-39.3162 Y35.9078
G01 X-39.3623 Y35.9280
G01 X-39.4024 Y35.9435
G01 X-39.4536 Y35.9608
G01 X-39.5198 Y35.9791
G01 X-39.5650 Y35.9892
G01 X-39.6113 Y35.9973
G01 X-39.6795 Y36.0057
G01 X-39.7334 Y36.0093
G01 X-39.7800 Y36.0104
G01 X-41.0500 Y36.0104
G01 X-41.0966 Y36.0093
G01 X-41.1652 Y36.0043
G01 X-41.2187 Y35.9973
G01 X-41.2574 Y35.9906
G01 X-41.3102 Y35.9791
G01 X-41.3764 Y35.9608
G01 X-41.4276 Y35.9435
G01 X-41.4677 Y35.9280
G01 X-41.5138 Y35.9078
G01 X-41.5622 Y35.8839
G01 X-41.6220 Y35.8500
G01 X-41.6674 Y35.8208
G01 X-41.7068 Y35.7929
G01 X-41.7423 Y35.7652
G01 X-41.7835 Y35.7302
G01 X-41.8332 Y35.6828
G01 X-41.8702 Y35.6435
G01 X-41.8971 Y35.6123
G01 X-41.9329 Y35.5668
G01 X-41.9608 Y35.5274
G01 X-41.9976 Y35.4694
G01 X-42.0239 Y35.4222
G01 X-42.0419 Y35.3864
G01 X-42.0637 Y35.3379
G01 X-42.0835 Y35.2876
G01 X-42.1051 Y35.2224
G01 X-42.1191 Y35.1702
G01 X-42.1292 Y35.1250
G01 X-42.1373 Y35.0787
G01 X-42.1443 Y35.0252
G01 X-42.1493 Y34.9566
G01 X-42.1504 Y34.9100
G01 X-42.1492 Y34.8634
G00 Z1.0000
G00 X-44.4492 Y33.7594
G01 F76.20
G01 Z-0.1500
G01 F150.00
G01 X-44.4443 Y33.6908
G01 X-44.4373 Y33.6373
G01 X-44.4292 Y33.5910
G01 X-44.4155 Y33.5315
G01 X-44.4008 Y33.4796
G01 X-44.3885 Y33.4422
G01 X-44.3637 Y33.3781
G01 X-44.3419 Y33.3296
G01 X-44.3239 Y33.2938
G01 X-44.2900 Y33.2340
G01 X-44.2608 Y33.1886
G01 X-44.2329 Y33.1492
G01 X-44.2052 Y33.1137
G01 X-44.1702 Y33.0725
G01 X-44.1281 Y33.0279
G01 X-42.9869 Y31.8867
G01 X-42.9795 Y31.8555
G01 X-42.9648 Y31.8036
G01 X-42.9475 Y31.7524
G01 X-42.9277 Y31.7021
G01 X-42.9059 Y31.6536
G01 X-42.8809 Y31.6048
G01 X-42.8540 Y31.5580
G01 X-42.8330 Y31.5248
G01 X-42.7969 Y31.4732
G01 X-42.7692 Y31.4377
G01 X-42.7243 Y31.3856
G01 X-42.6921 Y31.3519
G01 X-42.6475 Y31.3098
G01 X-42.6163 Y31.2829
G01 X-42.5708 Y31.2471
G01 X-42.5192 Y31.2110
G01 X-42.4848 Y31.1893
G01 X-42.4392 Y31.1631
G01 X-42.3904 Y31.1381
G01 X-42.3317 Y31.1120
G01 X-42.2778 Y31.0915
G01 X-42.2264 Y31.0749
G01 X-42.1885 Y31.0645
G01 X-42.1290 Y31.0508
G01 X-42.0682 Y31.0405
G01 X-42.0274 Y31.0355
G01 X-41.9753 Y31.0314
G01 X-41.9140 Y31.0296
G01 X-40.8804 Y31.0296
G01 X-40.8804 Y26.4758
G01 X-43.0981 Y24.2581
G01 X-43.1402 Y24.2135
G01 X-43.1671 Y24.1823
G01 X-43.2029 Y24.1368
G01 X-43.2308 Y24.0974
G01 X-43.2607 Y24.0508
G01 X-43.2939 Y23.9922
G01 X-43.3178 Y23.9438
G01 X-43.3380 Y23.8977
G01 X-43.3535 Y23.8576
G01 X-43.3708 Y23.8064
G01 X-43.3891 Y23.7402
G01 X-43.3992 Y23.6950
G01 X-43.4095 Y23.6342
G01 X-43.4145 Y23.5934
G01 X-43.4186 Y23.5413
G01 X-43.4204 Y23.4800
G01 X-43.4204 Y21.9551
G01 X-43.4309 Y21.9381
G01 X-43.4441 Y21.9118
G01 X-43.4495 Y21.8990
G01 X-43.4584 Y21.8726
G01 X-43.4619 Y21.8591
G01 X-43.4671 Y21.8317
G01 X-43.4687 Y21.8178
G01 X-43.4700 Y21.7900
G01 X-43.4697 Y20.0761
G01 X-43.4671 Y20.0483
G01 X-43.4648 Y20.0346
G01 X-43.4584 Y20.0074
G01 X-43.4543 Y19.9941
G01 X-43.4441 Y19.9681
G01 X-43.4378 Y19.9549
G01 X-43.4309 Y19.9419
G01 X-43.4204 Y19.9249
G01 X-43.4204 Y18.7338
G01 X-43.4372 Y18.6723
G01 X-43.4478 Y18.6247
G01 X-43.4564 Y18.5760
G01 X-43.4651 Y18.5054
G01 X-43.4689 Y18.4491
G01 X-43.4700 Y18.4000
G01 X-43.4689 Y18.3509
G01 X-43.4651 Y18.2946
G01 X-43.4564 Y18.2240
G01 X-43.4478 Y18.1753
G01 X-43.4372 Y18.1277
G01 X-43.4204 Y18.0664
G01 X-43.4204 Y16.1938
G01 X-43.4372 Y16.1323
G01 X-43.4478 Y16.0847
G01 X-43.4564 Y16.0360
G01 X-43.4651 Y15.9654
G01 X-43.4689 Y15.9091
G01 X-43.4700 Y15.8600
G01 X-43.4689 Y15.8109
G01 X-43.4651 Y15.7546
G01 X-43.4564 Y15.6840
G01 X-43.4478 Y15.6353
G01 X-43.4372 Y15.5877
G01 X-43.4204 Y15.5264
G01 X-43.4204 Y13.6538
G01 X-43.4372 Y13.5923
G01 X-43.4478 Y13.5447
G01 X-43.4564 Y13.4960
G01 X-43.4651 Y13.4254
G01 X-43.4689 Y13.3691
G01 X-43.4700 Y13.3200
G01 X-43.4689 Y13.2709
G01 X-43.4651 Y13.2146
G01 X-43.4564 Y13.1440
G01 X-43.4478 Y13.0953
G01 X-43.4372 Y13.0477
G01 X-43.4204 Y12.9864
G01 X-43.4204 Y11.1138
G01 X-43.4372 Y11.0523
G01 X-43.4478 Y11.0047
G01 X-43.4564 Y10.9560
G01 X-43.4651 Y10.8854
G01 X-43.4689 Y10.8291
G01 X-43.4700 Y10.7800
G01 X-43.4689 Y10.7309
G01 X-43.4651 Y10.6746
G01 X-43.4564 Y10.6040
G01 X-43.4478 Y10.5553
G01 X-43.4372 Y10.5077
G01 X-43.4204 Y10.4464
G01 X-43.4204 Y8.5738
G01 X-43.4337 Y8.5265
G01 X-43.4478 Y8.4647
G01 X-43.4564 Y8.4160
G01 X-43.4639 Y8.3583
G01 X-43.4682 Y8.3038
G01 X-43.4699 Y8.2474
G01 X-43.4682 Y8.1762
G01 X-43.4637 Y8.1200
G01 X-43.4564 Y8.0640
G01 X-43.4478 Y8.0153
G01 X-43.4337 Y7.9535
G01 X-43.4183 Y7.8992
G01 X-43.4002 Y7.8457
G01 X-43.3838 Y7.8033
G01 X-43.3567 Y7.7424
G01 X-43.3307 Y7.6914
G01 X-43.3025 Y7.6425
G01 X-43.2720 Y7.5950
G01 X-43.2427 Y7.5537
G01 X-43.2042 Y7.5048
G01 X-43.1671 Y7.4623
G01 X-43.1332 Y7.4268
G01 X-43.0868 Y7.3830
G01 X-43.0538 Y7.3546
G01 X-43.0063 Y7.3173
G01 X-42.9527 Y7.2798
G01 X-42.9049 Y7.2499
G01 X-42.8556 Y7.2224
G01 X-42.8050 Y7.1973
G01 X-42.7567 Y7.1762
G01 X-42.7143 Y7.1598
G01 X-42.6608 Y7.1417
G01 X-42.6065 Y7.1263
G01 X-42.5447 Y7.1122
G01 X-42.4960 Y7.1036
G01 X-42.4383 Y7.0961
G01 X-42.3838 Y7.0918
G01 X-42.3200 Y7.0900
G01 X-42.2709 Y7.0911
G01 X-42.2146 Y7.0949
G01 X-42.1440 Y7.1036
G01 X-42.0953 Y7.1122
G01 X-42.0335 Y7.1263
G01 X-41.9792 Y7.1417
G01 X-41.9257 Y7.1598
G01 X-41.8833 Y7.1762
G01 X-41.8224 Y7.2033
G01 X-41.7844 Y7.2224
G01 X-41.7351 Y7.2499
G01 X-41.6873 Y7.2798
G01 X-41.6409 Y7.3120
G01 X-41.5962 Y7.3464
G01 X-41.5532 Y7.3830
G01 X-41.5017 Y7.4321
G01 X-41.4630 Y7.4732
G01 X-41.4346 Y7.5062
G01 X-41.3973 Y7.5537
