(G-CODE GENERATED BY FLATCAM v8.99 - www.flatcam.org - Version Date: 2019/12/15)

(Name: drill_cnc)
(Type: G-code from Excellon)
(Units: MM)

(Created on Monday, 19 October 2020 at 23:01)

(Feedrate: 50.0 mm/min)
(Feedrate rapids 76.2 mm/min)

(Z_Cut: -2.0 mm)
(Z_Move: 1.0 mm)
(Z Toolchange: 20.0 mm)
(X,Y Toolchange: 0.0000, 0.0000 mm)
(Z Start: None mm)
(Z End: 20.0 mm)
(Steps per circle: 128)
(Preprocessor Excellon: default)

(X range:    3.7100 ...   45.3600  mm)
(Y range:    5.2000 ...   44.4000  mm)

(Spindle Speed: 12000.0 RPM)
G21
G90
G94




G01 F50.00
G00 Z1.0000

M03 S12000.0
G00 X-42.3200 Y29.8300
G01 Z-2.0000
G01 Z0
G00 Z1.0000
G00 X-42.3200 Y27.3300
G01 Z-2.0000
G01 Z0
G00 Z1.0000
G00 X-41.0500 Y34.9100
G01 Z-2.0000
G01 Z0
G00 Z1.0000
G00 X-41.0500 Y42.5300
G01 Z-2.0000
G01 Z0
G00 Z1.0000
G00 X-37.2400 Y39.9900
G01 Z-2.0000
G01 Z0
G00 Z1.0000
G00 X-33.7950 Y41.2600
G01 Z-2.0000
G01 Z0
G00 Z1.0000
G00 X-33.7950 Y38.7200
G01 Z-2.0000
G01 Z0
G00 Z1.0000
G00 X-33.7950 Y36.1800
G01 Z-2.0000
G01 Z0
G00 Z1.0000
G00 X-18.5550 Y41.2600
G01 Z-2.0000
G01 Z0
G00 Z1.0000
G00 X-18.5550 Y38.7200
G01 Z-2.0000
G01 Z0
G00 Z1.0000
G00 X-18.5550 Y36.1800
G01 Z-2.0000
G01 Z0
G00 Z1.0000
G00 X-18.5550 Y33.6400
G01 Z-2.0000
G01 Z0
G00 Z1.0000
G00 X-18.5550 Y31.1000
G01 Z-2.0000
G01 Z0
G00 Z1.0000
G00 X-14.3800 Y29.8300
G01 Z-2.0000
G01 Z0
G00 Z1.0000
G00 X-18.5550 Y28.5600
G01 Z-2.0000
G01 Z0
G00 Z1.0000
G00 X-18.5550 Y26.0200
G01 Z-2.0000
G01 Z0
G00 Z1.0000
G00 X-18.5550 Y23.4800
G01 Z-2.0000
G01 Z0
G00 Z1.0000
G00 X-14.3800 Y22.2100
G01 Z-2.0000
G01 Z0
G00 Z1.0000
G00 X-18.5550 Y20.9400
G01 Z-2.0000
G01 Z0
G00 Z1.0000
G00 X-18.5550 Y18.4000
G01 Z-2.0000
G01 Z0
G00 Z1.0000
G00 X-18.5550 Y15.8600
G01 Z-2.0000
G01 Z0
G00 Z1.0000
G00 X-18.5550 Y13.3200
G01 Z-2.0000
G01 Z0
G00 Z1.0000
G00 X-18.5550 Y10.7800
G01 Z-2.0000
G01 Z0
G00 Z1.0000
G00 X-18.5550 Y8.2400
G01 Z-2.0000
G01 Z0
G00 Z1.0000
G00 X-18.5550 Y5.7000
G01 Z-2.0000
G01 Z0
G00 Z1.0000
G00 X-33.7950 Y5.7000
G01 Z-2.0000
G01 Z0
G00 Z1.0000
G00 X-33.7950 Y8.2400
G01 Z-2.0000
G01 Z0
G00 Z1.0000
G00 X-33.7950 Y10.7800
G01 Z-2.0000
G01 Z0
G00 Z1.0000
G00 X-33.7950 Y13.3200
G01 Z-2.0000
G01 Z0
G00 Z1.0000
G00 X-33.7950 Y15.8600
G01 Z-2.0000
G01 Z0
G00 Z1.0000
G00 X-33.7950 Y18.4000
G01 Z-2.0000
G01 Z0
G00 Z1.0000
G00 X-33.7950 Y20.9400
G01 Z-2.0000
G01 Z0
G00 Z1.0000
G00 X-33.7950 Y23.4800
G01 Z-2.0000
G01 Z0
G00 Z1.0000
G00 X-33.7950 Y26.0200
G01 Z-2.0000
G01 Z0
G00 Z1.0000
G00 X-33.7950 Y28.5600
G01 Z-2.0000
G01 Z0
G00 Z1.0000
G00 X-33.7950 Y31.1000
G01 Z-2.0000
G01 Z0
G00 Z1.0000
G00 X-33.7950 Y33.6400
G01 Z-2.0000
G01 Z0
G00 Z1.0000
G00 X-37.2400 Y32.3700
G01 Z-2.0000
G01 Z0
G00 Z1.0000
M03 S12000.0
G00 X-9.3000 Y18.4000
G01 Z-2.0000
G01 Z0
G00 Z1.0000
G00 X-4.2200 Y29.8300
G01 Z-2.0000
G01 Z0
G00 Z1.0000
G00 X-4.2100 Y24.7500
G01 Z-2.0000
G01 Z0
G00 Z1.0000
G00 X-6.7600 Y18.4000
G01 Z-2.0000
G01 Z0
G00 Z1.0000
G00 X-6.7600 Y15.8600
G01 Z-2.0000
G01 Z0
G00 Z1.0000
G00 X-6.7600 Y13.3200
G01 Z-2.0000
G01 Z0
G00 Z1.0000
G00 X-6.7600 Y10.7800
G01 Z-2.0000
G01 Z0
G00 Z1.0000
G00 X-6.7600 Y8.2400
G01 Z-2.0000
G01 Z0
G00 Z1.0000
G00 X-6.7600 Y5.7000
G01 Z-2.0000
G01 Z0
G00 Z1.0000
G00 X-9.3000 Y5.7000
G01 Z-2.0000
G01 Z0
G00 Z1.0000
G00 X-9.3000 Y8.2400
G01 Z-2.0000
G01 Z0
G00 Z1.0000
G00 X-9.3000 Y10.7800
G01 Z-2.0000
G01 Z0
G00 Z1.0000
G00 X-9.3000 Y13.3200
G01 Z-2.0000
G01 Z0
G00 Z1.0000
G00 X-9.3000 Y15.8600
G01 Z-2.0000
G01 Z0
G00 Z1.0000
G00 X-11.8400 Y15.8600
G01 Z-2.0000
G01 Z0
G00 Z1.0000
G00 X-11.8400 Y13.3200
G01 Z-2.0000
G01 Z0
G00 Z1.0000
G00 X-11.8400 Y10.7800
G01 Z-2.0000
G01 Z0
G00 Z1.0000
G00 X-11.8400 Y8.2400
G01 Z-2.0000
G01 Z0
G00 Z1.0000
G00 X-11.8400 Y5.7000
G01 Z-2.0000
G01 Z0
G00 Z1.0000
G00 X-39.7800 Y13.3200
G01 Z-2.0000
G01 Z0
G00 Z1.0000
G00 X-39.7800 Y15.8600
G01 Z-2.0000
G01 Z0
G00 Z1.0000
G00 X-42.3200 Y15.8600
G01 Z-2.0000
G01 Z0
G00 Z1.0000
G00 X-42.3200 Y13.3200
G01 Z-2.0000
G01 Z0
G00 Z1.0000
G00 X-42.3200 Y10.7800
G01 Z-2.0000
G01 Z0
G00 Z1.0000
G00 X-39.7800 Y10.7800
G01 Z-2.0000
G01 Z0
G00 Z1.0000
G00 X-39.7800 Y8.2400
G01 Z-2.0000
G01 Z0
G00 Z1.0000
G00 X-39.7800 Y5.7000
G01 Z-2.0000
G01 Z0
G00 Z1.0000
G00 X-42.3200 Y8.2400
G01 Z-2.0000
G01 Z0
G00 Z1.0000
G00 X-44.8600 Y8.2400
G01 Z-2.0000
G01 Z0
G00 Z1.0000
G00 X-44.8600 Y10.7800
G01 Z-2.0000
G01 Z0
G00 Z1.0000
G00 X-44.8600 Y13.3200
G01 Z-2.0000
G01 Z0
G00 Z1.0000
G00 X-44.8600 Y15.8600
G01 Z-2.0000
G01 Z0
G00 Z1.0000
G00 X-44.8600 Y18.4000
G01 Z-2.0000
G01 Z0
G00 Z1.0000
G00 X-44.8600 Y20.9400
G01 Z-2.0000
G01 Z0
G00 Z1.0000
G00 X-42.3200 Y18.4000
G01 Z-2.0000
G01 Z0
G00 Z1.0000
G00 X-42.3200 Y20.9400
G01 Z-2.0000
G01 Z0
G00 Z1.0000
G00 X-39.7800 Y20.9400
G01 Z-2.0000
G01 Z0
G00 Z1.0000
G00 X-39.7800 Y18.4000
G01 Z-2.0000
G01 Z0
G00 Z1.0000
G00 X-11.8400 Y18.4000
G01 Z-2.0000
G01 Z0
G00 Z1.0000
M03 S12000.0
G00 X-10.5700 Y28.5600
G01 Z-2.0000
G01 Z0
G00 Z1.0000
G00 X-10.5700 Y26.0200
G01 Z-2.0000
G01 Z0
G00 Z1.0000
G00 X-10.5700 Y23.4800
G01 Z-2.0000
G01 Z0
G00 Z1.0000
M03 S12000.0
G00 X-11.8400 Y43.8000
G01 Z-2.0000
G01 Z0
G00 Z1.0000
G00 X-11.8400 Y33.6400
G01 Z-2.0000
G01 Z0
G00 Z1.0000
M03 S12000.0
G00 X-5.4900 Y41.2600
G01 Z-2.0000
G01 Z0
G00 Z1.0000
G00 X-5.4900 Y36.1800
G01 Z-2.0000
G01 Z0
G00 Z1.0000
M05
G00 Z20.00
G00 X0.0 Y0.0

