(G-CODE GENERATED BY FLATCAM v8.99 - www.flatcam.org - Version Date: 2019/12/15)

(Name: text_conv_paint_cnc)
(Type: G-code from Geometry)
(Units: MM)

(Created on Monday, 19 October 2020 at 23:01)

(TOOL DIAMETER: 0.6 mm)
(Feedrate: 200.0 mm/min)
(Feedrate_Z: 76.2 mm/min)
(Feedrate rapids 76.2 mm/min)

(Z_Cut: -0.15 mm)
(Z_Move: 1.0 mm)
(Z Toolchange: 20.0 mm)
(X,Y Toolchange: 0.0000, 0.0000 mm)
(Z Start: None mm)
(Z End: 20.0 mm)
(Steps per circle: 128)
(Preprocessor Geometry: default)

(X range:  -26.6930 ...   -8.3071  mm)
(Y range:    6.4498 ...   41.1359  mm)

(Spindle Speed: 12000 RPM)
G21
G90
G94




G01 F200.00
G00 Z1.0000

M03 S12000
G00 X-23.6465 Y7.8784
G01 F76.20
G01 Z-0.1500
G01 F200.00
G01 X-25.6392 Y7.8784
G01 X-25.6478 Y7.8787
G01 X-25.6550 Y7.8800
G01 X-25.6643 Y7.8833
G01 X-25.6707 Y7.8869
G01 X-25.6765 Y7.8915
G01 X-25.6816 Y7.8968
G01 X-25.6858 Y7.9028
G01 X-25.6891 Y7.9094
G01 X-25.6914 Y7.9164
G01 X-25.6927 Y7.9237
G01 X-25.6929 Y7.9310
G01 X-25.6920 Y7.9383
G01 X-25.6900 Y7.9454
G01 X-25.6870 Y7.9522
G01 X-25.6708 Y7.9764
G01 X-25.6564 Y8.0020
G01 X-25.6444 Y8.0288
G01 X-25.6395 Y8.0426
G01 X-25.6316 Y8.0709
G01 X-25.6266 Y8.0999
G01 X-25.6244 Y8.1292
G01 X-25.6244 Y8.1438
G01 X-25.6265 Y8.1731
G01 X-25.6286 Y8.1877
G01 X-25.6314 Y8.2021
G01 X-25.6392 Y8.2304
G01 X-25.6497 Y8.2578
G01 X-25.6887 Y8.3371
G01 X-25.6913 Y8.3444
G01 X-25.6927 Y8.3520
G01 X-25.6927 Y8.7909
G01 X-25.6906 Y8.8009
G01 X-25.6860 Y8.8116
G01 X-25.5424 Y9.0981
G01 X-25.5379 Y9.1041
G01 X-25.5327 Y9.1094
G01 X-25.5267 Y9.1138
G01 X-25.5191 Y9.1180
G01 X-25.2402 Y9.2574
G01 X-25.2295 Y9.2620
G01 X-25.2194 Y9.2641
G01 X-23.6465 Y9.2645
G01 X-23.6379 Y9.2641
G01 X-23.6307 Y9.2629
G01 X-23.6214 Y9.2596
G01 X-23.6150 Y9.2559
G01 X-23.6074 Y9.2497
G01 X-23.6026 Y9.2441
G01 X-23.5987 Y9.2379
G01 X-23.5957 Y9.2312
G01 X-23.5937 Y9.2241
G01 X-23.5928 Y9.2167
G01 X-23.5930 Y9.2094
G01 X-23.5949 Y9.1997
G01 X-23.5976 Y9.1929
G01 X-23.6026 Y9.1845
G01 X-23.6074 Y9.1789
G01 X-23.6130 Y9.1741
G01 X-23.6192 Y9.1701
G01 X-23.6260 Y9.1671
G01 X-23.6331 Y9.1652
G01 X-23.6404 Y9.1643
G01 X-25.1316 Y9.1641
G01 X-25.1455 Y9.1638
G01 X-25.1732 Y9.1612
G01 X-25.2005 Y9.1561
G01 X-25.2140 Y9.1526
G01 X-25.2273 Y9.1484
G01 X-25.2532 Y9.1384
G01 X-25.3853 Y9.0723
G01 X-25.4088 Y9.0578
G01 X-25.4308 Y9.0411
G01 X-25.4511 Y9.0226
G01 X-25.4697 Y9.0022
G01 X-25.4863 Y8.9802
G01 X-25.5009 Y8.9568
G01 X-25.5610 Y8.8372
G01 X-25.5723 Y8.8118
G01 X-25.5811 Y8.7854
G01 X-25.5875 Y8.7584
G01 X-25.5914 Y8.7308
G01 X-25.5927 Y8.7030
G01 X-25.5924 Y8.4259
G01 X-25.5898 Y8.3982
G01 X-25.5875 Y8.3845
G01 X-25.5811 Y8.3574
G01 X-25.5723 Y8.3311
G01 X-25.5610 Y8.3056
G01 X-25.4805 Y8.1447
G01 X-25.4730 Y8.1305
G01 X-25.4556 Y8.1034
G01 X-25.4354 Y8.0784
G01 X-25.4242 Y8.0666
G01 X-25.4024 Y8.0468
G01 X-25.3908 Y8.0378
G01 X-25.3663 Y8.0214
G01 X-25.3535 Y8.0142
G01 X-25.3269 Y8.0016
G01 X-25.2992 Y7.9917
G01 X-25.2706 Y7.9845
G01 X-25.2415 Y7.9802
G01 X-25.2121 Y7.9787
G01 X-23.6379 Y7.9784
G01 X-23.6283 Y7.9765
G01 X-23.6192 Y7.9727
G01 X-23.6111 Y7.9673
G01 X-23.6041 Y7.9603
G01 X-23.5987 Y7.9522
G01 X-23.5949 Y7.9431
G01 X-23.5930 Y7.9335
G01 X-23.5930 Y7.9237
G01 X-23.5949 Y7.9140
G01 X-23.5987 Y7.9050
G01 X-23.6041 Y7.8968
G01 X-23.6111 Y7.8899
G01 X-23.6192 Y7.8844
G01 X-23.6283 Y7.8806
G01 X-23.6379 Y7.8787
G01 X-23.6465 Y7.8784
G00 Z1.0000
G00 X-23.6465 Y10.5927
G01 F76.20
G01 Z-0.1500
G01 F200.00
G01 X-25.6392 Y10.5927
G01 X-25.6478 Y10.5930
G01 X-25.6550 Y10.5943
G01 X-25.6620 Y10.5966
G01 X-25.6707 Y10.6012
G01 X-25.6765 Y10.6057
G01 X-25.6816 Y10.6111
G01 X-25.6858 Y10.6171
G01 X-25.6891 Y10.6237
G01 X-25.6914 Y10.6307
G01 X-25.6927 Y10.6379
G01 X-25.6929 Y10.6453
G01 X-25.6920 Y10.6526
G01 X-25.6900 Y10.6597
G01 X-25.6870 Y10.6665
G01 X-25.6708 Y10.6907
G01 X-25.6564 Y10.7163
G01 X-25.6444 Y10.7431
G01 X-25.6395 Y10.7569
G01 X-25.6316 Y10.7852
G01 X-25.6266 Y10.8142
G01 X-25.6244 Y10.8434
G01 X-25.6244 Y10.8581
G01 X-25.6265 Y10.8874
G01 X-25.6286 Y10.9020
G01 X-25.6314 Y10.9164
G01 X-25.6392 Y10.9447
G01 X-25.6497 Y10.9721
G01 X-25.6887 Y11.0514
G01 X-25.6913 Y11.0587
G01 X-25.6927 Y11.0663
G01 X-25.6927 Y11.5052
G01 X-25.6906 Y11.5152
G01 X-25.6860 Y11.5259
G01 X-25.5424 Y11.8124
G01 X-25.5379 Y11.8184
G01 X-25.5327 Y11.8237
G01 X-25.5267 Y11.8281
G01 X-25.5191 Y11.8323
G01 X-25.2402 Y11.9717
G01 X-25.2295 Y11.9763
G01 X-25.2194 Y11.9784
G01 X-23.6465 Y11.9787
G01 X-23.6379 Y11.9784
G01 X-23.6307 Y11.9772
G01 X-23.6214 Y11.9738
G01 X-23.6150 Y11.9702
G01 X-23.6074 Y11.9640
G01 X-23.6026 Y11.9584
G01 X-23.5987 Y11.9522
G01 X-23.5957 Y11.9454
G01 X-23.5937 Y11.9383
G01 X-23.5928 Y11.9310
G01 X-23.5930 Y11.9237
G01 X-23.5949 Y11.9140
G01 X-23.5976 Y11.9072
G01 X-23.6026 Y11.8987
G01 X-23.6074 Y11.8932
G01 X-23.6130 Y11.8883
G01 X-23.6192 Y11.8844
G01 X-23.6260 Y11.8814
G01 X-23.6331 Y11.8794
G01 X-23.6404 Y11.8785
G01 X-25.1316 Y11.8784
G01 X-25.1455 Y11.8781
G01 X-25.1732 Y11.8755
G01 X-25.2005 Y11.8704
G01 X-25.2140 Y11.8669
G01 X-25.2273 Y11.8627
G01 X-25.2532 Y11.8527
G01 X-25.3853 Y11.7866
G01 X-25.4088 Y11.7720
G01 X-25.4308 Y11.7554
G01 X-25.4511 Y11.7368
G01 X-25.4697 Y11.7165
G01 X-25.4863 Y11.6945
G01 X-25.5009 Y11.6711
G01 X-25.5610 Y11.5515
G01 X-25.5723 Y11.5261
G01 X-25.5811 Y11.4997
G01 X-25.5875 Y11.4727
G01 X-25.5914 Y11.4451
G01 X-25.5927 Y11.4173
G01 X-25.5924 Y11.1402
G01 X-25.5898 Y11.1125
G01 X-25.5875 Y11.0988
G01 X-25.5811 Y11.0717
G01 X-25.5723 Y11.0454
G01 X-25.5610 Y11.0199
G01 X-25.4805 Y10.8590
G01 X-25.4730 Y10.8448
G01 X-25.4556 Y10.8177
G01 X-25.4354 Y10.7927
G01 X-25.4242 Y10.7809
G01 X-25.4024 Y10.7611
G01 X-25.3908 Y10.7521
G01 X-25.3663 Y10.7357
G01 X-25.3535 Y10.7285
G01 X-25.3269 Y10.7159
G01 X-25.2992 Y10.7060
G01 X-25.2706 Y10.6988
G01 X-25.2415 Y10.6945
G01 X-25.2121 Y10.6930
G01 X-23.6379 Y10.6927
G01 X-23.6283 Y10.6908
G01 X-23.6192 Y10.6870
G01 X-23.6111 Y10.6816
G01 X-23.6041 Y10.6746
G01 X-23.5987 Y10.6665
G01 X-23.5949 Y10.6574
G01 X-23.5930 Y10.6478
G01 X-23.5930 Y10.6379
G01 X-23.5949 Y10.6283
G01 X-23.5987 Y10.6192
G01 X-23.6041 Y10.6111
G01 X-23.6111 Y10.6041
G01 X-23.6192 Y10.5987
G01 X-23.6283 Y10.5949
G01 X-23.6379 Y10.5930
G01 X-23.6465 Y10.5927
G00 Z1.0000
G00 X-23.5977 Y13.7641
G01 F76.20
G01 Z-0.1500
G01 F200.00
G01 X-23.7393 Y13.4806
G01 X-23.7444 Y13.4717
G01 X-23.7527 Y13.4621
G01 X-23.8907 Y13.3241
G01 X-23.9002 Y13.3158
G01 X-23.9092 Y13.3107
G01 X-24.1966 Y13.1674
G01 X-24.2066 Y13.1648
G01 X-24.2181 Y13.1641
G01 X-25.0676 Y13.1641
G01 X-25.0817 Y13.1653
G01 X-25.0891 Y13.1674
G01 X-25.0973 Y13.1711
G01 X-25.3765 Y13.3107
G01 X-25.3855 Y13.3158
G01 X-25.3951 Y13.3241
G01 X-25.5330 Y13.4621
G01 X-25.5385 Y13.4680
G01 X-25.5437 Y13.4756
G01 X-25.6860 Y13.7598
G01 X-25.6897 Y13.7680
G01 X-25.6919 Y13.7755
G01 X-25.6930 Y13.7896
G01 X-25.6930 Y14.2104
G01 X-25.6919 Y14.2245
G01 X-25.6897 Y14.2320
G01 X-25.6860 Y14.2402
G01 X-25.5464 Y14.5194
G01 X-25.5400 Y14.5302
G01 X-25.5330 Y14.5379
G01 X-25.3951 Y14.6759
G01 X-25.3855 Y14.6842
G01 X-25.3765 Y14.6893
G01 X-25.0915 Y14.8316
G01 X-25.0791 Y14.8352
G01 X-25.0676 Y14.8359
G01 X-24.2181 Y14.8359
G01 X-24.2040 Y14.8347
G01 X-24.1966 Y14.8326
G01 X-24.1884 Y14.8289
G01 X-23.9092 Y14.6893
G01 X-23.9002 Y14.6842
G01 X-23.8907 Y14.6759
G01 X-23.7527 Y14.5379
G01 X-23.7472 Y14.5320
G01 X-23.7420 Y14.5244
G01 X-23.5997 Y14.2402
G01 X-23.5960 Y14.2320
G01 X-23.5938 Y14.2245
G01 X-23.5927 Y14.2104
G01 X-23.5927 Y13.7894
G01 X-23.5938 Y13.7757
G01 X-23.5977 Y13.7641
G01 X-23.6934 Y13.8545
G01 X-23.6934 Y14.1455
G01 X-23.6959 Y14.1732
G01 X-23.7011 Y14.2005
G01 X-23.7087 Y14.2273
G01 X-23.7188 Y14.2532
G01 X-23.8052 Y14.4267
G01 X-23.8128 Y14.4409
G01 X-23.8301 Y14.4680
G01 X-23.8503 Y14.4930
G01 X-23.9239 Y14.5672
G01 X-23.9478 Y14.5887
G01 X-23.9606 Y14.5984
G01 X-23.9739 Y14.6075
G01 X-24.0018 Y14.6234
G01 X-24.1754 Y14.7098
G01 X-24.1882 Y14.7151
G01 X-24.2146 Y14.7240
G01 X-24.2416 Y14.7304
G01 X-24.2554 Y14.7326
G01 X-24.2692 Y14.7343
G01 X-24.2970 Y14.7355
G01 X-24.9888 Y14.7355
G01 X-25.0165 Y14.7343
G01 X-25.0441 Y14.7304
G01 X-25.0711 Y14.7240
G01 X-25.0975 Y14.7151
G01 X-25.1103 Y14.7098
G01 X-25.2981 Y14.6158
G01 X-25.3251 Y14.5984
G01 X-25.3502 Y14.5783
G01 X-25.4354 Y14.4930
G01 X-25.4458 Y14.4808
G01 X-25.4646 Y14.4547
G01 X-25.4805 Y14.4267
G01 X-25.5610 Y14.2658
G01 X-25.5723 Y14.2404
G01 X-25.5811 Y14.2140
G01 X-25.5875 Y14.1869
G01 X-25.5898 Y14.1732
G01 X-25.5924 Y14.1455
G01 X-25.5927 Y13.8684
G01 X-25.5924 Y13.8545
G01 X-25.5898 Y13.8268
G01 X-25.5847 Y13.7995
G01 X-25.5811 Y13.7860
G01 X-25.5723 Y13.7596
G01 X-25.5669 Y13.7468
G01 X-25.4805 Y13.5733
G01 X-25.4646 Y13.5453
G01 X-25.4556 Y13.5320
G01 X-25.4354 Y13.5070
G01 X-25.3618 Y13.4328
G01 X-25.3379 Y13.4113
G01 X-25.3251 Y13.4016
G01 X-25.2981 Y13.3842
G01 X-25.2839 Y13.3766
G01 X-25.1229 Y13.2961
G01 X-25.0975 Y13.2849
G01 X-25.0844 Y13.2801
G01 X-25.0577 Y13.2725
G01 X-25.0304 Y13.2674
G01 X-25.0165 Y13.2657
G01 X-24.9888 Y13.2645
G01 X-24.2970 Y13.2645
G01 X-24.2692 Y13.2657
G01 X-24.2554 Y13.2674
G01 X-24.2416 Y13.2696
G01 X-24.2146 Y13.2760
G01 X-24.1882 Y13.2849
G01 X-24.1754 Y13.2902
G01 X-23.9876 Y13.3842
G01 X-23.9606 Y13.4016
G01 X-23.9355 Y13.4217
G01 X-23.8614 Y13.4953
G01 X-23.8399 Y13.5192
G01 X-23.8301 Y13.5320
G01 X-23.8128 Y13.5591
G01 X-23.7188 Y13.7468
G01 X-23.7087 Y13.7727
G01 X-23.7011 Y13.7995
G01 X-23.6959 Y13.8268
G01 X-23.6934 Y13.8545
G00 Z1.0000
G00 X-24.0713 Y17.7352
G01 F76.20
G01 Z-0.1500
G01 F200.00
G01 X-24.5931 Y17.7352
G01 X-24.6224 Y17.7323
G01 X-24.6513 Y17.7265
G01 X-24.6655 Y17.7226
G01 X-24.6795 Y17.7180
G01 X-24.7067 Y17.7067
G01 X-24.7326 Y17.6929
G01 X-24.7571 Y17.6765
G01 X-24.7799 Y17.6578
G01 X-24.8007 Y17.6370
G01 X-24.8194 Y17.6142
G01 X-24.8357 Y17.5898
G01 X-24.8496 Y17.5638
G01 X-24.8609 Y17.5366
G01 X-24.8655 Y17.5226
G01 X-24.8694 Y17.5084
G01 X-24.8751 Y17.4796
G01 X-24.8780 Y17.4503
G01 X-24.8784 Y17.2180
G01 X-24.8794 Y17.2045
G01 X-24.8814 Y17.1974
G01 X-24.8844 Y17.1907
G01 X-24.8899 Y17.1825
G01 X-24.8949 Y17.1772
G01 X-24.9028 Y17.1713
G01 X-24.9094 Y17.1680
G01 X-24.9164 Y17.1657
G01 X-24.9261 Y17.1643
G01 X-24.9359 Y17.1647
G01 X-24.9431 Y17.1664
G01 X-24.9500 Y17.1690
G01 X-24.9584 Y17.1741
G01 X-24.9657 Y17.1807
G01 X-24.9702 Y17.1865
G01 X-24.9748 Y17.1951
G01 X-24.9772 Y17.2021
G01 X-24.9784 Y17.2094
G01 X-24.9787 Y17.2180
G01 X-24.9786 Y17.7882
G01 X-24.9777 Y17.7955
G01 X-24.9757 Y17.8026
G01 X-24.9727 Y17.8093
G01 X-24.9688 Y17.8156
G01 X-24.9640 Y17.8211
G01 X-24.9584 Y17.8259
G01 X-24.9522 Y17.8299
G01 X-24.9454 Y17.8329
G01 X-24.9359 Y17.8353
G01 X-24.9249 Y17.8359
G01 X-23.9323 Y17.8359
G01 X-23.9212 Y17.8353
G01 X-23.9140 Y17.8336
G01 X-23.9072 Y17.8310
G01 X-23.9007 Y17.8274
G01 X-23.8949 Y17.8228
G01 X-23.7485 Y17.6764
G01 X-23.7412 Y17.6658
G01 X-23.7369 Y17.6551
G01 X-23.5963 Y17.2334
G01 X-23.5936 Y17.2234
G01 X-23.5927 Y17.2108
G01 X-23.5927 Y16.9320
G01 X-23.5936 Y16.9194
G01 X-23.5963 Y16.9094
G01 X-23.7369 Y16.4878
G01 X-23.7425 Y16.4748
G01 X-23.7469 Y16.4684
G01 X-23.7530 Y16.4618
G01 X-24.0335 Y16.1812
G01 X-24.0431 Y16.1730
G01 X-24.0521 Y16.1679
G01 X-24.3310 Y16.0284
G01 X-24.3424 Y16.0236
G01 X-24.9188 Y15.8794
G01 X-24.9322 Y15.8784
G01 X-25.3535 Y15.8784
G01 X-25.3645 Y15.8790
G01 X-25.9433 Y16.0236
G01 X-25.9547 Y16.0284
G01 X-26.2336 Y16.1679
G01 X-26.2445 Y16.1743
G01 X-26.2522 Y16.1812
G01 X-26.5327 Y16.4618
G01 X-26.5389 Y16.4684
G01 X-26.5445 Y16.4770
G01 X-26.5488 Y16.4878
G01 X-26.6894 Y16.9094
G01 X-26.6921 Y16.9194
G01 X-26.6930 Y16.9320
G01 X-26.6929 Y17.3597
G01 X-26.6906 Y17.3724
G01 X-26.6860 Y17.3830
G01 X-26.5436 Y17.6674
G01 X-26.5364 Y17.6773
G01 X-26.5309 Y17.6823
G01 X-26.5248 Y17.6864
G01 X-26.5182 Y17.6895
G01 X-26.5111 Y17.6917
G01 X-26.4989 Y17.6929
G01 X-26.4892 Y17.6918
G01 X-26.4798 Y17.6887
G01 X-26.4713 Y17.6839
G01 X-26.4622 Y17.6757
G01 X-26.4553 Y17.6655
G01 X-26.4518 Y17.6563
G01 X-26.4501 Y17.6467
G01 X-26.4503 Y17.6369
G01 X-26.4524 Y17.6273
G01 X-26.4568 Y17.6171
G01 X-26.5669 Y17.3961
G01 X-26.5770 Y17.3701
G01 X-26.5847 Y17.3434
G01 X-26.5875 Y17.3298
G01 X-26.5914 Y17.3023
G01 X-26.5927 Y17.2745
G01 X-26.5927 Y16.9854
G01 X-26.5910 Y16.9533
G01 X-26.5858 Y16.9215
G01 X-26.5773 Y16.8905
G01 X-26.4785 Y16.5943
G01 X-26.4685 Y16.5683
G01 X-26.4562 Y16.5434
G01 X-26.4491 Y16.5314
G01 X-26.4334 Y16.5085
G01 X-26.4157 Y16.4871
G01 X-26.4061 Y16.4770
G01 X-26.2190 Y16.2899
G01 X-26.1951 Y16.2685
G01 X-26.1690 Y16.2497
G01 X-26.1410 Y16.2338
G01 X-25.9405 Y16.1335
G01 X-25.9257 Y16.1266
G01 X-25.8949 Y16.1152
G01 X-25.3868 Y15.9877
G01 X-25.3688 Y15.9838
G01 X-25.3507 Y15.9810
G01 X-25.3324 Y15.9793
G01 X-25.3140 Y15.9787
G01 X-24.9717 Y15.9787
G01 X-24.9533 Y15.9793
G01 X-24.9350 Y15.9810
G01 X-24.9169 Y15.9838
G01 X-24.8989 Y15.9877
G01 X-24.3908 Y16.1152
G01 X-24.3601 Y16.1266
G01 X-24.3452 Y16.1335
G01 X-24.1447 Y16.2338
G01 X-24.1305 Y16.2413
G01 X-24.1034 Y16.2587
G01 X-24.0784 Y16.2789
G01 X-24.0667 Y16.2899
G01 X-23.8700 Y16.4871
G01 X-23.8523 Y16.5085
G01 X-23.8366 Y16.5314
G01 X-23.8231 Y16.5557
G01 X-23.8119 Y16.5812
G01 X-23.8072 Y16.5943
G01 X-23.7084 Y16.8905
G01 X-23.6999 Y16.9215
G01 X-23.6948 Y16.9533
G01 X-23.6935 Y16.9693
G01 X-23.6930 Y17.1575
G01 X-23.6948 Y17.1896
G01 X-23.6999 Y17.2213
G01 X-23.7084 Y17.2523
G01 X-23.8011 Y17.5304
G01 X-23.8060 Y17.5440
G01 X-23.8177 Y17.5703
G01 X-23.8319 Y17.5954
G01 X-23.8484 Y17.6190
G01 X-23.8574 Y17.6302
G01 X-23.8671 Y17.6409
G01 X-23.8878 Y17.6610
G01 X-23.9103 Y17.6789
G01 X-23.9222 Y17.6871
G01 X-23.9345 Y17.6946
G01 X-23.9600 Y17.7079
G01 X-23.9732 Y17.7137
G01 X-24.0004 Y17.7232
G01 X-24.0144 Y17.7269
G01 X-24.0426 Y17.7324
G01 X-24.0713 Y17.7352
G00 Z1.0000
G00 X-25.0027 Y19.1219
G01 F76.20
G01 Z-0.1500
G01 F200.00
G01 X-23.6404 Y19.1215
G01 X-23.6307 Y19.1200
G01 X-23.6214 Y19.1167
G01 X-23.6130 Y19.1117
G01 X-23.6057 Y19.1051
G01 X-23.5999 Y19.0972
G01 X-23.5957 Y19.0883
G01 X-23.5933 Y19.0788
G01 X-23.5928 Y19.0690
G01 X-23.5943 Y19.0593
G01 X-23.5976 Y19.0500
G01 X-23.6026 Y19.0416
G01 X-23.6092 Y19.0343
G01 X-23.6171 Y19.0285
G01 X-23.6260 Y19.0243
G01 X-23.6355 Y19.0219
G01 X-23.6465 Y19.0213
G01 X-25.6392 Y19.0213
G01 X-25.6502 Y19.0219
G01 X-25.6620 Y19.0252
G01 X-25.6707 Y19.0298
G01 X-25.6765 Y19.0343
G01 X-25.6831 Y19.0416
G01 X-25.6870 Y19.0478
G01 X-25.6908 Y19.0569
G01 X-25.6927 Y19.0665
G01 X-25.6929 Y19.0739
G01 X-25.6914 Y19.0836
G01 X-25.6870 Y19.0950
G01 X-25.6816 Y19.1032
G01 X-25.6511 Y19.1347
G01 X-25.6331 Y19.1578
G01 X-25.6173 Y19.1826
G01 X-25.6041 Y19.2089
G01 X-25.5935 Y19.2363
G01 X-25.5892 Y19.2503
G01 X-25.5828 Y19.2790
G01 X-25.5791 Y19.3081
G01 X-25.5783 Y19.3375
G01 X-25.5804 Y19.3668
G01 X-25.5826 Y19.3813
G01 X-25.5890 Y19.4100
G01 X-25.5981 Y19.4379
G01 X-25.6099 Y19.4648
G01 X-25.6860 Y19.6170
G01 X-25.6897 Y19.6252
G01 X-25.6923 Y19.6351
G01 X-25.6930 Y19.6467
G01 X-25.6929 Y19.9310
G01 X-25.6914 Y19.9407
G01 X-25.6881 Y19.9500
G01 X-25.6831 Y19.9584
G01 X-25.6746 Y19.9673
G01 X-25.6665 Y19.9727
G01 X-25.6550 Y19.9772
G01 X-25.6429 Y19.9787
G01 X-25.6307 Y19.9772
G01 X-25.6192 Y19.9727
G01 X-25.6092 Y19.9657
G01 X-25.6012 Y19.9564
G01 X-25.5966 Y19.9477
G01 X-25.5933 Y19.9359
G01 X-25.5927 Y19.9249
G01 X-25.5924 Y19.7116
G01 X-25.5898 Y19.6839
G01 X-25.5875 Y19.6702
G01 X-25.5811 Y19.6431
G01 X-25.5723 Y19.6168
G01 X-25.5610 Y19.5914
G01 X-25.4805 Y19.4304
G01 X-25.4646 Y19.4025
G01 X-25.4458 Y19.3764
G01 X-25.4243 Y19.3524
G01 X-25.3502 Y19.2789
G01 X-25.3251 Y19.2587
G01 X-25.2981 Y19.2413
G01 X-25.1229 Y19.1533
G01 X-25.0975 Y19.1420
G01 X-25.0711 Y19.1331
G01 X-25.0441 Y19.1267
G01 X-25.0304 Y19.1245
G01 X-25.0027 Y19.1219
G00 Z1.0000
G00 X-24.7733 Y21.1802
G01 F76.20
G01 Z-0.1500
G01 F200.00
G01 X-24.9170 Y21.8989
G01 X-24.9254 Y21.9266
G01 X-24.9365 Y21.9535
G01 X-24.9500 Y21.9791
G01 X-24.9660 Y22.0033
G01 X-24.9843 Y22.0258
G01 X-25.0046 Y22.0465
G01 X-25.0269 Y22.0651
G01 X-25.0508 Y22.0814
G01 X-25.0633 Y22.0887
G01 X-25.0894 Y22.1015
G01 X-25.1165 Y22.1116
G01 X-25.1445 Y22.1191
G01 X-25.1731 Y22.1239
G01 X-25.2021 Y22.1259
G01 X-25.2311 Y22.1250
G01 X-25.2598 Y22.1214
G01 X-25.2881 Y22.1150
G01 X-25.3156 Y22.1059
G01 X-25.3422 Y22.0942
G01 X-25.3853 Y22.0723
G01 X-25.4088 Y22.0578
G01 X-25.4200 Y22.0497
G01 X-25.4412 Y22.0321
G01 X-25.4511 Y22.0226
G01 X-25.4697 Y22.0022
G01 X-25.4863 Y21.9802
G01 X-25.4939 Y21.9687
G01 X-25.5073 Y21.9446
G01 X-25.5610 Y21.8372
G01 X-25.5723 Y21.8118
G01 X-25.5811 Y21.7854
G01 X-25.5875 Y21.7584
G01 X-25.5898 Y21.7446
G01 X-25.5924 Y21.7170
G01 X-25.5927 Y21.2970
G01 X-25.5924 Y21.2830
G01 X-25.5898 Y21.2554
G01 X-25.5875 Y21.2416
G01 X-25.5811 Y21.2146
G01 X-25.5723 Y21.1882
G01 X-25.5669 Y21.1754
G01 X-25.5009 Y21.0432
G01 X-25.4939 Y21.0313
G01 X-25.4783 Y21.0086
G01 X-25.4607 Y20.9874
G01 X-25.4412 Y20.9679
G01 X-25.4200 Y20.9503
G01 X-25.3972 Y20.9347
G01 X-25.3732 Y20.9212
G01 X-25.2658 Y20.8676
G01 X-25.2404 Y20.8563
G01 X-25.2273 Y20.8516
G01 X-25.2005 Y20.8439
G01 X-25.1869 Y20.8410
G01 X-25.1594 Y20.8372
G01 X-25.1455 Y20.8362
G01 X-25.0553 Y20.8363
G01 X-25.0260 Y20.8391
G01 X-24.9971 Y20.8449
G01 X-24.9689 Y20.8534
G01 X-24.9417 Y20.8647
G01 X-24.9157 Y20.8786
G01 X-24.9032 Y20.8865
G01 X-24.8796 Y20.9041
G01 X-24.8578 Y20.9239
G01 X-24.8380 Y20.9457
G01 X-24.8205 Y20.9694
G01 X-24.8053 Y20.9946
G01 X-24.7928 Y21.0213
G01 X-24.7829 Y21.0490
G01 X-24.7757 Y21.0776
G01 X-24.7714 Y21.1067
G01 X-24.7700 Y21.1362
G01 X-24.7704 Y21.1509
G01 X-24.7733 Y21.1802
G00 Z1.0000
G00 X-23.7188 Y21.8246
G01 F76.20
G01 Z-0.1500
G01 F200.00
G01 X-23.8289 Y22.0457
G01 X-23.8340 Y22.0582
G01 X-23.8357 Y22.0679
G01 X-23.8354 Y22.0777
G01 X-23.8332 Y22.0873
G01 X-23.8292 Y22.0962
G01 X-23.8236 Y22.1042
G01 X-23.8164 Y22.1110
G01 X-23.8081 Y22.1162
G01 X-23.7989 Y22.1197
G01 X-23.7893 Y22.1214
G01 X-23.7819 Y22.1214
G01 X-23.7746 Y22.1203
G01 X-23.7676 Y22.1181
G01 X-23.7609 Y22.1149
G01 X-23.7548 Y22.1108
G01 X-23.7477 Y22.1040
G01 X-23.7433 Y22.0981
G01 X-23.5997 Y21.8116
G01 X-23.5960 Y21.8034
G01 X-23.5938 Y21.7960
G01 X-23.5927 Y21.7819
G01 X-23.5927 Y21.2181
G01 X-23.5938 Y21.2040
G01 X-23.5960 Y21.1966
G01 X-23.5997 Y21.1884
G01 X-23.7392 Y20.9095
G01 X-23.7434 Y20.9019
G01 X-23.7494 Y20.8940
G01 X-23.7569 Y20.8876
G01 X-23.7666 Y20.8820
G01 X-24.0455 Y20.7426
G01 X-24.0562 Y20.7380
G01 X-24.0663 Y20.7359
G01 X-24.0753 Y20.7355
G01 X-25.2104 Y20.7355
G01 X-25.2194 Y20.7359
G01 X-25.2270 Y20.7373
G01 X-25.2402 Y20.7426
G01 X-25.5191 Y20.8820
G01 X-25.5267 Y20.8862
G01 X-25.5345 Y20.8923
G01 X-25.5410 Y20.8998
G01 X-25.5465 Y20.9095
G01 X-25.6860 Y21.1884
G01 X-25.6906 Y21.1991
G01 X-25.6927 Y21.2091
G01 X-25.6930 Y21.2181
G01 X-25.6930 Y21.7819
G01 X-25.6923 Y21.7934
G01 X-25.6887 Y21.8058
G01 X-25.5465 Y22.0905
G01 X-25.5410 Y22.1002
G01 X-25.5345 Y22.1077
G01 X-25.5267 Y22.1138
G01 X-25.5191 Y22.1180
G01 X-25.2402 Y22.2574
G01 X-25.2295 Y22.2620
G01 X-25.2194 Y22.2641
G01 X-25.2104 Y22.2645
G01 X-24.9261 Y22.2643
G01 X-24.9140 Y22.2622
G01 X-24.9028 Y22.2573
G01 X-24.8968 Y22.2530
G01 X-24.8915 Y22.2479
G01 X-24.8844 Y22.2379
G01 X-24.8807 Y22.2289
G01 X-24.8786 Y22.2205
G01 X-24.6500 Y21.0771
G01 X-24.6428 Y21.0485
G01 X-24.6382 Y21.0346
G01 X-24.6269 Y21.0074
G01 X-24.6130 Y20.9815
G01 X-24.5966 Y20.9570
G01 X-24.5876 Y20.9454
G01 X-24.5678 Y20.9236
G01 X-24.5571 Y20.9135
G01 X-24.5344 Y20.8948
G01 X-24.5099 Y20.8785
G01 X-24.4840 Y20.8646
G01 X-24.4568 Y20.8534
G01 X-24.4428 Y20.8488
G01 X-24.4286 Y20.8449
G01 X-24.3998 Y20.8391
G01 X-24.3852 Y20.8373
G01 X-24.3558 Y20.8359
G01 X-24.1402 Y20.8362
G01 X-24.1125 Y20.8388
G01 X-24.0852 Y20.8439
G01 X-24.0584 Y20.8516
G01 X-24.0325 Y20.8616
G01 X-23.9126 Y20.9212
G01 X-23.8885 Y20.9347
G01 X-23.8658 Y20.9503
G01 X-23.8446 Y20.9679
G01 X-23.8251 Y20.9874
G01 X-23.8074 Y21.0086
G01 X-23.7918 Y21.0313
G01 X-23.7848 Y21.0432
G01 X-23.7188 Y21.1754
G01 X-23.7087 Y21.2013
G01 X-23.7011 Y21.2280
G01 X-23.6982 Y21.2416
G01 X-23.6943 Y21.2692
G01 X-23.6930 Y21.2970
G01 X-23.6934 Y21.7170
G01 X-23.6959 Y21.7446
G01 X-23.7011 Y21.7720
G01 X-23.7087 Y21.7987
G01 X-23.7188 Y21.8246
G00 Z1.0000
G00 X-24.7733 Y23.7516
G01 F76.20
G01 Z-0.1500
G01 F200.00
G01 X-24.9170 Y24.4703
G01 X-24.9254 Y24.4981
G01 X-24.9365 Y24.5249
G01 X-24.9500 Y24.5505
G01 X-24.9660 Y24.5747
G01 X-24.9843 Y24.5972
G01 X-25.0046 Y24.6179
G01 X-25.0269 Y24.6365
G01 X-25.0508 Y24.6529
G01 X-25.0633 Y24.6602
G01 X-25.0894 Y24.6729
G01 X-25.1165 Y24.6831
G01 X-25.1445 Y24.6906
G01 X-25.1731 Y24.6953
G01 X-25.2021 Y24.6973
G01 X-25.2311 Y24.6965
G01 X-25.2598 Y24.6928
G01 X-25.2881 Y24.6865
G01 X-25.3156 Y24.6774
G01 X-25.3422 Y24.6657
G01 X-25.3853 Y24.6437
G01 X-25.4088 Y24.6292
G01 X-25.4200 Y24.6211
G01 X-25.4412 Y24.6035
G01 X-25.4606 Y24.5840
G01 X-25.4697 Y24.5736
G01 X-25.4863 Y24.5516
G01 X-25.4939 Y24.5401
G01 X-25.5073 Y24.5160
G01 X-25.5610 Y24.4086
G01 X-25.5723 Y24.3832
G01 X-25.5770 Y24.3701
G01 X-25.5847 Y24.3434
G01 X-25.5898 Y24.3161
G01 X-25.5924 Y24.2884
G01 X-25.5927 Y23.8684
G01 X-25.5924 Y23.8545
G01 X-25.5898 Y23.8268
G01 X-25.5875 Y23.8131
G01 X-25.5811 Y23.7860
G01 X-25.5723 Y23.7596
G01 X-25.5669 Y23.7468
G01 X-25.5009 Y23.6147
G01 X-25.4863 Y23.5912
G01 X-25.4783 Y23.5800
G01 X-25.4606 Y23.5588
G01 X-25.4412 Y23.5394
G01 X-25.4200 Y23.5217
G01 X-25.3972 Y23.5061
G01 X-25.3732 Y23.4927
G01 X-25.2658 Y23.4390
G01 X-25.2404 Y23.4277
G01 X-25.2273 Y23.4230
G01 X-25.2005 Y23.4153
G01 X-25.1869 Y23.4125
G01 X-25.1594 Y23.4086
G01 X-25.1455 Y23.4076
G01 X-25.0553 Y23.4077
G01 X-25.0260 Y23.4106
G01 X-24.9971 Y23.4163
G01 X-24.9689 Y23.4249
G01 X-24.9417 Y23.4362
G01 X-24.9157 Y23.4500
G01 X-24.9032 Y23.4579
G01 X-24.8796 Y23.4755
G01 X-24.8578 Y23.4953
G01 X-24.8380 Y23.5171
G01 X-24.8205 Y23.5408
G01 X-24.8053 Y23.5661
G01 X-24.7928 Y23.5927
G01 X-24.7829 Y23.6204
G01 X-24.7757 Y23.6490
G01 X-24.7714 Y23.6782
G01 X-24.7700 Y23.7076
G01 X-24.7704 Y23.7223
G01 X-24.7733 Y23.7516
G00 Z1.0000
G00 X-23.7188 Y24.3961
G01 F76.20
G01 Z-0.1500
G01 F200.00
G01 X-23.8289 Y24.6171
G01 X-23.8340 Y24.6296
G01 X-23.8357 Y24.6393
G01 X-23.8354 Y24.6491
G01 X-23.8332 Y24.6587
G01 X-23.8292 Y24.6677
G01 X-23.8236 Y24.6757
G01 X-23.8164 Y24.6824
G01 X-23.8081 Y24.6877
G01 X-23.7989 Y24.6912
G01 X-23.7917 Y24.6926
G01 X-23.7819 Y24.6928
G01 X-23.7746 Y24.6917
G01 X-23.7676 Y24.6895
G01 X-23.7609 Y24.6864
G01 X-23.7548 Y24.6823
G01 X-23.7493 Y24.6773
G01 X-23.7433 Y24.6695
G01 X-23.5997 Y24.3830
G01 X-23.5960 Y24.3748
G01 X-23.5938 Y24.3674
G01 X-23.5927 Y24.3533
G01 X-23.5927 Y23.7896
G01 X-23.5938 Y23.7755
G01 X-23.5960 Y23.7680
G01 X-23.5997 Y23.7598
G01 X-23.7392 Y23.4809
G01 X-23.7434 Y23.4733
G01 X-23.7494 Y23.4655
G01 X-23.7569 Y23.4590
G01 X-23.7666 Y23.4535
G01 X-24.0455 Y23.3140
G01 X-24.0562 Y23.3094
G01 X-24.0663 Y23.3073
G01 X-24.0753 Y23.3070
G01 X-25.2104 Y23.3070
G01 X-25.2194 Y23.3073
G01 X-25.2270 Y23.3087
G01 X-25.2402 Y23.3140
G01 X-25.5191 Y23.4535
G01 X-25.5267 Y23.4576
G01 X-25.5345 Y23.4637
G01 X-25.5410 Y23.4712
G01 X-25.5465 Y23.4809
G01 X-25.6860 Y23.7598
G01 X-25.6906 Y23.7705
G01 X-25.6927 Y23.7806
G01 X-25.6930 Y23.7896
G01 X-25.6930 Y24.3533
G01 X-25.6923 Y24.3649
G01 X-25.6887 Y24.3772
G01 X-25.5465 Y24.6620
G01 X-25.5410 Y24.6716
G01 X-25.5345 Y24.6791
G01 X-25.5267 Y24.6852
G01 X-25.5191 Y24.6894
G01 X-25.2402 Y24.8289
G01 X-25.2295 Y24.8334
G01 X-25.2194 Y24.8355
G01 X-25.2104 Y24.8359
G01 X-24.9261 Y24.8357
G01 X-24.9140 Y24.8336
G01 X-24.9028 Y24.8287
G01 X-24.8932 Y24.8212
G01 X-24.8884 Y24.8156
G01 X-24.8844 Y24.8094
G01 X-24.8807 Y24.8003
G01 X-24.8786 Y24.7919
G01 X-24.6500 Y23.6485
G01 X-24.6428 Y23.6200
G01 X-24.6382 Y23.6060
G01 X-24.6269 Y23.5788
G01 X-24.6130 Y23.5529
G01 X-24.5966 Y23.5284
G01 X-24.5876 Y23.5168
G01 X-24.5678 Y23.4951
G01 X-24.5571 Y23.4849
G01 X-24.5344 Y23.4663
G01 X-24.5099 Y23.4499
G01 X-24.4840 Y23.4361
G01 X-24.4568 Y23.4248
G01 X-24.4428 Y23.4202
G01 X-24.4286 Y23.4163
G01 X-24.3998 Y23.4106
G01 X-24.3852 Y23.4088
G01 X-24.3558 Y23.4073
G01 X-24.1402 Y23.4076
G01 X-24.1125 Y23.4102
G01 X-24.0852 Y23.4153
G01 X-24.0584 Y23.4230
G01 X-24.0325 Y23.4331
G01 X-23.9126 Y23.4927
G01 X-23.8885 Y23.5061
G01 X-23.8658 Y23.5217
G01 X-23.8446 Y23.5393
G01 X-23.8251 Y23.5588
G01 X-23.8074 Y23.5800
G01 X-23.7994 Y23.5912
G01 X-23.7848 Y23.6147
G01 X-23.7188 Y23.7468
G01 X-23.7134 Y23.7596
G01 X-23.7046 Y23.7860
G01 X-23.6982 Y23.8131
G01 X-23.6943 Y23.8406
G01 X-23.6930 Y23.8684
G01 X-23.6934 Y24.2884
G01 X-23.6959 Y24.3161
G01 X-23.7011 Y24.3434
G01 X-23.7087 Y24.3701
G01 X-23.7188 Y24.3961
G00 Z1.0000
G00 X-23.6465 Y26.0213
G01 F76.20
G01 Z-0.1500
G01 F200.00
G01 X-25.6392 Y26.0213
G01 X-25.6478 Y26.0216
G01 X-25.6550 Y26.0228
G01 X-25.6620 Y26.0252
G01 X-25.6707 Y26.0298
G01 X-25.6765 Y26.0343
G01 X-25.6816 Y26.0397
G01 X-25.6858 Y26.0457
G01 X-25.6891 Y26.0523
G01 X-25.6914 Y26.0593
G01 X-25.6927 Y26.0665
G01 X-25.6929 Y26.0739
G01 X-25.6920 Y26.0812
G01 X-25.6900 Y26.0883
G01 X-25.6870 Y26.0950
G01 X-25.6708 Y26.1193
G01 X-25.6564 Y26.1448
G01 X-25.6444 Y26.1717
G01 X-25.6395 Y26.1855
G01 X-25.6316 Y26.2138
G01 X-25.6266 Y26.2427
G01 X-25.6244 Y26.2720
G01 X-25.6244 Y26.2867
G01 X-25.6265 Y26.3160
G01 X-25.6286 Y26.3305
G01 X-25.6314 Y26.3449
G01 X-25.6392 Y26.3733
G01 X-25.6497 Y26.4007
G01 X-25.6887 Y26.4799
G01 X-25.6913 Y26.4872
G01 X-25.6927 Y26.4948
G01 X-25.6927 Y26.9337
G01 X-25.6906 Y26.9438
G01 X-25.6860 Y26.9545
G01 X-25.5424 Y27.2410
G01 X-25.5379 Y27.2470
G01 X-25.5327 Y27.2522
G01 X-25.5267 Y27.2566
G01 X-25.5191 Y27.2608
G01 X-25.2402 Y27.4003
G01 X-25.2295 Y27.4048
G01 X-25.2194 Y27.4070
G01 X-23.6465 Y27.4073
G01 X-23.6379 Y27.4070
G01 X-23.6307 Y27.4057
G01 X-23.6214 Y27.4024
G01 X-23.6150 Y27.3988
G01 X-23.6092 Y27.3943
G01 X-23.6041 Y27.3889
G01 X-23.5999 Y27.3829
G01 X-23.5966 Y27.3763
G01 X-23.5943 Y27.3693
G01 X-23.5930 Y27.3621
G01 X-23.5928 Y27.3547
G01 X-23.5943 Y27.3450
G01 X-23.5966 Y27.3380
G01 X-23.5999 Y27.3314
G01 X-23.6041 Y27.3254
G01 X-23.6111 Y27.3184
G01 X-23.6171 Y27.3142
G01 X-23.6237 Y27.3109
G01 X-23.6331 Y27.3080
G01 X-23.6404 Y27.3071
G01 X-25.1316 Y27.3070
G01 X-25.1455 Y27.3066
G01 X-25.1732 Y27.3041
G01 X-25.1869 Y27.3018
G01 X-25.2140 Y27.2954
G01 X-25.2404 Y27.2866
G01 X-25.2532 Y27.2812
G01 X-25.3853 Y27.2152
G01 X-25.4088 Y27.2006
G01 X-25.4308 Y27.1840
G01 X-25.4511 Y27.1654
G01 X-25.4697 Y27.1450
G01 X-25.4863 Y27.1231
G01 X-25.5009 Y27.0996
G01 X-25.5610 Y26.9801
G01 X-25.5723 Y26.9546
G01 X-25.5811 Y26.9283
G01 X-25.5875 Y26.9012
G01 X-25.5914 Y26.8737
G01 X-25.5927 Y26.8459
G01 X-25.5924 Y26.5688
G01 X-25.5898 Y26.5411
G01 X-25.5875 Y26.5273
G01 X-25.5811 Y26.5003
G01 X-25.5723 Y26.4739
G01 X-25.5610 Y26.4485
G01 X-25.4805 Y26.2876
G01 X-25.4730 Y26.2734
G01 X-25.4556 Y26.2463
G01 X-25.4354 Y26.2213
G01 X-25.4242 Y26.2095
G01 X-25.4024 Y26.1897
G01 X-25.3788 Y26.1722
G01 X-25.3663 Y26.1643
G01 X-25.3404 Y26.1504
G01 X-25.3269 Y26.1444
G01 X-25.2992 Y26.1345
G01 X-25.2706 Y26.1274
G01 X-25.2415 Y26.1230
G01 X-25.2121 Y26.1216
G01 X-23.6379 Y26.1213
G01 X-23.6283 Y26.1194
G01 X-23.6192 Y26.1156
G01 X-23.6111 Y26.1101
G01 X-23.6041 Y26.1032
G01 X-23.5987 Y26.0950
G01 X-23.5949 Y26.0860
G01 X-23.5930 Y26.0763
G01 X-23.5930 Y26.0665
G01 X-23.5949 Y26.0569
G01 X-23.5987 Y26.0478
G01 X-23.6041 Y26.0397
G01 X-23.6111 Y26.0327
G01 X-23.6192 Y26.0273
G01 X-23.6283 Y26.0235
G01 X-23.6379 Y26.0216
G01 X-23.6465 Y26.0213
G00 Z1.0000
G00 X-26.5923 Y28.8788
G01 F76.20
G01 Z-0.1500
G01 F200.00
G01 X-26.5930 Y28.3522
G01 X-26.5949 Y28.3426
G01 X-26.5987 Y28.3335
G01 X-26.6041 Y28.3254
G01 X-26.6111 Y28.3184
G01 X-26.6192 Y28.3130
G01 X-26.6283 Y28.3092
G01 X-26.6379 Y28.3073
G01 X-26.6478 Y28.3073
G01 X-26.6574 Y28.3092
G01 X-26.6665 Y28.3130
G01 X-26.6746 Y28.3184
G01 X-26.6816 Y28.3254
G01 X-26.6870 Y28.3335
G01 X-26.6908 Y28.3426
G01 X-26.6927 Y28.3522
G01 X-26.6930 Y28.3608
G01 X-26.6929 Y30.0739
G01 X-26.6920 Y30.0812
G01 X-26.6891 Y30.0906
G01 X-26.6845 Y30.0993
G01 X-26.6800 Y30.1051
G01 X-26.6727 Y30.1117
G01 X-26.6665 Y30.1156
G01 X-26.6574 Y30.1194
G01 X-26.6478 Y30.1213
G01 X-26.6379 Y30.1213
G01 X-26.6283 Y30.1194
G01 X-26.6192 Y30.1156
G01 X-26.6111 Y30.1101
G01 X-26.6041 Y30.1032
G01 X-26.5987 Y30.0950
G01 X-26.5949 Y30.0860
G01 X-26.5930 Y30.0763
G01 X-26.5927 Y29.5645
G01 X-26.5923 Y29.5497
G01 X-26.5894 Y29.5204
G01 X-26.5837 Y29.4916
G01 X-26.5798 Y29.4774
G01 X-26.5751 Y29.4634
G01 X-26.5639 Y29.4362
G01 X-26.5500 Y29.4102
G01 X-26.5421 Y29.3978
G01 X-26.5246 Y29.3741
G01 X-26.5048 Y29.3523
G01 X-26.4830 Y29.3326
G01 X-26.4594 Y29.3150
G01 X-26.4469 Y29.3071
G01 X-26.4209 Y29.2933
G01 X-26.3937 Y29.2820
G01 X-26.3798 Y29.2774
G01 X-26.3656 Y29.2735
G01 X-26.3367 Y29.2677
G01 X-26.3074 Y29.2648
G01 X-26.2927 Y29.2645
G01 X-23.6465 Y29.2645
G01 X-23.6379 Y29.2641
G01 X-23.6283 Y29.2622
G01 X-23.6192 Y29.2585
G01 X-23.6111 Y29.2530
G01 X-23.6041 Y29.2461
G01 X-23.5987 Y29.2379
G01 X-23.5949 Y29.2288
G01 X-23.5930 Y29.2192
G01 X-23.5933 Y29.2069
G01 X-23.5957 Y29.1974
G01 X-23.5999 Y29.1885
G01 X-23.6074 Y29.1789
G01 X-23.6150 Y29.1726
G01 X-23.6260 Y29.1671
G01 X-23.6355 Y29.1647
G01 X-23.6465 Y29.1641
G01 X-26.2927 Y29.1641
G01 X-26.3221 Y29.1627
G01 X-26.3512 Y29.1583
G01 X-26.3798 Y29.1512
G01 X-26.3937 Y29.1466
G01 X-26.4209 Y29.1353
G01 X-26.4341 Y29.1287
G01 X-26.4594 Y29.1136
G01 X-26.4830 Y29.0960
G01 X-26.5048 Y29.0762
G01 X-26.5246 Y29.0544
G01 X-26.5421 Y29.0308
G01 X-26.5573 Y29.0055
G01 X-26.5639 Y28.9924
G01 X-26.5751 Y28.9652
G01 X-26.5837 Y28.9370
G01 X-26.5894 Y28.9081
G01 X-26.5923 Y28.8788
G00 Z1.0000
G00 X-24.7733 Y31.3231
G01 F76.20
G01 Z-0.1500
G01 F200.00
G01 X-24.9170 Y32.0418
G01 X-24.9254 Y32.0695
G01 X-24.9365 Y32.0963
G01 X-24.9500 Y32.1219
G01 X-24.9660 Y32.1461
G01 X-24.9843 Y32.1686
G01 X-25.0046 Y32.1893
G01 X-25.0269 Y32.2079
G01 X-25.0508 Y32.2243
G01 X-25.0633 Y32.2316
G01 X-25.0894 Y32.2443
G01 X-25.1165 Y32.2545
G01 X-25.1445 Y32.2620
G01 X-25.1731 Y32.2667
G01 X-25.2021 Y32.2687
G01 X-25.2311 Y32.2679
G01 X-25.2598 Y32.2643
G01 X-25.2881 Y32.2579
G01 X-25.3156 Y32.2488
G01 X-25.3422 Y32.2371
G01 X-25.3853 Y32.2152
G01 X-25.4088 Y32.2006
G01 X-25.4200 Y32.1926
G01 X-25.4412 Y32.1749
G01 X-25.4511 Y32.1654
G01 X-25.4697 Y32.1450
G01 X-25.4863 Y32.1231
G01 X-25.4939 Y32.1115
G01 X-25.5073 Y32.0874
G01 X-25.5610 Y31.9801
G01 X-25.5723 Y31.9546
G01 X-25.5811 Y31.9283
G01 X-25.5875 Y31.9012
G01 X-25.5898 Y31.8875
G01 X-25.5924 Y31.8598
G01 X-25.5927 Y31.4398
G01 X-25.5924 Y31.4259
G01 X-25.5898 Y31.3982
G01 X-25.5875 Y31.3845
G01 X-25.5811 Y31.3574
G01 X-25.5723 Y31.3311
G01 X-25.5669 Y31.3182
G01 X-25.5009 Y31.1861
G01 X-25.4939 Y31.1742
G01 X-25.4783 Y31.1515
G01 X-25.4607 Y31.1303
G01 X-25.4412 Y31.1108
G01 X-25.4200 Y31.0932
G01 X-25.3972 Y31.0776
G01 X-25.3732 Y31.0641
G01 X-25.2658 Y31.0104
G01 X-25.2404 Y30.9991
G01 X-25.2273 Y30.9944
G01 X-25.2005 Y30.9868
G01 X-25.1869 Y30.9839
G01 X-25.1594 Y30.9800
G01 X-25.1455 Y30.9791
G01 X-25.0553 Y30.9791
G01 X-25.0260 Y30.9820
G01 X-24.9971 Y30.9877
G01 X-24.9689 Y30.9963
G01 X-24.9417 Y31.0076
G01 X-24.9157 Y31.0215
G01 X-24.9032 Y31.0294
G01 X-24.8796 Y31.0469
G01 X-24.8578 Y31.0667
G01 X-24.8380 Y31.0886
G01 X-24.8205 Y31.1122
G01 X-24.8053 Y31.1375
G01 X-24.7928 Y31.1641
G01 X-24.7829 Y31.1919
G01 X-24.7757 Y31.2205
G01 X-24.7714 Y31.2496
G01 X-24.7700 Y31.2790
G01 X-24.7704 Y31.2938
G01 X-24.7733 Y31.3231
G00 Z1.0000
G00 X-23.7188 Y31.9675
G01 F76.20
G01 Z-0.1500
G01 F200.00
G01 X-23.8289 Y32.1886
G01 X-23.8340 Y32.2011
G01 X-23.8357 Y32.2107
G01 X-23.8354 Y32.2206
G01 X-23.8332 Y32.2301
G01 X-23.8292 Y32.2391
G01 X-23.8236 Y32.2471
G01 X-23.8164 Y32.2539
G01 X-23.8081 Y32.2591
G01 X-23.7989 Y32.2626
G01 X-23.7893 Y32.2642
G01 X-23.7819 Y32.2642
G01 X-23.7746 Y32.2631
G01 X-23.7676 Y32.2610
G01 X-23.7588 Y32.2565
G01 X-23.7529 Y32.2521
G01 X-23.7477 Y32.2469
G01 X-23.7433 Y32.2410
G01 X-23.5997 Y31.9545
G01 X-23.5960 Y31.9462
G01 X-23.5938 Y31.9388
G01 X-23.5927 Y31.9247
G01 X-23.5927 Y31.3610
G01 X-23.5938 Y31.3469
G01 X-23.5960 Y31.3395
G01 X-23.5997 Y31.3312
G01 X-23.7392 Y31.0523
G01 X-23.7434 Y31.0447
G01 X-23.7494 Y31.0369
G01 X-23.7569 Y31.0304
G01 X-23.7666 Y31.0249
G01 X-24.0455 Y30.8854
G01 X-24.0562 Y30.8809
G01 X-24.0663 Y30.8788
G01 X-24.0753 Y30.8784
G01 X-25.2104 Y30.8784
G01 X-25.2194 Y30.8788
G01 X-25.2270 Y30.8801
G01 X-25.2402 Y30.8854
G01 X-25.5191 Y31.0249
G01 X-25.5267 Y31.0291
G01 X-25.5345 Y31.0351
G01 X-25.5410 Y31.0426
G01 X-25.5465 Y31.0523
G01 X-25.6860 Y31.3312
G01 X-25.6906 Y31.3419
G01 X-25.6927 Y31.3520
G01 X-25.6930 Y31.3610
G01 X-25.6930 Y31.9247
G01 X-25.6923 Y31.9363
G01 X-25.6887 Y31.9486
G01 X-25.5465 Y32.2334
G01 X-25.5410 Y32.2431
G01 X-25.5345 Y32.2506
G01 X-25.5267 Y32.2566
G01 X-25.5191 Y32.2608
G01 X-25.2402 Y32.4003
G01 X-25.2295 Y32.4048
G01 X-25.2194 Y32.4070
G01 X-25.2104 Y32.4073
G01 X-24.9261 Y32.4072
G01 X-24.9140 Y32.4051
G01 X-24.9028 Y32.4001
G01 X-24.8932 Y32.3926
G01 X-24.8884 Y32.3870
G01 X-24.8844 Y32.3808
G01 X-24.8807 Y32.3717
G01 X-24.8786 Y32.3634
G01 X-24.6500 Y31.2199
G01 X-24.6428 Y31.1914
G01 X-24.6382 Y31.1774
G01 X-24.6269 Y31.1502
G01 X-24.6130 Y31.1243
G01 X-24.5966 Y31.0999
G01 X-24.5876 Y31.0883
G01 X-24.5678 Y31.0665
G01 X-24.5571 Y31.0563
G01 X-24.5344 Y31.0377
G01 X-24.5099 Y31.0214
G01 X-24.4840 Y31.0075
G01 X-24.4568 Y30.9963
G01 X-24.4428 Y30.9916
G01 X-24.4286 Y30.9877
G01 X-24.3998 Y30.9820
G01 X-24.3852 Y30.9802
G01 X-24.3558 Y30.9787
G01 X-24.1402 Y30.9791
G01 X-24.1125 Y30.9816
G01 X-24.0852 Y30.9868
G01 X-24.0584 Y30.9944
G01 X-24.0325 Y31.0045
G01 X-23.9126 Y31.0641
G01 X-23.8885 Y31.0776
G01 X-23.8658 Y31.0932
G01 X-23.8446 Y31.1108
G01 X-23.8251 Y31.1303
G01 X-23.8074 Y31.1515
G01 X-23.7918 Y31.1742
G01 X-23.7848 Y31.1861
G01 X-23.7188 Y31.3182
G01 X-23.7087 Y31.3441
G01 X-23.7011 Y31.3709
G01 X-23.6982 Y31.3845
G01 X-23.6943 Y31.4120
G01 X-23.6930 Y31.4398
G01 X-23.6934 Y31.8598
G01 X-23.6959 Y31.8875
G01 X-23.7011 Y31.9148
G01 X-23.7087 Y31.9416
G01 X-23.7188 Y31.9675
G00 Z1.0000
G00 X-23.7188 Y34.6818
G01 F76.20
G01 Z-0.1500
G01 F200.00
G01 X-23.8289 Y34.9028
G01 X-23.8340 Y34.9153
G01 X-23.8357 Y34.9250
G01 X-23.8354 Y34.9348
G01 X-23.8332 Y34.9444
G01 X-23.8292 Y34.9534
G01 X-23.8236 Y34.9614
G01 X-23.8164 Y34.9681
G01 X-23.8081 Y34.9734
G01 X-23.7989 Y34.9769
G01 X-23.7893 Y34.9785
G01 X-23.7819 Y34.9785
G01 X-23.7746 Y34.9774
G01 X-23.7676 Y34.9753
G01 X-23.7588 Y34.9708
G01 X-23.7529 Y34.9664
G01 X-23.7477 Y34.9612
G01 X-23.7433 Y34.9553
G01 X-23.5997 Y34.6688
G01 X-23.5960 Y34.6605
G01 X-23.5938 Y34.6531
G01 X-23.5927 Y34.6390
G01 X-23.5927 Y34.0753
G01 X-23.5934 Y34.0637
G01 X-23.5960 Y34.0538
G01 X-23.7393 Y33.7664
G01 X-23.7444 Y33.7574
G01 X-23.7527 Y33.7478
G01 X-23.8907 Y33.6098
G01 X-23.9002 Y33.6016
G01 X-23.9092 Y33.5964
G01 X-24.1884 Y33.4569
G01 X-24.1991 Y33.4523
G01 X-24.2091 Y33.4502
G01 X-24.2181 Y33.4498
G01 X-25.0676 Y33.4498
G01 X-25.0791 Y33.4505
G01 X-25.0891 Y33.4531
G01 X-25.3765 Y33.5964
G01 X-25.3855 Y33.6016
G01 X-25.3951 Y33.6098
G01 X-25.5330 Y33.7478
G01 X-25.5413 Y33.7574
G01 X-25.5464 Y33.7664
G01 X-25.6860 Y34.0455
G01 X-25.6906 Y34.0562
G01 X-25.6927 Y34.0663
G01 X-25.6930 Y34.0753
G01 X-25.6930 Y34.6390
G01 X-25.6919 Y34.6531
G01 X-25.6897 Y34.6605
G01 X-25.6860 Y34.6688
G01 X-25.5424 Y34.9553
G01 X-25.5364 Y34.9630
G01 X-25.5309 Y34.9680
G01 X-25.5248 Y34.9721
G01 X-25.5182 Y34.9753
G01 X-25.5111 Y34.9774
G01 X-25.5038 Y34.9785
G01 X-25.4964 Y34.9785
G01 X-25.4892 Y34.9775
G01 X-25.4798 Y34.9744
G01 X-25.4713 Y34.9696
G01 X-25.4622 Y34.9614
G01 X-25.4565 Y34.9534
G01 X-25.4525 Y34.9444
G01 X-25.4503 Y34.9348
G01 X-25.4500 Y34.9250
G01 X-25.4517 Y34.9153
G01 X-25.4568 Y34.9028
G01 X-25.5669 Y34.6818
G01 X-25.5723 Y34.6689
G01 X-25.5811 Y34.6426
G01 X-25.5875 Y34.6155
G01 X-25.5898 Y34.6018
G01 X-25.5924 Y34.5741
G01 X-25.5927 Y34.5602
G01 X-25.5924 Y34.1402
G01 X-25.5898 Y34.1125
G01 X-25.5847 Y34.0852
G01 X-25.5770 Y34.0584
G01 X-25.5669 Y34.0325
G01 X-25.4730 Y33.8448
G01 X-25.4556 Y33.8177
G01 X-25.4354 Y33.7927
G01 X-25.3502 Y33.7075
G01 X-25.3251 Y33.6873
G01 X-25.3118 Y33.6782
G01 X-25.2839 Y33.6623
G01 X-25.1103 Y33.5759
G01 X-25.0844 Y33.5658
G01 X-25.0711 Y33.5617
G01 X-25.0441 Y33.5553
G01 X-25.0165 Y33.5515
G01 X-24.9888 Y33.5502
G01 X-24.2970 Y33.5502
G01 X-24.2692 Y33.5515
G01 X-24.2416 Y33.5553
G01 X-24.2280 Y33.5582
G01 X-24.2013 Y33.5658
G01 X-24.1754 Y33.5759
G01 X-24.1628 Y33.5818
G01 X-23.9876 Y33.6699
G01 X-23.9606 Y33.6873
G01 X-23.9355 Y33.7075
G01 X-23.9239 Y33.7185
G01 X-23.8503 Y33.7927
G01 X-23.8301 Y33.8177
G01 X-23.8211 Y33.8310
G01 X-23.8052 Y33.8590
G01 X-23.7188 Y34.0325
G01 X-23.7087 Y34.0584
G01 X-23.7011 Y34.0852
G01 X-23.6982 Y34.0988
G01 X-23.6943 Y34.1263
G01 X-23.6930 Y34.1541
G01 X-23.6934 Y34.5741
G01 X-23.6959 Y34.6018
G01 X-23.7011 Y34.6291
G01 X-23.7087 Y34.6559
G01 X-23.7188 Y34.6818
G00 Z1.0000
G00 X-25.6917 Y36.6319
G01 F76.20
G01 Z-0.1500
G01 F200.00
G01 X-25.6930 Y36.6467
G01 X-25.6930 Y37.0676
G01 X-25.6919 Y37.0817
G01 X-25.6897 Y37.0891
G01 X-25.6860 Y37.0973
G01 X-25.5465 Y37.3763
G01 X-25.5424 Y37.3839
G01 X-25.5379 Y37.3898
G01 X-25.5327 Y37.3951
G01 X-25.5246 Y37.4008
G01 X-25.2343 Y37.5459
G01 X-25.2220 Y37.5495
G01 X-25.2104 Y37.5502
G01 X-23.6465 Y37.5502
G01 X-23.6379 Y37.5498
G01 X-23.6307 Y37.5486
G01 X-23.6237 Y37.5463
G01 X-23.6171 Y37.5430
G01 X-23.6111 Y37.5387
G01 X-23.6057 Y37.5336
G01 X-23.6012 Y37.5278
G01 X-23.5966 Y37.5192
G01 X-23.5933 Y37.5073
G01 X-23.5930 Y37.4951
G01 X-23.5957 Y37.4831
G01 X-23.6012 Y37.4722
G01 X-23.6092 Y37.4629
G01 X-23.6192 Y37.4558
G01 X-23.6307 Y37.4514
G01 X-23.6404 Y37.4500
G01 X-25.1316 Y37.4498
G01 X-25.1455 Y37.4495
G01 X-25.1732 Y37.4469
G01 X-25.1869 Y37.4447
G01 X-25.2140 Y37.4383
G01 X-25.2404 Y37.4294
G01 X-25.2532 Y37.4241
G01 X-25.3853 Y37.3580
G01 X-25.4088 Y37.3435
G01 X-25.4308 Y37.3268
G01 X-25.4511 Y37.3083
G01 X-25.4697 Y37.2879
G01 X-25.4863 Y37.2659
G01 X-25.5009 Y37.2425
G01 X-25.5610 Y37.1229
G01 X-25.5723 Y37.0975
G01 X-25.5811 Y37.0711
G01 X-25.5875 Y37.0441
G01 X-25.5914 Y37.0165
G01 X-25.5927 Y36.9888
G01 X-25.5924 Y36.7116
G01 X-25.5898 Y36.6839
G01 X-25.5847 Y36.6566
G01 X-25.5770 Y36.6299
G01 X-25.5723 Y36.6168
G01 X-25.5610 Y36.5914
G01 X-25.4805 Y36.4304
G01 X-25.4646 Y36.4025
G01 X-25.4556 Y36.3892
G01 X-25.4354 Y36.3641
G01 X-25.4242 Y36.3523
G01 X-25.4024 Y36.3326
G01 X-25.3788 Y36.3150
G01 X-25.3663 Y36.3071
G01 X-25.3404 Y36.2933
G01 X-25.3269 Y36.2873
G01 X-25.2992 Y36.2774
G01 X-25.2706 Y36.2702
G01 X-25.2415 Y36.2659
G01 X-25.2121 Y36.2645
G01 X-23.6404 Y36.2643
G01 X-23.6331 Y36.2634
G01 X-23.6260 Y36.2614
G01 X-23.6192 Y36.2585
G01 X-23.6111 Y36.2530
G01 X-23.6057 Y36.2479
G01 X-23.5999 Y36.2400
G01 X-23.5966 Y36.2335
G01 X-23.5937 Y36.2241
G01 X-23.5928 Y36.2167
G01 X-23.5933 Y36.2069
G01 X-23.5957 Y36.1974
G01 X-23.5987 Y36.1907
G01 X-23.6041 Y36.1825
G01 X-23.6092 Y36.1772
G01 X-23.6150 Y36.1726
G01 X-23.6237 Y36.1680
G01 X-23.6355 Y36.1647
G01 X-23.6465 Y36.1641
G01 X-26.6392 Y36.1641
G01 X-26.6478 Y36.1644
G01 X-26.6550 Y36.1657
G01 X-26.6620 Y36.1680
G01 X-26.6686 Y36.1713
G01 X-26.6765 Y36.1772
G01 X-26.6816 Y36.1825
G01 X-26.6858 Y36.1885
G01 X-26.6891 Y36.1951
G01 X-26.6920 Y36.2045
G01 X-26.6929 Y36.2167
G01 X-26.6908 Y36.2288
G01 X-26.6858 Y36.2400
G01 X-26.6783 Y36.2497
G01 X-26.6707 Y36.2559
G01 X-26.6597 Y36.2614
G01 X-26.6478 Y36.2641
G01 X-25.9690 Y36.2648
G01 X-25.9391 Y36.2678
G01 X-25.9097 Y36.2738
G01 X-25.8810 Y36.2827
G01 X-25.8670 Y36.2882
G01 X-25.8400 Y36.3013
G01 X-25.8144 Y36.3170
G01 X-25.8022 Y36.3258
G01 X-25.7793 Y36.3452
G01 X-25.7686 Y36.3557
G01 X-25.7488 Y36.3783
G01 X-25.7314 Y36.4027
G01 X-25.7165 Y36.4288
G01 X-25.7100 Y36.4424
G01 X-25.6992 Y36.4704
G01 X-25.6912 Y36.4993
G01 X-25.6861 Y36.5289
G01 X-25.6841 Y36.5589
G01 X-25.6842 Y36.5739
G01 X-25.6866 Y36.6039
G01 X-25.6917 Y36.6319
G00 Z1.0000
G00 X-8.4108 Y36.2355
G01 F76.20
G01 Z-0.1500
G01 F200.00
G01 X-9.1998 Y36.2355
G01 X-9.2292 Y36.2341
G01 X-9.2584 Y36.2298
G01 X-9.2727 Y36.2265
G01 X-9.3009 Y36.2180
G01 X-9.3281 Y36.2067
G01 X-9.3412 Y36.2001
G01 X-9.3665 Y36.1850
G01 X-9.3901 Y36.1674
G01 X-9.4120 Y36.1477
G01 X-9.4221 Y36.1370
G01 X-9.4408 Y36.1143
G01 X-9.4493 Y36.1022
G01 X-9.4644 Y36.0770
G01 X-9.4770 Y36.0503
G01 X-9.4823 Y36.0366
G01 X-9.4908 Y36.0084
G01 X-9.4966 Y35.9796
G01 X-9.4995 Y35.9503
G01 X-9.4998 Y35.9355
G01 X-9.5000 Y35.1404
G01 X-9.5009 Y35.1331
G01 X-9.5037 Y35.1237
G01 X-9.5084 Y35.1150
G01 X-9.5146 Y35.1074
G01 X-9.5222 Y35.1012
G01 X-9.5308 Y35.0966
G01 X-9.5402 Y35.0937
G01 X-9.5500 Y35.0928
G01 X-9.5598 Y35.0937
G01 X-9.5669 Y35.0957
G01 X-9.5757 Y35.0999
G01 X-9.5836 Y35.1057
G01 X-9.5902 Y35.1130
G01 X-9.5953 Y35.1214
G01 X-9.5986 Y35.1307
G01 X-9.6000 Y35.1404
G01 X-9.6002 Y35.9355
G01 X-9.6005 Y35.9503
G01 X-9.6034 Y35.9796
G01 X-9.6092 Y36.0084
G01 X-9.6177 Y36.0366
G01 X-9.6230 Y36.0503
G01 X-9.6356 Y36.0770
G01 X-9.6507 Y36.1022
G01 X-9.6592 Y36.1143
G01 X-9.6779 Y36.1370
G01 X-9.6880 Y36.1477
G01 X-9.7099 Y36.1674
G01 X-9.7335 Y36.1850
G01 X-9.7588 Y36.2001
G01 X-9.7719 Y36.2067
G01 X-9.7854 Y36.2127
G01 X-9.8131 Y36.2226
G01 X-9.8416 Y36.2298
G01 X-9.8562 Y36.2323
G01 X-9.8855 Y36.2352
G01 X-9.9002 Y36.2355
G01 X-10.6953 Y36.2357
G01 X-10.7026 Y36.2366
G01 X-10.7120 Y36.2394
G01 X-10.7207 Y36.2441
G01 X-10.7283 Y36.2503
G01 X-10.7345 Y36.2579
G01 X-10.7391 Y36.2665
G01 X-10.7420 Y36.2759
G01 X-10.7429 Y36.2857
G01 X-10.7420 Y36.2955
G01 X-10.7391 Y36.3049
G01 X-10.7345 Y36.3135
G01 X-10.7283 Y36.3211
G01 X-10.7207 Y36.3274
G01 X-10.7120 Y36.3320
G01 X-10.7026 Y36.3348
G01 X-10.6953 Y36.3357
G01 X-9.9002 Y36.3359
G01 X-9.8855 Y36.3363
G01 X-9.8562 Y36.3391
G01 X-9.8416 Y36.3417
G01 X-9.8131 Y36.3488
G01 X-9.7854 Y36.3587
G01 X-9.7719 Y36.3647
G01 X-9.7588 Y36.3713
G01 X-9.7335 Y36.3864
G01 X-9.7099 Y36.4040
G01 X-9.6880 Y36.4238
G01 X-9.6779 Y36.4344
G01 X-9.6592 Y36.4572
G01 X-9.6507 Y36.4692
G01 X-9.6356 Y36.4945
G01 X-9.6230 Y36.5211
G01 X-9.6177 Y36.5348
G01 X-9.6092 Y36.5630
G01 X-9.6034 Y36.5919
G01 X-9.6005 Y36.6212
G01 X-9.6002 Y36.6359
G01 X-9.6000 Y37.4310
G01 X-9.5991 Y37.4383
G01 X-9.5963 Y37.4477
G01 X-9.5916 Y37.4564
G01 X-9.5854 Y37.4640
G01 X-9.5778 Y37.4702
G01 X-9.5692 Y37.4748
G01 X-9.5598 Y37.4777
G01 X-9.5500 Y37.4787
G01 X-9.5402 Y37.4777
G01 X-9.5308 Y37.4748
G01 X-9.5222 Y37.4702
G01 X-9.5146 Y37.4640
G01 X-9.5084 Y37.4564
G01 X-9.5047 Y37.4500
G01 X-9.5014 Y37.4407
G01 X-9.5000 Y37.4310
G01 X-9.4998 Y36.6359
G01 X-9.4984 Y36.6065
G01 X-9.4941 Y36.5774
G01 X-9.4869 Y36.5488
G01 X-9.4770 Y36.5211
G01 X-9.4710 Y36.5076
G01 X-9.4571 Y36.4817
G01 X-9.4493 Y36.4692
G01 X-9.4408 Y36.4572
G01 X-9.4221 Y36.4344
G01 X-9.4013 Y36.4136
G01 X-9.3785 Y36.3949
G01 X-9.3541 Y36.3786
G01 X-9.3281 Y36.3647
G01 X-9.3009 Y36.3534
G01 X-9.2727 Y36.3449
G01 X-9.2584 Y36.3417
G01 X-9.2292 Y36.3373
G01 X-9.1998 Y36.3359
G01 X-8.4108 Y36.3359
G01 X-8.3974 Y36.3348
G01 X-8.3903 Y36.3329
G01 X-8.3814 Y36.3287
G01 X-8.3735 Y36.3228
G01 X-8.3669 Y36.3156
G01 X-8.3619 Y36.3071
G01 X-8.3586 Y36.2979
G01 X-8.3571 Y36.2882
G01 X-8.3576 Y36.2784
G01 X-8.3600 Y36.2688
G01 X-8.3642 Y36.2600
G01 X-8.3700 Y36.2521
G01 X-8.3754 Y36.2470
G01 X-8.3835 Y36.2415
G01 X-8.3926 Y36.2378
G01 X-8.4022 Y36.2359
G01 X-8.4108 Y36.2355
G00 Z1.0000
G00 X-8.3608 Y41.0355
G01 F76.20
G01 Z-0.1500
G01 F200.00
G01 X-10.6392 Y41.0355
G01 X-10.6502 Y41.0362
G01 X-10.6597 Y41.0386
G01 X-10.6686 Y41.0428
G01 X-10.6765 Y41.0486
G01 X-10.6831 Y41.0559
G01 X-10.6881 Y41.0643
G01 X-10.6914 Y41.0735
G01 X-10.6929 Y41.0857
G01 X-10.6920 Y41.0955
G01 X-10.6891 Y41.1049
G01 X-10.6845 Y41.1135
G01 X-10.6765 Y41.1228
G01 X-10.6686 Y41.1287
G01 X-10.6597 Y41.1329
G01 X-10.6502 Y41.1353
G01 X-10.6392 Y41.1359
G01 X-8.3547 Y41.1357
G01 X-8.3450 Y41.1343
G01 X-8.3357 Y41.1310
G01 X-8.3273 Y41.1259
G01 X-8.3200 Y41.1193
G01 X-8.3142 Y41.1115
G01 X-8.3100 Y41.1026
G01 X-8.3076 Y41.0931
G01 X-8.3071 Y41.0833
G01 X-8.3086 Y41.0735
G01 X-8.3119 Y41.0643
G01 X-8.3169 Y41.0559
G01 X-8.3235 Y41.0486
G01 X-8.3314 Y41.0428
G01 X-8.3403 Y41.0386
G01 X-8.3498 Y41.0362
G01 X-8.3608 Y41.0355
G00 Z1.0000
G00 X-26.6392 Y6.5502
G01 F76.20
G01 Z-0.1500
G01 F200.00
G01 X-23.6465 Y6.5502
G01 X-23.6355 Y6.5495
G01 X-23.6260 Y6.5472
G01 X-23.6171 Y6.5430
G01 X-23.6092 Y6.5371
G01 X-23.6026 Y6.5298
G01 X-23.5966 Y6.5192
G01 X-23.5937 Y6.5098
G01 X-23.5928 Y6.5000
G01 X-23.5943 Y6.4878
G01 X-23.5976 Y6.4786
G01 X-23.6026 Y6.4702
G01 X-23.6092 Y6.4629
G01 X-23.6171 Y6.4570
G01 X-23.6260 Y6.4528
G01 X-23.6355 Y6.4505
G01 X-23.6465 Y6.4498
G01 X-26.6453 Y6.4500
G01 X-26.6550 Y6.4514
G01 X-26.6643 Y6.4547
G01 X-26.6727 Y6.4598
G01 X-26.6800 Y6.4664
G01 X-26.6858 Y6.4743
G01 X-26.6900 Y6.4831
G01 X-26.6924 Y6.4927
G01 X-26.6929 Y6.5025
G01 X-26.6914 Y6.5122
G01 X-26.6881 Y6.5214
G01 X-26.6831 Y6.5298
G01 X-26.6765 Y6.5371
G01 X-26.6686 Y6.5430
G01 X-26.6597 Y6.5472
G01 X-26.6502 Y6.5495
G01 X-26.6392 Y6.5502
G00 Z1.0000
M05
G00 Z1.0000
G00 Z20.00
G00 X0.0 Y0.0

