(G-CODE GENERATED BY FLATCAM v8.99 - www.flatcam.org - Version Date: 2019/12/15)

(Name: text_conv_cnc_1)
(Type: G-code from Geometry)
(Units: MM)

(Created on Monday, 19 October 2020 at 23:01)

(TOOL DIAMETER: 0.1 mm)
(Feedrate: 150.0 mm/min)
(Feedrate_Z: 76.2 mm/min)
(Feedrate rapids 76.2 mm/min)

(Z_Cut: -0.2836 mm)
(DepthPerCut: 0.1 mm <=>3 passes)
(Z_Move: 1.0 mm)
(Z Toolchange: 20.0 mm)
(X,Y Toolchange: 0.0000, 0.0000 mm)
(Z Start: None mm)
(Z End: 20.0 mm)
(Steps per circle: 128)
(Preprocessor Geometry: default)

(X range:  -26.9930 ...   -8.0070  mm)
(Y range:    6.1498 ...   41.4359  mm)

(Spindle Speed: 12000 RPM)
G21
G90
G94




G01 F150.00
G00 Z1.0000

M03 S12000
G00 X-23.6429 Y7.5784
G01 F76.20
G01 Z-0.1000
G01 F150.00
G01 X-23.6085 Y7.5801
G01 X-23.5915 Y7.5822
G01 X-23.5578 Y7.5889
G01 X-23.5249 Y7.5989
G01 X-23.5089 Y7.6051
G01 X-23.4778 Y7.6197
G01 X-23.4628 Y7.6282
G01 X-23.4343 Y7.6473
G01 X-23.4077 Y7.6691
G01 X-23.3834 Y7.6934
G01 X-23.3722 Y7.7064
G01 X-23.3517 Y7.7340
G01 X-23.3425 Y7.7485
G01 X-23.3263 Y7.7789
G01 X-23.3132 Y7.8106
G01 X-23.3078 Y7.8269
G01 X-23.2994 Y7.8603
G01 X-23.2944 Y7.8942
G01 X-23.2931 Y7.9114
G01 X-23.2931 Y7.9458
G01 X-23.2944 Y7.9629
G01 X-23.2994 Y7.9969
G01 X-23.3078 Y8.0302
G01 X-23.3132 Y8.0465
G01 X-23.3193 Y8.0626
G01 X-23.3340 Y8.0936
G01 X-23.3517 Y8.1231
G01 X-23.3616 Y8.1372
G01 X-23.3834 Y8.1637
G01 X-23.3952 Y8.1762
G01 X-23.4207 Y8.1993
G01 X-23.4483 Y8.2197
G01 X-23.4778 Y8.2374
G01 X-23.5089 Y8.2521
G01 X-23.5249 Y8.2583
G01 X-23.5412 Y8.2637
G01 X-23.5745 Y8.2720
G01 X-23.6085 Y8.2771
G01 X-23.6257 Y8.2783
G01 X-25.2121 Y8.2787
G01 X-25.2927 Y8.4398
G01 X-25.2927 Y8.7030
G01 X-25.2390 Y8.8104
G01 X-25.1316 Y8.8641
G01 X-23.6429 Y8.8641
G01 X-23.6085 Y8.8658
G01 X-23.5745 Y8.8708
G01 X-23.5412 Y8.8792
G01 X-23.5089 Y8.8908
G01 X-23.4778 Y8.9055
G01 X-23.4628 Y8.9139
G01 X-23.4343 Y8.9330
G01 X-23.4077 Y8.9548
G01 X-23.3952 Y8.9667
G01 X-23.3722 Y8.9921
G01 X-23.3616 Y9.0057
G01 X-23.3425 Y9.0343
G01 X-23.3340 Y9.0492
G01 X-23.3193 Y9.0803
G01 X-23.3078 Y9.1126
G01 X-23.2994 Y9.1460
G01 X-23.2965 Y9.1629
G01 X-23.2931 Y9.1971
G01 X-23.2931 Y9.2315
G01 X-23.2944 Y9.2486
G01 X-23.2994 Y9.2826
G01 X-23.3032 Y9.2994
G01 X-23.3078 Y9.3159
G01 X-23.3193 Y9.3483
G01 X-23.3340 Y9.3794
G01 X-23.3517 Y9.4088
G01 X-23.3616 Y9.4229
G01 X-23.3834 Y9.4494
G01 X-23.4077 Y9.4737
G01 X-23.4207 Y9.4850
G01 X-23.4483 Y9.5054
G01 X-23.4778 Y9.5231
G01 X-23.4931 Y9.5308
G01 X-23.5249 Y9.5440
G01 X-23.5412 Y9.5494
G01 X-23.5745 Y9.5577
G01 X-23.6085 Y9.5628
G01 X-23.6257 Y9.5640
G01 X-25.2143 Y9.5645
G01 X-25.2503 Y9.5626
G01 X-25.2682 Y9.5603
G01 X-25.3035 Y9.5529
G01 X-25.3378 Y9.5419
G01 X-25.3546 Y9.5351
G01 X-25.6566 Y9.3846
G01 X-25.6868 Y9.3676
G01 X-25.7152 Y9.3477
G01 X-25.7414 Y9.3251
G01 X-25.7537 Y9.3128
G01 X-25.7763 Y9.2866
G01 X-25.7962 Y9.2582
G01 X-25.8132 Y9.2280
G01 X-25.9637 Y8.9260
G01 X-25.9764 Y8.8922
G01 X-25.9815 Y8.8749
G01 X-25.9889 Y8.8396
G01 X-25.9926 Y8.8037
G01 X-25.9930 Y8.3571
G01 X-25.9912 Y8.3211
G01 X-25.9856 Y8.2855
G01 X-25.9815 Y8.2679
G01 X-25.9705 Y8.2336
G01 X-25.9561 Y8.2005
G01 X-25.9243 Y8.1370
G01 X-25.9432 Y8.1086
G01 X-25.9594 Y8.0783
G01 X-25.9726 Y8.0465
G01 X-25.9825 Y8.0137
G01 X-25.9863 Y7.9969
G01 X-25.9913 Y7.9629
G01 X-25.9930 Y7.9286
G01 X-25.9913 Y7.8942
G01 X-25.9863 Y7.8603
G01 X-25.9780 Y7.8269
G01 X-25.9664 Y7.7946
G01 X-25.9517 Y7.7635
G01 X-25.9340 Y7.7340
G01 X-25.9135 Y7.7064
G01 X-25.8905 Y7.6810
G01 X-25.8650 Y7.6579
G01 X-25.8374 Y7.6374
G01 X-25.8079 Y7.6197
G01 X-25.7926 Y7.6120
G01 X-25.7608 Y7.5989
G01 X-25.7445 Y7.5935
G01 X-25.7112 Y7.5851
G01 X-25.6772 Y7.5801
G01 X-25.6600 Y7.5788
G01 X-23.6429 Y7.5784
G00 X-23.6429 Y7.5784
G01 F76.20
G01 Z-0.2000
G01 F150.00
G01 X-23.6085 Y7.5801
G01 X-23.5915 Y7.5822
G01 X-23.5578 Y7.5889
G01 X-23.5249 Y7.5989
G01 X-23.5089 Y7.6051
G01 X-23.4778 Y7.6197
G01 X-23.4628 Y7.6282
G01 X-23.4343 Y7.6473
G01 X-23.4077 Y7.6691
G01 X-23.3834 Y7.6934
G01 X-23.3722 Y7.7064
G01 X-23.3517 Y7.7340
G01 X-23.3425 Y7.7485
G01 X-23.3263 Y7.7789
G01 X-23.3132 Y7.8106
G01 X-23.3078 Y7.8269
G01 X-23.2994 Y7.8603
G01 X-23.2944 Y7.8942
G01 X-23.2931 Y7.9114
G01 X-23.2931 Y7.9458
G01 X-23.2944 Y7.9629
G01 X-23.2994 Y7.9969
G01 X-23.3078 Y8.0302
G01 X-23.3132 Y8.0465
G01 X-23.3193 Y8.0626
G01 X-23.3340 Y8.0936
G01 X-23.3517 Y8.1231
G01 X-23.3616 Y8.1372
G01 X-23.3834 Y8.1637
G01 X-23.3952 Y8.1762
G01 X-23.4207 Y8.1993
G01 X-23.4483 Y8.2197
G01 X-23.4778 Y8.2374
G01 X-23.5089 Y8.2521
G01 X-23.5249 Y8.2583
G01 X-23.5412 Y8.2637
G01 X-23.5745 Y8.2720
G01 X-23.6085 Y8.2771
G01 X-23.6257 Y8.2783
G01 X-25.2121 Y8.2787
G01 X-25.2927 Y8.4398
G01 X-25.2927 Y8.7030
G01 X-25.2390 Y8.8104
G01 X-25.1316 Y8.8641
G01 X-23.6429 Y8.8641
G01 X-23.6085 Y8.8658
G01 X-23.5745 Y8.8708
G01 X-23.5412 Y8.8792
G01 X-23.5089 Y8.8908
G01 X-23.4778 Y8.9055
G01 X-23.4628 Y8.9139
G01 X-23.4343 Y8.9330
G01 X-23.4077 Y8.9548
G01 X-23.3952 Y8.9667
G01 X-23.3722 Y8.9921
G01 X-23.3616 Y9.0057
G01 X-23.3425 Y9.0343
G01 X-23.3340 Y9.0492
G01 X-23.3193 Y9.0803
G01 X-23.3078 Y9.1126
G01 X-23.2994 Y9.1460
G01 X-23.2965 Y9.1629
G01 X-23.2931 Y9.1971
G01 X-23.2931 Y9.2315
G01 X-23.2944 Y9.2486
G01 X-23.2994 Y9.2826
G01 X-23.3032 Y9.2994
G01 X-23.3078 Y9.3159
G01 X-23.3193 Y9.3483
G01 X-23.3340 Y9.3794
G01 X-23.3517 Y9.4088
G01 X-23.3616 Y9.4229
G01 X-23.3834 Y9.4494
G01 X-23.4077 Y9.4737
G01 X-23.4207 Y9.4850
G01 X-23.4483 Y9.5054
G01 X-23.4778 Y9.5231
G01 X-23.4931 Y9.5308
G01 X-23.5249 Y9.5440
G01 X-23.5412 Y9.5494
G01 X-23.5745 Y9.5577
G01 X-23.6085 Y9.5628
G01 X-23.6257 Y9.5640
G01 X-25.2143 Y9.5645
G01 X-25.2503 Y9.5626
G01 X-25.2682 Y9.5603
G01 X-25.3035 Y9.5529
G01 X-25.3378 Y9.5419
G01 X-25.3546 Y9.5351
G01 X-25.6566 Y9.3846
G01 X-25.6868 Y9.3676
G01 X-25.7152 Y9.3477
G01 X-25.7414 Y9.3251
G01 X-25.7537 Y9.3128
G01 X-25.7763 Y9.2866
G01 X-25.7962 Y9.2582
G01 X-25.8132 Y9.2280
G01 X-25.9637 Y8.9260
G01 X-25.9764 Y8.8922
G01 X-25.9815 Y8.8749
G01 X-25.9889 Y8.8396
G01 X-25.9926 Y8.8037
G01 X-25.9930 Y8.3571
G01 X-25.9912 Y8.3211
G01 X-25.9856 Y8.2855
G01 X-25.9815 Y8.2679
G01 X-25.9705 Y8.2336
G01 X-25.9561 Y8.2005
G01 X-25.9243 Y8.1370
G01 X-25.9432 Y8.1086
G01 X-25.9594 Y8.0783
G01 X-25.9726 Y8.0465
G01 X-25.9825 Y8.0137
G01 X-25.9863 Y7.9969
G01 X-25.9913 Y7.9629
G01 X-25.9930 Y7.9286
G01 X-25.9913 Y7.8942
G01 X-25.9863 Y7.8603
G01 X-25.9780 Y7.8269
G01 X-25.9664 Y7.7946
G01 X-25.9517 Y7.7635
G01 X-25.9340 Y7.7340
G01 X-25.9135 Y7.7064
G01 X-25.8905 Y7.6810
G01 X-25.8650 Y7.6579
G01 X-25.8374 Y7.6374
G01 X-25.8079 Y7.6197
G01 X-25.7926 Y7.6120
G01 X-25.7608 Y7.5989
G01 X-25.7445 Y7.5935
G01 X-25.7112 Y7.5851
G01 X-25.6772 Y7.5801
G01 X-25.6600 Y7.5788
G01 X-23.6429 Y7.5784
G00 X-23.6429 Y7.5784
G01 F76.20
G01 Z-0.2836
G01 F150.00
G01 X-23.6085 Y7.5801
G01 X-23.5915 Y7.5822
G01 X-23.5578 Y7.5889
G01 X-23.5249 Y7.5989
G01 X-23.5089 Y7.6051
G01 X-23.4778 Y7.6197
G01 X-23.4628 Y7.6282
G01 X-23.4343 Y7.6473
G01 X-23.4077 Y7.6691
G01 X-23.3834 Y7.6934
G01 X-23.3722 Y7.7064
G01 X-23.3517 Y7.7340
G01 X-23.3425 Y7.7485
G01 X-23.3263 Y7.7789
G01 X-23.3132 Y7.8106
G01 X-23.3078 Y7.8269
G01 X-23.2994 Y7.8603
G01 X-23.2944 Y7.8942
G01 X-23.2931 Y7.9114
G01 X-23.2931 Y7.9458
G01 X-23.2944 Y7.9629
G01 X-23.2994 Y7.9969
G01 X-23.3078 Y8.0302
G01 X-23.3132 Y8.0465
G01 X-23.3193 Y8.0626
G01 X-23.3340 Y8.0936
G01 X-23.3517 Y8.1231
G01 X-23.3616 Y8.1372
G01 X-23.3834 Y8.1637
G01 X-23.3952 Y8.1762
G01 X-23.4207 Y8.1993
G01 X-23.4483 Y8.2197
G01 X-23.4778 Y8.2374
G01 X-23.5089 Y8.2521
G01 X-23.5249 Y8.2583
G01 X-23.5412 Y8.2637
G01 X-23.5745 Y8.2720
G01 X-23.6085 Y8.2771
G01 X-23.6257 Y8.2783
G01 X-25.2121 Y8.2787
G01 X-25.2927 Y8.4398
G01 X-25.2927 Y8.7030
G01 X-25.2390 Y8.8104
G01 X-25.1316 Y8.8641
G01 X-23.6429 Y8.8641
G01 X-23.6085 Y8.8658
G01 X-23.5745 Y8.8708
G01 X-23.5412 Y8.8792
G01 X-23.5089 Y8.8908
G01 X-23.4778 Y8.9055
G01 X-23.4628 Y8.9139
G01 X-23.4343 Y8.9330
G01 X-23.4077 Y8.9548
G01 X-23.3952 Y8.9667
G01 X-23.3722 Y8.9921
G01 X-23.3616 Y9.0057
G01 X-23.3425 Y9.0343
G01 X-23.3340 Y9.0492
G01 X-23.3193 Y9.0803
G01 X-23.3078 Y9.1126
G01 X-23.2994 Y9.1460
G01 X-23.2965 Y9.1629
G01 X-23.2931 Y9.1971
G01 X-23.2931 Y9.2315
G01 X-23.2944 Y9.2486
G01 X-23.2994 Y9.2826
G01 X-23.3032 Y9.2994
G01 X-23.3078 Y9.3159
G01 X-23.3193 Y9.3483
G01 X-23.3340 Y9.3794
G01 X-23.3517 Y9.4088
G01 X-23.3616 Y9.4229
G01 X-23.3834 Y9.4494
G01 X-23.4077 Y9.4737
G01 X-23.4207 Y9.4850
G01 X-23.4483 Y9.5054
G01 X-23.4778 Y9.5231
G01 X-23.4931 Y9.5308
G01 X-23.5249 Y9.5440
G01 X-23.5412 Y9.5494
G01 X-23.5745 Y9.5577
G01 X-23.6085 Y9.5628
G01 X-23.6257 Y9.5640
G01 X-25.2143 Y9.5645
G01 X-25.2503 Y9.5626
G01 X-25.2682 Y9.5603
G01 X-25.3035 Y9.5529
G01 X-25.3378 Y9.5419
G01 X-25.3546 Y9.5351
G01 X-25.6566 Y9.3846
G01 X-25.6868 Y9.3676
G01 X-25.7152 Y9.3477
G01 X-25.7414 Y9.3251
G01 X-25.7537 Y9.3128
G01 X-25.7763 Y9.2866
G01 X-25.7962 Y9.2582
G01 X-25.8132 Y9.2280
G01 X-25.9637 Y8.9260
G01 X-25.9764 Y8.8922
G01 X-25.9815 Y8.8749
G01 X-25.9889 Y8.8396
G01 X-25.9926 Y8.8037
G01 X-25.9930 Y8.3571
G01 X-25.9912 Y8.3211
G01 X-25.9856 Y8.2855
G01 X-25.9815 Y8.2679
G01 X-25.9705 Y8.2336
G01 X-25.9561 Y8.2005
G01 X-25.9243 Y8.1370
G01 X-25.9432 Y8.1086
G01 X-25.9594 Y8.0783
G01 X-25.9726 Y8.0465
G01 X-25.9825 Y8.0137
G01 X-25.9863 Y7.9969
G01 X-25.9913 Y7.9629
G01 X-25.9930 Y7.9286
G01 X-25.9913 Y7.8942
G01 X-25.9863 Y7.8603
G01 X-25.9780 Y7.8269
G01 X-25.9664 Y7.7946
G01 X-25.9517 Y7.7635
G01 X-25.9340 Y7.7340
G01 X-25.9135 Y7.7064
G01 X-25.8905 Y7.6810
G01 X-25.8650 Y7.6579
G01 X-25.8374 Y7.6374
G01 X-25.8079 Y7.6197
G01 X-25.7926 Y7.6120
G01 X-25.7608 Y7.5989
G01 X-25.7445 Y7.5935
G01 X-25.7112 Y7.5851
G01 X-25.6772 Y7.5801
G01 X-25.6600 Y7.5788
G01 X-23.6429 Y7.5784
G00 Z1.0000
G00 X-23.6429 Y10.2927
G01 F76.20
G01 Z-0.1000
G01 F150.00
G01 X-23.6085 Y10.2944
G01 X-23.5915 Y10.2965
G01 X-23.5578 Y10.3032
G01 X-23.5249 Y10.3132
G01 X-23.5089 Y10.3193
G01 X-23.4778 Y10.3340
G01 X-23.4483 Y10.3517
G01 X-23.4343 Y10.3616
G01 X-23.4077 Y10.3834
G01 X-23.3952 Y10.3952
G01 X-23.3722 Y10.4207
G01 X-23.3616 Y10.4343
G01 X-23.3425 Y10.4628
G01 X-23.3340 Y10.4778
G01 X-23.3193 Y10.5089
G01 X-23.3078 Y10.5412
G01 X-23.3032 Y10.5578
G01 X-23.2965 Y10.5915
G01 X-23.2931 Y10.6257
G01 X-23.2931 Y10.6600
G01 X-23.2944 Y10.6772
G01 X-23.2994 Y10.7112
G01 X-23.3078 Y10.7445
G01 X-23.3132 Y10.7608
G01 X-23.3263 Y10.7926
G01 X-23.3425 Y10.8229
G01 X-23.3517 Y10.8374
G01 X-23.3722 Y10.8650
G01 X-23.3834 Y10.8780
G01 X-23.4077 Y10.9023
G01 X-23.4207 Y10.9135
G01 X-23.4483 Y10.9340
G01 X-23.4778 Y10.9517
G01 X-23.5089 Y10.9664
G01 X-23.5249 Y10.9726
G01 X-23.5578 Y10.9825
G01 X-23.5745 Y10.9863
G01 X-23.6085 Y10.9913
G01 X-23.6257 Y10.9926
G01 X-25.2121 Y10.9930
G01 X-25.2927 Y11.1541
G01 X-25.2927 Y11.4173
G01 X-25.2390 Y11.5247
G01 X-25.1316 Y11.5784
G01 X-23.6429 Y11.5784
G01 X-23.6085 Y11.5801
G01 X-23.5745 Y11.5851
G01 X-23.5412 Y11.5935
G01 X-23.5089 Y11.6051
G01 X-23.4778 Y11.6197
G01 X-23.4628 Y11.6282
G01 X-23.4343 Y11.6473
G01 X-23.4077 Y11.6691
G01 X-23.3952 Y11.6810
G01 X-23.3722 Y11.7064
G01 X-23.3616 Y11.7200
G01 X-23.3425 Y11.7485
G01 X-23.3340 Y11.7635
G01 X-23.3193 Y11.7946
G01 X-23.3078 Y11.8269
G01 X-23.2994 Y11.8603
G01 X-23.2965 Y11.8772
G01 X-23.2931 Y11.9114
G01 X-23.2931 Y11.9458
G01 X-23.2944 Y11.9629
G01 X-23.2994 Y11.9969
G01 X-23.3032 Y12.0137
G01 X-23.3078 Y12.0302
G01 X-23.3193 Y12.0626
G01 X-23.3340 Y12.0936
G01 X-23.3517 Y12.1231
G01 X-23.3616 Y12.1372
G01 X-23.3834 Y12.1637
G01 X-23.4077 Y12.1880
G01 X-23.4207 Y12.1993
G01 X-23.4483 Y12.2197
G01 X-23.4778 Y12.2374
G01 X-23.4931 Y12.2451
G01 X-23.5249 Y12.2583
G01 X-23.5412 Y12.2637
G01 X-23.5745 Y12.2720
G01 X-23.6085 Y12.2771
G01 X-23.6257 Y12.2783
G01 X-25.2143 Y12.2787
G01 X-25.2503 Y12.2769
G01 X-25.2682 Y12.2746
G01 X-25.3035 Y12.2672
G01 X-25.3378 Y12.2562
G01 X-25.3546 Y12.2494
G01 X-25.6566 Y12.0989
G01 X-25.6868 Y12.0819
G01 X-25.7152 Y12.0620
G01 X-25.7414 Y12.0394
G01 X-25.7537 Y12.0271
G01 X-25.7763 Y12.0009
G01 X-25.7962 Y11.9725
G01 X-25.8132 Y11.9423
G01 X-25.9637 Y11.6403
G01 X-25.9705 Y11.6236
G01 X-25.9815 Y11.5892
G01 X-25.9889 Y11.5539
G01 X-25.9926 Y11.5180
G01 X-25.9930 Y11.0714
G01 X-25.9912 Y11.0354
G01 X-25.9856 Y10.9998
G01 X-25.9815 Y10.9822
G01 X-25.9705 Y10.9479
G01 X-25.9561 Y10.9148
G01 X-25.9243 Y10.8512
G01 X-25.9432 Y10.8229
G01 X-25.9594 Y10.7926
G01 X-25.9726 Y10.7608
G01 X-25.9825 Y10.7279
G01 X-25.9863 Y10.7112
G01 X-25.9913 Y10.6772
G01 X-25.9930 Y10.6429
G01 X-25.9913 Y10.6085
G01 X-25.9863 Y10.5745
G01 X-25.9780 Y10.5412
G01 X-25.9664 Y10.5089
G01 X-25.9517 Y10.4778
G01 X-25.9340 Y10.4483
G01 X-25.9135 Y10.4207
G01 X-25.8905 Y10.3952
G01 X-25.8650 Y10.3722
G01 X-25.8374 Y10.3517
G01 X-25.8079 Y10.3340
G01 X-25.7926 Y10.3263
G01 X-25.7608 Y10.3132
G01 X-25.7445 Y10.3078
G01 X-25.7112 Y10.2994
G01 X-25.6772 Y10.2944
G01 X-25.6600 Y10.2931
G01 X-23.6429 Y10.2927
G00 X-23.6429 Y10.2927
G01 F76.20
G01 Z-0.2000
G01 F150.00
G01 X-23.6085 Y10.2944
G01 X-23.5915 Y10.2965
G01 X-23.5578 Y10.3032
G01 X-23.5249 Y10.3132
G01 X-23.5089 Y10.3193
G01 X-23.4778 Y10.3340
G01 X-23.4483 Y10.3517
G01 X-23.4343 Y10.3616
G01 X-23.4077 Y10.3834
G01 X-23.3952 Y10.3952
G01 X-23.3722 Y10.4207
G01 X-23.3616 Y10.4343
G01 X-23.3425 Y10.4628
G01 X-23.3340 Y10.4778
G01 X-23.3193 Y10.5089
G01 X-23.3078 Y10.5412
G01 X-23.3032 Y10.5578
G01 X-23.2965 Y10.5915
G01 X-23.2931 Y10.6257
G01 X-23.2931 Y10.6600
G01 X-23.2944 Y10.6772
G01 X-23.2994 Y10.7112
G01 X-23.3078 Y10.7445
G01 X-23.3132 Y10.7608
G01 X-23.3263 Y10.7926
G01 X-23.3425 Y10.8229
G01 X-23.3517 Y10.8374
G01 X-23.3722 Y10.8650
G01 X-23.3834 Y10.8780
G01 X-23.4077 Y10.9023
G01 X-23.4207 Y10.9135
G01 X-23.4483 Y10.9340
G01 X-23.4778 Y10.9517
G01 X-23.5089 Y10.9664
G01 X-23.5249 Y10.9726
G01 X-23.5578 Y10.9825
G01 X-23.5745 Y10.9863
G01 X-23.6085 Y10.9913
G01 X-23.6257 Y10.9926
G01 X-25.2121 Y10.9930
G01 X-25.2927 Y11.1541
G01 X-25.2927 Y11.4173
G01 X-25.2390 Y11.5247
G01 X-25.1316 Y11.5784
G01 X-23.6429 Y11.5784
G01 X-23.6085 Y11.5801
G01 X-23.5745 Y11.5851
G01 X-23.5412 Y11.5935
G01 X-23.5089 Y11.6051
G01 X-23.4778 Y11.6197
G01 X-23.4628 Y11.6282
G01 X-23.4343 Y11.6473
G01 X-23.4077 Y11.6691
G01 X-23.3952 Y11.6810
G01 X-23.3722 Y11.7064
G01 X-23.3616 Y11.7200
G01 X-23.3425 Y11.7485
G01 X-23.3340 Y11.7635
G01 X-23.3193 Y11.7946
G01 X-23.3078 Y11.8269
G01 X-23.2994 Y11.8603
G01 X-23.2965 Y11.8772
G01 X-23.2931 Y11.9114
G01 X-23.2931 Y11.9458
G01 X-23.2944 Y11.9629
G01 X-23.2994 Y11.9969
G01 X-23.3032 Y12.0137
G01 X-23.3078 Y12.0302
G01 X-23.3193 Y12.0626
G01 X-23.3340 Y12.0936
G01 X-23.3517 Y12.1231
G01 X-23.3616 Y12.1372
G01 X-23.3834 Y12.1637
G01 X-23.4077 Y12.1880
G01 X-23.4207 Y12.1993
G01 X-23.4483 Y12.2197
G01 X-23.4778 Y12.2374
G01 X-23.4931 Y12.2451
G01 X-23.5249 Y12.2583
G01 X-23.5412 Y12.2637
G01 X-23.5745 Y12.2720
G01 X-23.6085 Y12.2771
G01 X-23.6257 Y12.2783
G01 X-25.2143 Y12.2787
G01 X-25.2503 Y12.2769
G01 X-25.2682 Y12.2746
G01 X-25.3035 Y12.2672
G01 X-25.3378 Y12.2562
G01 X-25.3546 Y12.2494
G01 X-25.6566 Y12.0989
G01 X-25.6868 Y12.0819
G01 X-25.7152 Y12.0620
G01 X-25.7414 Y12.0394
G01 X-25.7537 Y12.0271
G01 X-25.7763 Y12.0009
G01 X-25.7962 Y11.9725
G01 X-25.8132 Y11.9423
G01 X-25.9637 Y11.6403
G01 X-25.9705 Y11.6236
G01 X-25.9815 Y11.5892
G01 X-25.9889 Y11.5539
G01 X-25.9926 Y11.5180
G01 X-25.9930 Y11.0714
G01 X-25.9912 Y11.0354
G01 X-25.9856 Y10.9998
G01 X-25.9815 Y10.9822
G01 X-25.9705 Y10.9479
G01 X-25.9561 Y10.9148
G01 X-25.9243 Y10.8512
G01 X-25.9432 Y10.8229
G01 X-25.9594 Y10.7926
G01 X-25.9726 Y10.7608
G01 X-25.9825 Y10.7279
G01 X-25.9863 Y10.7112
G01 X-25.9913 Y10.6772
G01 X-25.9930 Y10.6429
G01 X-25.9913 Y10.6085
G01 X-25.9863 Y10.5745
G01 X-25.9780 Y10.5412
G01 X-25.9664 Y10.5089
G01 X-25.9517 Y10.4778
G01 X-25.9340 Y10.4483
G01 X-25.9135 Y10.4207
G01 X-25.8905 Y10.3952
G01 X-25.8650 Y10.3722
G01 X-25.8374 Y10.3517
G01 X-25.8079 Y10.3340
G01 X-25.7926 Y10.3263
G01 X-25.7608 Y10.3132
G01 X-25.7445 Y10.3078
G01 X-25.7112 Y10.2994
G01 X-25.6772 Y10.2944
G01 X-25.6600 Y10.2931
G01 X-23.6429 Y10.2927
G00 X-23.6429 Y10.2927
G01 F76.20
G01 Z-0.2836
G01 F150.00
G01 X-23.6085 Y10.2944
G01 X-23.5915 Y10.2965
G01 X-23.5578 Y10.3032
G01 X-23.5249 Y10.3132
G01 X-23.5089 Y10.3193
G01 X-23.4778 Y10.3340
G01 X-23.4483 Y10.3517
G01 X-23.4343 Y10.3616
G01 X-23.4077 Y10.3834
G01 X-23.3952 Y10.3952
G01 X-23.3722 Y10.4207
G01 X-23.3616 Y10.4343
G01 X-23.3425 Y10.4628
G01 X-23.3340 Y10.4778
G01 X-23.3193 Y10.5089
G01 X-23.3078 Y10.5412
G01 X-23.3032 Y10.5578
G01 X-23.2965 Y10.5915
G01 X-23.2931 Y10.6257
G01 X-23.2931 Y10.6600
G01 X-23.2944 Y10.6772
G01 X-23.2994 Y10.7112
G01 X-23.3078 Y10.7445
G01 X-23.3132 Y10.7608
G01 X-23.3263 Y10.7926
G01 X-23.3425 Y10.8229
G01 X-23.3517 Y10.8374
G01 X-23.3722 Y10.8650
G01 X-23.3834 Y10.8780
G01 X-23.4077 Y10.9023
G01 X-23.4207 Y10.9135
G01 X-23.4483 Y10.9340
G01 X-23.4778 Y10.9517
G01 X-23.5089 Y10.9664
G01 X-23.5249 Y10.9726
G01 X-23.5578 Y10.9825
G01 X-23.5745 Y10.9863
G01 X-23.6085 Y10.9913
G01 X-23.6257 Y10.9926
G01 X-25.2121 Y10.9930
G01 X-25.2927 Y11.1541
G01 X-25.2927 Y11.4173
G01 X-25.2390 Y11.5247
G01 X-25.1316 Y11.5784
G01 X-23.6429 Y11.5784
G01 X-23.6085 Y11.5801
G01 X-23.5745 Y11.5851
G01 X-23.5412 Y11.5935
G01 X-23.5089 Y11.6051
G01 X-23.4778 Y11.6197
G01 X-23.4628 Y11.6282
G01 X-23.4343 Y11.6473
G01 X-23.4077 Y11.6691
G01 X-23.3952 Y11.6810
G01 X-23.3722 Y11.7064
G01 X-23.3616 Y11.7200
G01 X-23.3425 Y11.7485
G01 X-23.3340 Y11.7635
G01 X-23.3193 Y11.7946
G01 X-23.3078 Y11.8269
G01 X-23.2994 Y11.8603
G01 X-23.2965 Y11.8772
G01 X-23.2931 Y11.9114
G01 X-23.2931 Y11.9458
G01 X-23.2944 Y11.9629
G01 X-23.2994 Y11.9969
G01 X-23.3032 Y12.0137
G01 X-23.3078 Y12.0302
G01 X-23.3193 Y12.0626
G01 X-23.3340 Y12.0936
G01 X-23.3517 Y12.1231
G01 X-23.3616 Y12.1372
G01 X-23.3834 Y12.1637
G01 X-23.4077 Y12.1880
G01 X-23.4207 Y12.1993
G01 X-23.4483 Y12.2197
G01 X-23.4778 Y12.2374
G01 X-23.4931 Y12.2451
G01 X-23.5249 Y12.2583
G01 X-23.5412 Y12.2637
G01 X-23.5745 Y12.2720
G01 X-23.6085 Y12.2771
G01 X-23.6257 Y12.2783
G01 X-25.2143 Y12.2787
G01 X-25.2503 Y12.2769
G01 X-25.2682 Y12.2746
G01 X-25.3035 Y12.2672
G01 X-25.3378 Y12.2562
G01 X-25.3546 Y12.2494
G01 X-25.6566 Y12.0989
G01 X-25.6868 Y12.0819
G01 X-25.7152 Y12.0620
G01 X-25.7414 Y12.0394
G01 X-25.7537 Y12.0271
G01 X-25.7763 Y12.0009
G01 X-25.7962 Y11.9725
G01 X-25.8132 Y11.9423
G01 X-25.9637 Y11.6403
G01 X-25.9705 Y11.6236
G01 X-25.9815 Y11.5892
G01 X-25.9889 Y11.5539
G01 X-25.9926 Y11.5180
G01 X-25.9930 Y11.0714
G01 X-25.9912 Y11.0354
G01 X-25.9856 Y10.9998
G01 X-25.9815 Y10.9822
G01 X-25.9705 Y10.9479
G01 X-25.9561 Y10.9148
G01 X-25.9243 Y10.8512
G01 X-25.9432 Y10.8229
G01 X-25.9594 Y10.7926
G01 X-25.9726 Y10.7608
G01 X-25.9825 Y10.7279
G01 X-25.9863 Y10.7112
G01 X-25.9913 Y10.6772
G01 X-25.9930 Y10.6429
G01 X-25.9913 Y10.6085
G01 X-25.9863 Y10.5745
G01 X-25.9780 Y10.5412
G01 X-25.9664 Y10.5089
G01 X-25.9517 Y10.4778
G01 X-25.9340 Y10.4483
G01 X-25.9135 Y10.4207
G01 X-25.8905 Y10.3952
G01 X-25.8650 Y10.3722
G01 X-25.8374 Y10.3517
G01 X-25.8079 Y10.3340
G01 X-25.7926 Y10.3263
G01 X-25.7608 Y10.3132
G01 X-25.7445 Y10.3078
G01 X-25.7112 Y10.2994
G01 X-25.6772 Y10.2944
G01 X-25.6600 Y10.2931
G01 X-23.6429 Y10.2927
G00 Z1.0000
G00 X-23.2928 Y13.7819
G01 F76.20
G01 Z-0.1000
G01 F150.00
G01 X-23.2927 Y14.2143
G01 X-23.2945 Y14.2503
G01 X-23.3001 Y14.2859
G01 X-23.3042 Y14.3035
G01 X-23.3152 Y14.3378
G01 X-23.3297 Y14.3709
G01 X-23.4725 Y14.6566
G01 X-23.4882 Y14.6847
G01 X-23.4970 Y14.6982
G01 X-23.5164 Y14.7238
G01 X-23.5381 Y14.7476
G01 X-23.6810 Y14.8905
G01 X-23.7047 Y14.9122
G01 X-23.7304 Y14.9316
G01 X-23.7577 Y14.9485
G01 X-23.7720 Y14.9561
G01 X-24.0577 Y15.0989
G01 X-24.0740 Y15.1066
G01 X-24.1078 Y15.1193
G01 X-24.1426 Y15.1285
G01 X-24.1783 Y15.1340
G01 X-24.2143 Y15.1359
G01 X-25.0714 Y15.1359
G01 X-25.1074 Y15.1340
G01 X-25.1431 Y15.1285
G01 X-25.1780 Y15.1193
G01 X-25.2117 Y15.1066
G01 X-25.5137 Y14.9561
G01 X-25.5280 Y14.9485
G01 X-25.5553 Y14.9316
G01 X-25.5810 Y14.9122
G01 X-25.6048 Y14.8905
G01 X-25.7587 Y14.7360
G01 X-25.7693 Y14.7238
G01 X-25.7887 Y14.6982
G01 X-25.8057 Y14.6708
G01 X-25.8132 Y14.6566
G01 X-25.9637 Y14.3546
G01 X-25.9764 Y14.3208
G01 X-25.9856 Y14.2859
G01 X-25.9912 Y14.2503
G01 X-25.9930 Y14.2143
G01 X-25.9930 Y13.7857
G01 X-25.9912 Y13.7497
G01 X-25.9856 Y13.7141
G01 X-25.9764 Y13.6792
G01 X-25.9637 Y13.6454
G01 X-25.9561 Y13.6291
G01 X-25.8132 Y13.3434
G01 X-25.7975 Y13.3153
G01 X-25.7793 Y13.2888
G01 X-25.7587 Y13.2640
G01 X-25.7476 Y13.2524
G01 X-25.6048 Y13.1095
G01 X-25.5810 Y13.0878
G01 X-25.5553 Y13.0684
G01 X-25.5280 Y13.0515
G01 X-25.5137 Y13.0439
G01 X-25.2280 Y12.9011
G01 X-25.2117 Y12.8934
G01 X-25.1780 Y12.8807
G01 X-25.1431 Y12.8715
G01 X-25.1074 Y12.8660
G01 X-25.0714 Y12.8641
G01 X-24.1963 Y12.8646
G01 X-24.1604 Y12.8683
G01 X-24.1251 Y12.8757
G01 X-24.0907 Y12.8866
G01 X-24.0577 Y12.9011
G01 X-23.7720 Y13.0439
G01 X-23.7439 Y13.0596
G01 X-23.7304 Y13.0684
G01 X-23.7047 Y13.0878
G01 X-23.6810 Y13.1095
G01 X-23.5381 Y13.2524
G01 X-23.5164 Y13.2762
G01 X-23.4970 Y13.3018
G01 X-23.4800 Y13.3292
G01 X-23.4725 Y13.3434
G01 X-23.3223 Y13.6447
G01 X-23.3101 Y13.6768
G01 X-23.3010 Y13.7099
G01 X-23.2952 Y13.7438
G01 X-23.2936 Y13.7609
G01 X-23.2928 Y13.7819
G00 X-23.2928 Y13.7819
G01 F76.20
G01 Z-0.2000
G01 F150.00
G01 X-23.2927 Y14.2143
G01 X-23.2945 Y14.2503
G01 X-23.3001 Y14.2859
G01 X-23.3042 Y14.3035
G01 X-23.3152 Y14.3378
G01 X-23.3297 Y14.3709
G01 X-23.4725 Y14.6566
G01 X-23.4882 Y14.6847
G01 X-23.4970 Y14.6982
G01 X-23.5164 Y14.7238
G01 X-23.5381 Y14.7476
G01 X-23.6810 Y14.8905
G01 X-23.7047 Y14.9122
G01 X-23.7304 Y14.9316
G01 X-23.7577 Y14.9485
G01 X-23.7720 Y14.9561
G01 X-24.0577 Y15.0989
G01 X-24.0740 Y15.1066
G01 X-24.1078 Y15.1193
G01 X-24.1426 Y15.1285
G01 X-24.1783 Y15.1340
G01 X-24.2143 Y15.1359
G01 X-25.0714 Y15.1359
G01 X-25.1074 Y15.1340
G01 X-25.1431 Y15.1285
G01 X-25.1780 Y15.1193
G01 X-25.2117 Y15.1066
G01 X-25.5137 Y14.9561
G01 X-25.5280 Y14.9485
G01 X-25.5553 Y14.9316
G01 X-25.5810 Y14.9122
G01 X-25.6048 Y14.8905
G01 X-25.7587 Y14.7360
G01 X-25.7693 Y14.7238
G01 X-25.7887 Y14.6982
G01 X-25.8057 Y14.6708
G01 X-25.8132 Y14.6566
G01 X-25.9637 Y14.3546
G01 X-25.9764 Y14.3208
G01 X-25.9856 Y14.2859
G01 X-25.9912 Y14.2503
G01 X-25.9930 Y14.2143
G01 X-25.9930 Y13.7857
G01 X-25.9912 Y13.7497
G01 X-25.9856 Y13.7141
G01 X-25.9764 Y13.6792
G01 X-25.9637 Y13.6454
G01 X-25.9561 Y13.6291
G01 X-25.8132 Y13.3434
G01 X-25.7975 Y13.3153
G01 X-25.7793 Y13.2888
G01 X-25.7587 Y13.2640
G01 X-25.7476 Y13.2524
G01 X-25.6048 Y13.1095
G01 X-25.5810 Y13.0878
G01 X-25.5553 Y13.0684
G01 X-25.5280 Y13.0515
G01 X-25.5137 Y13.0439
G01 X-25.2280 Y12.9011
G01 X-25.2117 Y12.8934
G01 X-25.1780 Y12.8807
G01 X-25.1431 Y12.8715
G01 X-25.1074 Y12.8660
G01 X-25.0714 Y12.8641
G01 X-24.1963 Y12.8646
G01 X-24.1604 Y12.8683
G01 X-24.1251 Y12.8757
G01 X-24.0907 Y12.8866
G01 X-24.0577 Y12.9011
G01 X-23.7720 Y13.0439
G01 X-23.7439 Y13.0596
G01 X-23.7304 Y13.0684
G01 X-23.7047 Y13.0878
G01 X-23.6810 Y13.1095
G01 X-23.5381 Y13.2524
G01 X-23.5164 Y13.2762
G01 X-23.4970 Y13.3018
G01 X-23.4800 Y13.3292
G01 X-23.4725 Y13.3434
G01 X-23.3223 Y13.6447
G01 X-23.3101 Y13.6768
G01 X-23.3010 Y13.7099
G01 X-23.2952 Y13.7438
G01 X-23.2936 Y13.7609
G01 X-23.2928 Y13.7819
G00 X-23.2928 Y13.7819
G01 F76.20
G01 Z-0.2836
G01 F150.00
G01 X-23.2927 Y14.2143
G01 X-23.2945 Y14.2503
G01 X-23.3001 Y14.2859
G01 X-23.3042 Y14.3035
G01 X-23.3152 Y14.3378
G01 X-23.3297 Y14.3709
G01 X-23.4725 Y14.6566
G01 X-23.4882 Y14.6847
G01 X-23.4970 Y14.6982
G01 X-23.5164 Y14.7238
G01 X-23.5381 Y14.7476
G01 X-23.6810 Y14.8905
G01 X-23.7047 Y14.9122
G01 X-23.7304 Y14.9316
G01 X-23.7577 Y14.9485
G01 X-23.7720 Y14.9561
G01 X-24.0577 Y15.0989
G01 X-24.0740 Y15.1066
G01 X-24.1078 Y15.1193
G01 X-24.1426 Y15.1285
G01 X-24.1783 Y15.1340
G01 X-24.2143 Y15.1359
G01 X-25.0714 Y15.1359
G01 X-25.1074 Y15.1340
G01 X-25.1431 Y15.1285
G01 X-25.1780 Y15.1193
G01 X-25.2117 Y15.1066
G01 X-25.5137 Y14.9561
G01 X-25.5280 Y14.9485
G01 X-25.5553 Y14.9316
G01 X-25.5810 Y14.9122
G01 X-25.6048 Y14.8905
G01 X-25.7587 Y14.7360
G01 X-25.7693 Y14.7238
G01 X-25.7887 Y14.6982
G01 X-25.8057 Y14.6708
G01 X-25.8132 Y14.6566
G01 X-25.9637 Y14.3546
G01 X-25.9764 Y14.3208
G01 X-25.9856 Y14.2859
G01 X-25.9912 Y14.2503
G01 X-25.9930 Y14.2143
G01 X-25.9930 Y13.7857
G01 X-25.9912 Y13.7497
G01 X-25.9856 Y13.7141
G01 X-25.9764 Y13.6792
G01 X-25.9637 Y13.6454
G01 X-25.9561 Y13.6291
G01 X-25.8132 Y13.3434
G01 X-25.7975 Y13.3153
G01 X-25.7793 Y13.2888
G01 X-25.7587 Y13.2640
G01 X-25.7476 Y13.2524
G01 X-25.6048 Y13.1095
G01 X-25.5810 Y13.0878
G01 X-25.5553 Y13.0684
G01 X-25.5280 Y13.0515
G01 X-25.5137 Y13.0439
G01 X-25.2280 Y12.9011
G01 X-25.2117 Y12.8934
G01 X-25.1780 Y12.8807
G01 X-25.1431 Y12.8715
G01 X-25.1074 Y12.8660
G01 X-25.0714 Y12.8641
G01 X-24.1963 Y12.8646
G01 X-24.1604 Y12.8683
G01 X-24.1251 Y12.8757
G01 X-24.0907 Y12.8866
G01 X-24.0577 Y12.9011
G01 X-23.7720 Y13.0439
G01 X-23.7439 Y13.0596
G01 X-23.7304 Y13.0684
G01 X-23.7047 Y13.0878
G01 X-23.6810 Y13.1095
G01 X-23.5381 Y13.2524
G01 X-23.5164 Y13.2762
G01 X-23.4970 Y13.3018
G01 X-23.4800 Y13.3292
G01 X-23.4725 Y13.3434
G01 X-23.3223 Y13.6447
G01 X-23.3101 Y13.6768
G01 X-23.3010 Y13.7099
G01 X-23.2952 Y13.7438
G01 X-23.2936 Y13.7609
G01 X-23.2928 Y13.7819
G00 Z1.0000
G00 X-23.9930 Y13.8684
G01 F76.20
G01 Z-0.1000
G01 F150.00
G01 X-24.0735 Y13.7074
G01 X-24.1360 Y13.6449
G01 X-24.2970 Y13.5645
G01 X-24.9888 Y13.5645
G01 X-25.1497 Y13.6449
G01 X-25.2122 Y13.7074
G01 X-25.2927 Y13.8684
G01 X-25.2927 Y14.1316
G01 X-25.2122 Y14.2926
G01 X-25.1497 Y14.3551
G01 X-24.9888 Y14.4355
G01 X-24.2970 Y14.4355
G01 X-24.1360 Y14.3551
G01 X-24.0735 Y14.2926
G01 X-23.9930 Y14.1316
G01 X-23.9930 Y13.8684
G00 X-23.9930 Y13.8684
G01 F76.20
G01 Z-0.2000
G01 F150.00
G01 X-24.0735 Y13.7074
G01 X-24.1360 Y13.6449
G01 X-24.2970 Y13.5645
G01 X-24.9888 Y13.5645
G01 X-25.1497 Y13.6449
G01 X-25.2122 Y13.7074
G01 X-25.2927 Y13.8684
G01 X-25.2927 Y14.1316
G01 X-25.2122 Y14.2926
G01 X-25.1497 Y14.3551
G01 X-24.9888 Y14.4355
G01 X-24.2970 Y14.4355
G01 X-24.1360 Y14.3551
G01 X-24.0735 Y14.2926
G01 X-23.9930 Y14.1316
G01 X-23.9930 Y13.8684
G00 X-23.9930 Y13.8684
G01 F76.20
G01 Z-0.2836
G01 F150.00
G01 X-24.0735 Y13.7074
G01 X-24.1360 Y13.6449
G01 X-24.2970 Y13.5645
G01 X-24.9888 Y13.5645
G01 X-25.1497 Y13.6449
G01 X-25.2122 Y13.7074
G01 X-25.2927 Y13.8684
G01 X-25.2927 Y14.1316
G01 X-25.2122 Y14.2926
G01 X-25.1497 Y14.3551
G01 X-24.9888 Y14.4355
G01 X-24.2970 Y14.4355
G01 X-24.1360 Y14.3551
G01 X-24.0735 Y14.2926
G01 X-23.9930 Y14.1316
G01 X-23.9930 Y13.8684
G00 Z1.0000
G00 X-24.0857 Y17.4355
G01 F76.20
G01 Z-0.1000
G01 F150.00
G01 X-23.9930 Y17.1575
G01 X-23.9930 Y16.9854
G01 X-24.0918 Y16.6892
G01 X-24.2789 Y16.5021
G01 X-24.4794 Y16.4018
G01 X-24.9717 Y16.2787
G01 X-25.3140 Y16.2787
G01 X-25.8063 Y16.4018
G01 X-26.0069 Y16.5021
G01 X-26.1939 Y16.6892
G01 X-26.2927 Y16.9854
G01 X-26.2927 Y17.2745
G01 X-26.1868 Y17.4863
G01 X-26.1730 Y17.5177
G01 X-26.1623 Y17.5504
G01 X-26.1581 Y17.5671
G01 X-26.1523 Y17.6009
G01 X-26.1507 Y17.6180
G01 X-26.1500 Y17.6524
G01 X-26.1526 Y17.6867
G01 X-26.1585 Y17.7205
G01 X-26.1628 Y17.7372
G01 X-26.1736 Y17.7698
G01 X-26.1876 Y17.8011
G01 X-26.2047 Y17.8310
G01 X-26.2245 Y17.8590
G01 X-26.2470 Y17.8850
G01 X-26.2720 Y17.9086
G01 X-26.2853 Y17.9195
G01 X-26.3135 Y17.9392
G01 X-26.3434 Y17.9561
G01 X-26.3749 Y17.9699
G01 X-26.4075 Y17.9806
G01 X-26.4411 Y17.9880
G01 X-26.4752 Y17.9922
G01 X-26.5095 Y17.9929
G01 X-26.5438 Y17.9903
G01 X-26.5608 Y17.9877
G01 X-26.5943 Y17.9801
G01 X-26.6269 Y17.9692
G01 X-26.6583 Y17.9552
G01 X-26.6881 Y17.9382
G01 X-26.7024 Y17.9286
G01 X-26.7294 Y17.9074
G01 X-26.7543 Y17.8836
G01 X-26.7766 Y17.8576
G01 X-26.7963 Y17.8294
G01 X-26.8132 Y17.7995
G01 X-26.9561 Y17.5137
G01 X-26.9705 Y17.4807
G01 X-26.9815 Y17.4463
G01 X-26.9856 Y17.4288
G01 X-26.9912 Y17.3932
G01 X-26.9926 Y17.3752
G01 X-26.9930 Y16.9286
G01 X-26.9916 Y16.8964
G01 X-26.9871 Y16.8646
G01 X-26.9798 Y16.8332
G01 X-26.9751 Y16.8178
G01 X-26.8322 Y16.3893
G01 X-26.8191 Y16.3557
G01 X-26.8112 Y16.3394
G01 X-26.7930 Y16.3083
G01 X-26.7718 Y16.2792
G01 X-26.7476 Y16.2524
G01 X-26.4619 Y15.9667
G01 X-26.4503 Y15.9556
G01 X-26.4255 Y15.9350
G01 X-26.3990 Y15.9168
G01 X-26.3709 Y15.9011
G01 X-26.0852 Y15.7582
G01 X-26.0678 Y15.7501
G01 X-26.0501 Y15.7430
G01 X-26.0319 Y15.7369
G01 X-26.0135 Y15.7317
G01 X-25.4253 Y15.5851
G01 X-25.3914 Y15.5801
G01 X-25.3571 Y15.5784
G01 X-24.9286 Y15.5784
G01 X-24.8943 Y15.5801
G01 X-24.8604 Y15.5851
G01 X-24.2722 Y15.7317
G01 X-24.2538 Y15.7369
G01 X-24.2357 Y15.7430
G01 X-24.2179 Y15.7501
G01 X-24.2005 Y15.7582
G01 X-23.9148 Y15.9011
G01 X-23.8867 Y15.9168
G01 X-23.8733 Y15.9256
G01 X-23.8476 Y15.9450
G01 X-23.8355 Y15.9556
G01 X-23.5257 Y16.2655
G01 X-23.5139 Y16.2792
G01 X-23.4927 Y16.3083
G01 X-23.4745 Y16.3394
G01 X-23.4597 Y16.3723
G01 X-23.3107 Y16.8178
G01 X-23.3019 Y16.8488
G01 X-23.2986 Y16.8646
G01 X-23.2942 Y16.8964
G01 X-23.2927 Y16.9286
G01 X-23.2927 Y17.2143
G01 X-23.2942 Y17.2464
G01 X-23.2986 Y17.2783
G01 X-23.3019 Y17.2941
G01 X-23.3107 Y17.3250
G01 X-23.4535 Y17.7536
G01 X-23.4667 Y17.7872
G01 X-23.4832 Y17.8192
G01 X-23.4927 Y17.8346
G01 X-23.5139 Y17.8637
G01 X-23.5381 Y17.8905
G01 X-23.6810 Y18.0333
G01 X-23.7064 Y18.0564
G01 X-23.7340 Y18.0769
G01 X-23.7635 Y18.0945
G01 X-23.7946 Y18.1092
G01 X-23.8269 Y18.1208
G01 X-23.8435 Y18.1254
G01 X-23.8772 Y18.1321
G01 X-23.9114 Y18.1355
G01 X-23.9286 Y18.1359
G01 X-24.9286 Y18.1359
G01 X-24.9458 Y18.1355
G01 X-24.9800 Y18.1321
G01 X-25.0137 Y18.1254
G01 X-25.0465 Y18.1154
G01 X-25.0626 Y18.1092
G01 X-25.0783 Y18.1023
G01 X-25.1086 Y18.0861
G01 X-25.1372 Y18.0670
G01 X-25.1507 Y18.0564
G01 X-25.1762 Y18.0333
G01 X-25.1880 Y18.0209
G01 X-25.2098 Y17.9943
G01 X-25.2289 Y17.9657
G01 X-25.2451 Y17.9354
G01 X-25.2521 Y17.9197
G01 X-25.2637 Y17.8874
G01 X-25.2720 Y17.8540
G01 X-25.2750 Y17.8371
G01 X-25.2783 Y17.8029
G01 X-25.2787 Y17.2143
G01 X-25.2771 Y17.1800
G01 X-25.2720 Y17.1460
G01 X-25.2637 Y17.1126
G01 X-25.2521 Y17.0803
G01 X-25.2451 Y17.0646
G01 X-25.2289 Y17.0343
G01 X-25.2098 Y17.0057
G01 X-25.1993 Y16.9921
G01 X-25.1762 Y16.9667
G01 X-25.1507 Y16.9436
G01 X-25.1372 Y16.9330
G01 X-25.1086 Y16.9139
G01 X-25.0783 Y16.8977
G01 X-25.0626 Y16.8908
G01 X-25.0302 Y16.8792
G01 X-25.0137 Y16.8746
G01 X-24.9800 Y16.8679
G01 X-24.9629 Y16.8658
G01 X-24.9286 Y16.8641
G01 X-24.8942 Y16.8658
G01 X-24.8772 Y16.8679
G01 X-24.8435 Y16.8746
G01 X-24.8269 Y16.8792
G01 X-24.7946 Y16.8908
G01 X-24.7789 Y16.8977
G01 X-24.7485 Y16.9139
G01 X-24.7340 Y16.9231
G01 X-24.7064 Y16.9436
G01 X-24.6810 Y16.9667
G01 X-24.6691 Y16.9791
G01 X-24.6473 Y17.0057
G01 X-24.6374 Y17.0197
G01 X-24.6282 Y17.0343
G01 X-24.6120 Y17.0646
G01 X-24.6051 Y17.0803
G01 X-24.5935 Y17.1126
G01 X-24.5851 Y17.1460
G01 X-24.5801 Y17.1800
G01 X-24.5784 Y17.2143
G01 X-24.5784 Y17.4355
G01 X-24.0857 Y17.4355
G00 X-24.0857 Y17.4355
G01 F76.20
G01 Z-0.2000
G01 F150.00
G01 X-23.9930 Y17.1575
G01 X-23.9930 Y16.9854
G01 X-24.0918 Y16.6892
G01 X-24.2789 Y16.5021
G01 X-24.4794 Y16.4018
G01 X-24.9717 Y16.2787
G01 X-25.3140 Y16.2787
G01 X-25.8063 Y16.4018
G01 X-26.0069 Y16.5021
G01 X-26.1939 Y16.6892
G01 X-26.2927 Y16.9854
G01 X-26.2927 Y17.2745
G01 X-26.1868 Y17.4863
G01 X-26.1730 Y17.5177
G01 X-26.1623 Y17.5504
G01 X-26.1581 Y17.5671
G01 X-26.1523 Y17.6009
G01 X-26.1507 Y17.6180
G01 X-26.1500 Y17.6524
G01 X-26.1526 Y17.6867
G01 X-26.1585 Y17.7205
G01 X-26.1628 Y17.7372
G01 X-26.1736 Y17.7698
G01 X-26.1876 Y17.8011
G01 X-26.2047 Y17.8310
G01 X-26.2245 Y17.8590
G01 X-26.2470 Y17.8850
G01 X-26.2720 Y17.9086
G01 X-26.2853 Y17.9195
G01 X-26.3135 Y17.9392
G01 X-26.3434 Y17.9561
G01 X-26.3749 Y17.9699
G01 X-26.4075 Y17.9806
G01 X-26.4411 Y17.9880
G01 X-26.4752 Y17.9922
G01 X-26.5095 Y17.9929
G01 X-26.5438 Y17.9903
G01 X-26.5608 Y17.9877
G01 X-26.5943 Y17.9801
G01 X-26.6269 Y17.9692
G01 X-26.6583 Y17.9552
G01 X-26.6881 Y17.9382
G01 X-26.7024 Y17.9286
G01 X-26.7294 Y17.9074
G01 X-26.7543 Y17.8836
G01 X-26.7766 Y17.8576
G01 X-26.7963 Y17.8294
G01 X-26.8132 Y17.7995
G01 X-26.9561 Y17.5137
G01 X-26.9705 Y17.4807
G01 X-26.9815 Y17.4463
G01 X-26.9856 Y17.4288
G01 X-26.9912 Y17.3932
G01 X-26.9926 Y17.3752
G01 X-26.9930 Y16.9286
G01 X-26.9916 Y16.8964
G01 X-26.9871 Y16.8646
G01 X-26.9798 Y16.8332
G01 X-26.9751 Y16.8178
G01 X-26.8322 Y16.3893
G01 X-26.8191 Y16.3557
G01 X-26.8112 Y16.3394
G01 X-26.7930 Y16.3083
G01 X-26.7718 Y16.2792
G01 X-26.7476 Y16.2524
G01 X-26.4619 Y15.9667
G01 X-26.4503 Y15.9556
G01 X-26.4255 Y15.9350
G01 X-26.3990 Y15.9168
G01 X-26.3709 Y15.9011
G01 X-26.0852 Y15.7582
G01 X-26.0678 Y15.7501
G01 X-26.0501 Y15.7430
G01 X-26.0319 Y15.7369
G01 X-26.0135 Y15.7317
G01 X-25.4253 Y15.5851
G01 X-25.3914 Y15.5801
G01 X-25.3571 Y15.5784
G01 X-24.9286 Y15.5784
G01 X-24.8943 Y15.5801
G01 X-24.8604 Y15.5851
G01 X-24.2722 Y15.7317
G01 X-24.2538 Y15.7369
G01 X-24.2357 Y15.7430
G01 X-24.2179 Y15.7501
G01 X-24.2005 Y15.7582
G01 X-23.9148 Y15.9011
G01 X-23.8867 Y15.9168
G01 X-23.8733 Y15.9256
G01 X-23.8476 Y15.9450
G01 X-23.8355 Y15.9556
G01 X-23.5257 Y16.2655
G01 X-23.5139 Y16.2792
G01 X-23.4927 Y16.3083
G01 X-23.4745 Y16.3394
G01 X-23.4597 Y16.3723
G01 X-23.3107 Y16.8178
G01 X-23.3019 Y16.8488
G01 X-23.2986 Y16.8646
G01 X-23.2942 Y16.8964
G01 X-23.2927 Y16.9286
G01 X-23.2927 Y17.2143
G01 X-23.2942 Y17.2464
G01 X-23.2986 Y17.2783
G01 X-23.3019 Y17.2941
G01 X-23.3107 Y17.3250
G01 X-23.4535 Y17.7536
G01 X-23.4667 Y17.7872
G01 X-23.4832 Y17.8192
G01 X-23.4927 Y17.8346
G01 X-23.5139 Y17.8637
G01 X-23.5381 Y17.8905
G01 X-23.6810 Y18.0333
G01 X-23.7064 Y18.0564
G01 X-23.7340 Y18.0769
G01 X-23.7635 Y18.0945
G01 X-23.7946 Y18.1092
G01 X-23.8269 Y18.1208
G01 X-23.8435 Y18.1254
G01 X-23.8772 Y18.1321
G01 X-23.9114 Y18.1355
G01 X-23.9286 Y18.1359
G01 X-24.9286 Y18.1359
G01 X-24.9458 Y18.1355
G01 X-24.9800 Y18.1321
G01 X-25.0137 Y18.1254
G01 X-25.0465 Y18.1154
G01 X-25.0626 Y18.1092
G01 X-25.0783 Y18.1023
G01 X-25.1086 Y18.0861
G01 X-25.1372 Y18.0670
G01 X-25.1507 Y18.0564
G01 X-25.1762 Y18.0333
G01 X-25.1880 Y18.0209
G01 X-25.2098 Y17.9943
G01 X-25.2289 Y17.9657
G01 X-25.2451 Y17.9354
G01 X-25.2521 Y17.9197
G01 X-25.2637 Y17.8874
G01 X-25.2720 Y17.8540
G01 X-25.2750 Y17.8371
G01 X-25.2783 Y17.8029
G01 X-25.2787 Y17.2143
G01 X-25.2771 Y17.1800
G01 X-25.2720 Y17.1460
G01 X-25.2637 Y17.1126
G01 X-25.2521 Y17.0803
G01 X-25.2451 Y17.0646
G01 X-25.2289 Y17.0343
G01 X-25.2098 Y17.0057
G01 X-25.1993 Y16.9921
G01 X-25.1762 Y16.9667
G01 X-25.1507 Y16.9436
G01 X-25.1372 Y16.9330
G01 X-25.1086 Y16.9139
G01 X-25.0783 Y16.8977
G01 X-25.0626 Y16.8908
G01 X-25.0302 Y16.8792
G01 X-25.0137 Y16.8746
G01 X-24.9800 Y16.8679
G01 X-24.9629 Y16.8658
G01 X-24.9286 Y16.8641
G01 X-24.8942 Y16.8658
G01 X-24.8772 Y16.8679
G01 X-24.8435 Y16.8746
G01 X-24.8269 Y16.8792
G01 X-24.7946 Y16.8908
G01 X-24.7789 Y16.8977
G01 X-24.7485 Y16.9139
G01 X-24.7340 Y16.9231
G01 X-24.7064 Y16.9436
G01 X-24.6810 Y16.9667
G01 X-24.6691 Y16.9791
G01 X-24.6473 Y17.0057
G01 X-24.6374 Y17.0197
G01 X-24.6282 Y17.0343
G01 X-24.6120 Y17.0646
G01 X-24.6051 Y17.0803
G01 X-24.5935 Y17.1126
G01 X-24.5851 Y17.1460
G01 X-24.5801 Y17.1800
G01 X-24.5784 Y17.2143
G01 X-24.5784 Y17.4355
G01 X-24.0857 Y17.4355
G00 X-24.0857 Y17.4355
G01 F76.20
G01 Z-0.2836
G01 F150.00
G01 X-23.9930 Y17.1575
G01 X-23.9930 Y16.9854
G01 X-24.0918 Y16.6892
G01 X-24.2789 Y16.5021
G01 X-24.4794 Y16.4018
G01 X-24.9717 Y16.2787
G01 X-25.3140 Y16.2787
G01 X-25.8063 Y16.4018
G01 X-26.0069 Y16.5021
G01 X-26.1939 Y16.6892
G01 X-26.2927 Y16.9854
G01 X-26.2927 Y17.2745
G01 X-26.1868 Y17.4863
G01 X-26.1730 Y17.5177
G01 X-26.1623 Y17.5504
G01 X-26.1581 Y17.5671
G01 X-26.1523 Y17.6009
G01 X-26.1507 Y17.6180
G01 X-26.1500 Y17.6524
G01 X-26.1526 Y17.6867
G01 X-26.1585 Y17.7205
G01 X-26.1628 Y17.7372
G01 X-26.1736 Y17.7698
G01 X-26.1876 Y17.8011
G01 X-26.2047 Y17.8310
G01 X-26.2245 Y17.8590
G01 X-26.2470 Y17.8850
G01 X-26.2720 Y17.9086
G01 X-26.2853 Y17.9195
G01 X-26.3135 Y17.9392
G01 X-26.3434 Y17.9561
G01 X-26.3749 Y17.9699
G01 X-26.4075 Y17.9806
G01 X-26.4411 Y17.9880
G01 X-26.4752 Y17.9922
G01 X-26.5095 Y17.9929
G01 X-26.5438 Y17.9903
G01 X-26.5608 Y17.9877
G01 X-26.5943 Y17.9801
G01 X-26.6269 Y17.9692
G01 X-26.6583 Y17.9552
G01 X-26.6881 Y17.9382
G01 X-26.7024 Y17.9286
G01 X-26.7294 Y17.9074
G01 X-26.7543 Y17.8836
G01 X-26.7766 Y17.8576
G01 X-26.7963 Y17.8294
G01 X-26.8132 Y17.7995
G01 X-26.9561 Y17.5137
G01 X-26.9705 Y17.4807
G01 X-26.9815 Y17.4463
G01 X-26.9856 Y17.4288
G01 X-26.9912 Y17.3932
G01 X-26.9926 Y17.3752
G01 X-26.9930 Y16.9286
G01 X-26.9916 Y16.8964
G01 X-26.9871 Y16.8646
G01 X-26.9798 Y16.8332
G01 X-26.9751 Y16.8178
G01 X-26.8322 Y16.3893
G01 X-26.8191 Y16.3557
G01 X-26.8112 Y16.3394
G01 X-26.7930 Y16.3083
G01 X-26.7718 Y16.2792
G01 X-26.7476 Y16.2524
G01 X-26.4619 Y15.9667
G01 X-26.4503 Y15.9556
G01 X-26.4255 Y15.9350
G01 X-26.3990 Y15.9168
G01 X-26.3709 Y15.9011
G01 X-26.0852 Y15.7582
G01 X-26.0678 Y15.7501
G01 X-26.0501 Y15.7430
G01 X-26.0319 Y15.7369
G01 X-26.0135 Y15.7317
G01 X-25.4253 Y15.5851
G01 X-25.3914 Y15.5801
G01 X-25.3571 Y15.5784
G01 X-24.9286 Y15.5784
G01 X-24.8943 Y15.5801
G01 X-24.8604 Y15.5851
G01 X-24.2722 Y15.7317
G01 X-24.2538 Y15.7369
G01 X-24.2357 Y15.7430
G01 X-24.2179 Y15.7501
G01 X-24.2005 Y15.7582
G01 X-23.9148 Y15.9011
G01 X-23.8867 Y15.9168
G01 X-23.8733 Y15.9256
G01 X-23.8476 Y15.9450
G01 X-23.8355 Y15.9556
G01 X-23.5257 Y16.2655
G01 X-23.5139 Y16.2792
G01 X-23.4927 Y16.3083
G01 X-23.4745 Y16.3394
G01 X-23.4597 Y16.3723
G01 X-23.3107 Y16.8178
G01 X-23.3019 Y16.8488
G01 X-23.2986 Y16.8646
G01 X-23.2942 Y16.8964
G01 X-23.2927 Y16.9286
G01 X-23.2927 Y17.2143
G01 X-23.2942 Y17.2464
G01 X-23.2986 Y17.2783
G01 X-23.3019 Y17.2941
G01 X-23.3107 Y17.3250
G01 X-23.4535 Y17.7536
G01 X-23.4667 Y17.7872
G01 X-23.4832 Y17.8192
G01 X-23.4927 Y17.8346
G01 X-23.5139 Y17.8637
G01 X-23.5381 Y17.8905
G01 X-23.6810 Y18.0333
G01 X-23.7064 Y18.0564
G01 X-23.7340 Y18.0769
G01 X-23.7635 Y18.0945
G01 X-23.7946 Y18.1092
G01 X-23.8269 Y18.1208
G01 X-23.8435 Y18.1254
G01 X-23.8772 Y18.1321
G01 X-23.9114 Y18.1355
G01 X-23.9286 Y18.1359
G01 X-24.9286 Y18.1359
G01 X-24.9458 Y18.1355
G01 X-24.9800 Y18.1321
G01 X-25.0137 Y18.1254
G01 X-25.0465 Y18.1154
G01 X-25.0626 Y18.1092
G01 X-25.0783 Y18.1023
G01 X-25.1086 Y18.0861
G01 X-25.1372 Y18.0670
G01 X-25.1507 Y18.0564
G01 X-25.1762 Y18.0333
G01 X-25.1880 Y18.0209
G01 X-25.2098 Y17.9943
G01 X-25.2289 Y17.9657
G01 X-25.2451 Y17.9354
G01 X-25.2521 Y17.9197
G01 X-25.2637 Y17.8874
G01 X-25.2720 Y17.8540
G01 X-25.2750 Y17.8371
G01 X-25.2783 Y17.8029
G01 X-25.2787 Y17.2143
G01 X-25.2771 Y17.1800
G01 X-25.2720 Y17.1460
G01 X-25.2637 Y17.1126
G01 X-25.2521 Y17.0803
G01 X-25.2451 Y17.0646
G01 X-25.2289 Y17.0343
G01 X-25.2098 Y17.0057
G01 X-25.1993 Y16.9921
G01 X-25.1762 Y16.9667
G01 X-25.1507 Y16.9436
G01 X-25.1372 Y16.9330
G01 X-25.1086 Y16.9139
G01 X-25.0783 Y16.8977
G01 X-25.0626 Y16.8908
G01 X-25.0302 Y16.8792
G01 X-25.0137 Y16.8746
G01 X-24.9800 Y16.8679
G01 X-24.9629 Y16.8658
G01 X-24.9286 Y16.8641
G01 X-24.8942 Y16.8658
G01 X-24.8772 Y16.8679
G01 X-24.8435 Y16.8746
G01 X-24.8269 Y16.8792
G01 X-24.7946 Y16.8908
G01 X-24.7789 Y16.8977
G01 X-24.7485 Y16.9139
G01 X-24.7340 Y16.9231
G01 X-24.7064 Y16.9436
G01 X-24.6810 Y16.9667
G01 X-24.6691 Y16.9791
G01 X-24.6473 Y17.0057
G01 X-24.6374 Y17.0197
G01 X-24.6282 Y17.0343
G01 X-24.6120 Y17.0646
G01 X-24.6051 Y17.0803
G01 X-24.5935 Y17.1126
G01 X-24.5851 Y17.1460
G01 X-24.5801 Y17.1800
G01 X-24.5784 Y17.2143
G01 X-24.5784 Y17.4355
G01 X-24.0857 Y17.4355
G00 Z1.0000
G00 X-24.9888 Y19.4216
G01 F76.20
G01 Z-0.1000
G01 F150.00
G01 X-25.1497 Y19.5021
G01 X-25.2122 Y19.5646
G01 X-25.2927 Y19.7255
G01 X-25.2931 Y19.9458
G01 X-25.2944 Y19.9629
G01 X-25.2994 Y19.9969
G01 X-25.3032 Y20.0137
G01 X-25.3132 Y20.0465
G01 X-25.3193 Y20.0626
G01 X-25.3340 Y20.0936
G01 X-25.3425 Y20.1086
G01 X-25.3616 Y20.1372
G01 X-25.3722 Y20.1507
G01 X-25.3952 Y20.1762
G01 X-25.4077 Y20.1880
G01 X-25.4343 Y20.2098
G01 X-25.4628 Y20.2289
G01 X-25.4931 Y20.2451
G01 X-25.5249 Y20.2583
G01 X-25.5578 Y20.2683
G01 X-25.5915 Y20.2750
G01 X-25.6257 Y20.2783
G01 X-25.6600 Y20.2783
G01 X-25.6942 Y20.2750
G01 X-25.7279 Y20.2683
G01 X-25.7608 Y20.2583
G01 X-25.7926 Y20.2451
G01 X-25.8229 Y20.2289
G01 X-25.8515 Y20.2098
G01 X-25.8780 Y20.1880
G01 X-25.9023 Y20.1637
G01 X-25.9241 Y20.1372
G01 X-25.9432 Y20.1086
G01 X-25.9594 Y20.0783
G01 X-25.9664 Y20.0626
G01 X-25.9726 Y20.0465
G01 X-25.9825 Y20.0137
G01 X-25.9892 Y19.9800
G01 X-25.9926 Y19.9458
G01 X-25.9930 Y19.9286
G01 X-25.9926 Y19.6248
G01 X-25.9889 Y19.5890
G01 X-25.9856 Y19.5712
G01 X-25.9815 Y19.5537
G01 X-25.9705 Y19.5193
G01 X-25.9561 Y19.4863
G01 X-25.8783 Y19.3307
G01 X-25.9023 Y19.3066
G01 X-25.9135 Y19.2936
G01 X-25.9340 Y19.2660
G01 X-25.9517 Y19.2365
G01 X-25.9594 Y19.2211
G01 X-25.9726 Y19.1894
G01 X-25.9825 Y19.1565
G01 X-25.9892 Y19.1228
G01 X-25.9913 Y19.1058
G01 X-25.9930 Y19.0714
G01 X-25.9913 Y19.0371
G01 X-25.9863 Y19.0031
G01 X-25.9825 Y18.9863
G01 X-25.9780 Y18.9698
G01 X-25.9664 Y18.9374
G01 X-25.9517 Y18.9064
G01 X-25.9432 Y18.8914
G01 X-25.9241 Y18.8628
G01 X-25.9023 Y18.8363
G01 X-25.8780 Y18.8120
G01 X-25.8650 Y18.8007
G01 X-25.8374 Y18.7803
G01 X-25.8229 Y18.7711
G01 X-25.7926 Y18.7549
G01 X-25.7769 Y18.7479
G01 X-25.7445 Y18.7363
G01 X-25.7112 Y18.7280
G01 X-25.6772 Y18.7229
G01 X-25.6429 Y18.7213
G01 X-23.6429 Y18.7213
G01 X-23.6085 Y18.7229
G01 X-23.5915 Y18.7250
G01 X-23.5578 Y18.7317
G01 X-23.5412 Y18.7363
G01 X-23.5089 Y18.7479
G01 X-23.4931 Y18.7549
G01 X-23.4628 Y18.7711
G01 X-23.4343 Y18.7902
G01 X-23.4207 Y18.8007
G01 X-23.3952 Y18.8238
G01 X-23.3834 Y18.8363
G01 X-23.3616 Y18.8628
G01 X-23.3425 Y18.8914
G01 X-23.3340 Y18.9064
G01 X-23.3193 Y18.9374
G01 X-23.3132 Y18.9535
G01 X-23.3032 Y18.9863
G01 X-23.2965 Y19.0200
G01 X-23.2931 Y19.0542
G01 X-23.2931 Y19.0886
G01 X-23.2965 Y19.1228
G01 X-23.3032 Y19.1565
G01 X-23.3132 Y19.1894
G01 X-23.3263 Y19.2211
G01 X-23.3425 Y19.2515
G01 X-23.3616 Y19.2800
G01 X-23.3834 Y19.3066
G01 X-23.4077 Y19.3309
G01 X-23.4343 Y19.3527
G01 X-23.4628 Y19.3718
G01 X-23.4931 Y19.3880
G01 X-23.5249 Y19.4011
G01 X-23.5578 Y19.4111
G01 X-23.5915 Y19.4178
G01 X-23.6257 Y19.4212
G01 X-23.6429 Y19.4216
G01 X-24.9888 Y19.4216
G00 X-24.9888 Y19.4216
G01 F76.20
G01 Z-0.2000
G01 F150.00
G01 X-25.1497 Y19.5021
G01 X-25.2122 Y19.5646
G01 X-25.2927 Y19.7255
G01 X-25.2931 Y19.9458
G01 X-25.2944 Y19.9629
G01 X-25.2994 Y19.9969
G01 X-25.3032 Y20.0137
G01 X-25.3132 Y20.0465
G01 X-25.3193 Y20.0626
G01 X-25.3340 Y20.0936
G01 X-25.3425 Y20.1086
G01 X-25.3616 Y20.1372
G01 X-25.3722 Y20.1507
G01 X-25.3952 Y20.1762
G01 X-25.4077 Y20.1880
G01 X-25.4343 Y20.2098
G01 X-25.4628 Y20.2289
G01 X-25.4931 Y20.2451
G01 X-25.5249 Y20.2583
G01 X-25.5578 Y20.2683
G01 X-25.5915 Y20.2750
G01 X-25.6257 Y20.2783
G01 X-25.6600 Y20.2783
G01 X-25.6942 Y20.2750
G01 X-25.7279 Y20.2683
G01 X-25.7608 Y20.2583
G01 X-25.7926 Y20.2451
G01 X-25.8229 Y20.2289
G01 X-25.8515 Y20.2098
G01 X-25.8780 Y20.1880
G01 X-25.9023 Y20.1637
G01 X-25.9241 Y20.1372
G01 X-25.9432 Y20.1086
G01 X-25.9594 Y20.0783
G01 X-25.9664 Y20.0626
G01 X-25.9726 Y20.0465
G01 X-25.9825 Y20.0137
G01 X-25.9892 Y19.9800
G01 X-25.9926 Y19.9458
G01 X-25.9930 Y19.9286
G01 X-25.9926 Y19.6248
G01 X-25.9889 Y19.5890
G01 X-25.9856 Y19.5712
G01 X-25.9815 Y19.5537
G01 X-25.9705 Y19.5193
G01 X-25.9561 Y19.4863
G01 X-25.8783 Y19.3307
G01 X-25.9023 Y19.3066
G01 X-25.9135 Y19.2936
G01 X-25.9340 Y19.2660
G01 X-25.9517 Y19.2365
G01 X-25.9594 Y19.2211
G01 X-25.9726 Y19.1894
G01 X-25.9825 Y19.1565
G01 X-25.9892 Y19.1228
G01 X-25.9913 Y19.1058
G01 X-25.9930 Y19.0714
G01 X-25.9913 Y19.0371
G01 X-25.9863 Y19.0031
G01 X-25.9825 Y18.9863
G01 X-25.9780 Y18.9698
G01 X-25.9664 Y18.9374
G01 X-25.9517 Y18.9064
G01 X-25.9432 Y18.8914
G01 X-25.9241 Y18.8628
G01 X-25.9023 Y18.8363
G01 X-25.8780 Y18.8120
G01 X-25.8650 Y18.8007
G01 X-25.8374 Y18.7803
G01 X-25.8229 Y18.7711
G01 X-25.7926 Y18.7549
G01 X-25.7769 Y18.7479
G01 X-25.7445 Y18.7363
G01 X-25.7112 Y18.7280
G01 X-25.6772 Y18.7229
G01 X-25.6429 Y18.7213
G01 X-23.6429 Y18.7213
G01 X-23.6085 Y18.7229
G01 X-23.5915 Y18.7250
G01 X-23.5578 Y18.7317
G01 X-23.5412 Y18.7363
G01 X-23.5089 Y18.7479
G01 X-23.4931 Y18.7549
G01 X-23.4628 Y18.7711
G01 X-23.4343 Y18.7902
G01 X-23.4207 Y18.8007
G01 X-23.3952 Y18.8238
G01 X-23.3834 Y18.8363
G01 X-23.3616 Y18.8628
G01 X-23.3425 Y18.8914
G01 X-23.3340 Y18.9064
G01 X-23.3193 Y18.9374
G01 X-23.3132 Y18.9535
G01 X-23.3032 Y18.9863
G01 X-23.2965 Y19.0200
G01 X-23.2931 Y19.0542
G01 X-23.2931 Y19.0886
G01 X-23.2965 Y19.1228
G01 X-23.3032 Y19.1565
G01 X-23.3132 Y19.1894
G01 X-23.3263 Y19.2211
G01 X-23.3425 Y19.2515
G01 X-23.3616 Y19.2800
G01 X-23.3834 Y19.3066
G01 X-23.4077 Y19.3309
G01 X-23.4343 Y19.3527
G01 X-23.4628 Y19.3718
G01 X-23.4931 Y19.3880
G01 X-23.5249 Y19.4011
G01 X-23.5578 Y19.4111
G01 X-23.5915 Y19.4178
G01 X-23.6257 Y19.4212
G01 X-23.6429 Y19.4216
G01 X-24.9888 Y19.4216
G00 X-24.9888 Y19.4216
G01 F76.20
G01 Z-0.2836
G01 F150.00
G01 X-25.1497 Y19.5021
G01 X-25.2122 Y19.5646
G01 X-25.2927 Y19.7255
G01 X-25.2931 Y19.9458
G01 X-25.2944 Y19.9629
G01 X-25.2994 Y19.9969
G01 X-25.3032 Y20.0137
G01 X-25.3132 Y20.0465
G01 X-25.3193 Y20.0626
G01 X-25.3340 Y20.0936
G01 X-25.3425 Y20.1086
G01 X-25.3616 Y20.1372
G01 X-25.3722 Y20.1507
G01 X-25.3952 Y20.1762
G01 X-25.4077 Y20.1880
G01 X-25.4343 Y20.2098
G01 X-25.4628 Y20.2289
G01 X-25.4931 Y20.2451
G01 X-25.5249 Y20.2583
G01 X-25.5578 Y20.2683
G01 X-25.5915 Y20.2750
G01 X-25.6257 Y20.2783
G01 X-25.6600 Y20.2783
G01 X-25.6942 Y20.2750
G01 X-25.7279 Y20.2683
G01 X-25.7608 Y20.2583
G01 X-25.7926 Y20.2451
G01 X-25.8229 Y20.2289
G01 X-25.8515 Y20.2098
G01 X-25.8780 Y20.1880
G01 X-25.9023 Y20.1637
G01 X-25.9241 Y20.1372
G01 X-25.9432 Y20.1086
G01 X-25.9594 Y20.0783
G01 X-25.9664 Y20.0626
G01 X-25.9726 Y20.0465
G01 X-25.9825 Y20.0137
G01 X-25.9892 Y19.9800
G01 X-25.9926 Y19.9458
G01 X-25.9930 Y19.9286
G01 X-25.9926 Y19.6248
G01 X-25.9889 Y19.5890
G01 X-25.9856 Y19.5712
G01 X-25.9815 Y19.5537
G01 X-25.9705 Y19.5193
G01 X-25.9561 Y19.4863
G01 X-25.8783 Y19.3307
G01 X-25.9023 Y19.3066
G01 X-25.9135 Y19.2936
G01 X-25.9340 Y19.2660
G01 X-25.9517 Y19.2365
G01 X-25.9594 Y19.2211
G01 X-25.9726 Y19.1894
G01 X-25.9825 Y19.1565
G01 X-25.9892 Y19.1228
G01 X-25.9913 Y19.1058
G01 X-25.9930 Y19.0714
G01 X-25.9913 Y19.0371
G01 X-25.9863 Y19.0031
G01 X-25.9825 Y18.9863
G01 X-25.9780 Y18.9698
G01 X-25.9664 Y18.9374
G01 X-25.9517 Y18.9064
G01 X-25.9432 Y18.8914
G01 X-25.9241 Y18.8628
G01 X-25.9023 Y18.8363
G01 X-25.8780 Y18.8120
G01 X-25.8650 Y18.8007
G01 X-25.8374 Y18.7803
G01 X-25.8229 Y18.7711
G01 X-25.7926 Y18.7549
G01 X-25.7769 Y18.7479
G01 X-25.7445 Y18.7363
G01 X-25.7112 Y18.7280
G01 X-25.6772 Y18.7229
G01 X-25.6429 Y18.7213
G01 X-23.6429 Y18.7213
G01 X-23.6085 Y18.7229
G01 X-23.5915 Y18.7250
G01 X-23.5578 Y18.7317
G01 X-23.5412 Y18.7363
G01 X-23.5089 Y18.7479
G01 X-23.4931 Y18.7549
G01 X-23.4628 Y18.7711
G01 X-23.4343 Y18.7902
G01 X-23.4207 Y18.8007
G01 X-23.3952 Y18.8238
G01 X-23.3834 Y18.8363
G01 X-23.3616 Y18.8628
G01 X-23.3425 Y18.8914
G01 X-23.3340 Y18.9064
G01 X-23.3193 Y18.9374
G01 X-23.3132 Y18.9535
G01 X-23.3032 Y18.9863
G01 X-23.2965 Y19.0200
G01 X-23.2931 Y19.0542
G01 X-23.2931 Y19.0886
G01 X-23.2965 Y19.1228
G01 X-23.3032 Y19.1565
G01 X-23.3132 Y19.1894
G01 X-23.3263 Y19.2211
G01 X-23.3425 Y19.2515
G01 X-23.3616 Y19.2800
G01 X-23.3834 Y19.3066
G01 X-23.4077 Y19.3309
G01 X-23.4343 Y19.3527
G01 X-23.4628 Y19.3718
G01 X-23.4931 Y19.3880
G01 X-23.5249 Y19.4011
G01 X-23.5578 Y19.4111
G01 X-23.5915 Y19.4178
G01 X-23.6257 Y19.4212
G01 X-23.6429 Y19.4216
G01 X-24.9888 Y19.4216
G00 Z1.0000
G00 X-25.0700 Y21.1359
G01 F76.20
G01 Z-0.1000
G01 F150.00
G01 X-25.1316 Y21.1359
G01 X-25.2390 Y21.1896
G01 X-25.2927 Y21.2970
G01 X-25.2927 Y21.7030
G01 X-25.2390 Y21.8104
G01 X-25.2080 Y21.8259
G01 X-25.0700 Y21.1359
G00 X-25.0700 Y21.1359
G01 F76.20
G01 Z-0.2000
G01 F150.00
G01 X-25.1316 Y21.1359
G01 X-25.2390 Y21.1896
G01 X-25.2927 Y21.2970
G01 X-25.2927 Y21.7030
G01 X-25.2390 Y21.8104
G01 X-25.2080 Y21.8259
G01 X-25.0700 Y21.1359
G00 X-25.0700 Y21.1359
G01 F76.20
G01 Z-0.2836
G01 F150.00
G01 X-25.1316 Y21.1359
G01 X-25.2390 Y21.1896
G01 X-25.2927 Y21.2970
G01 X-25.2927 Y21.7030
G01 X-25.2390 Y21.8104
G01 X-25.2080 Y21.8259
G01 X-25.0700 Y21.1359
G00 Z1.0000
G00 X-23.9930 Y21.7030
G01 F76.20
G01 Z-0.1000
G01 F150.00
G01 X-23.9930 Y21.2970
G01 X-24.0467 Y21.1896
G01 X-24.1541 Y21.1359
G01 X-24.3558 Y21.1359
G01 X-24.5852 Y22.2830
G01 X-24.5936 Y22.3163
G01 X-24.6052 Y22.3486
G01 X-24.6199 Y22.3796
G01 X-24.6376 Y22.4091
G01 X-24.6580 Y22.4366
G01 X-24.6811 Y22.4620
G01 X-24.7066 Y22.4851
G01 X-24.7342 Y22.5055
G01 X-24.7636 Y22.5232
G01 X-24.7947 Y22.5378
G01 X-24.8270 Y22.5494
G01 X-24.8603 Y22.5577
G01 X-24.8943 Y22.5628
G01 X-24.9286 Y22.5645
G01 X-25.2143 Y22.5645
G01 X-25.2503 Y22.5626
G01 X-25.2682 Y22.5603
G01 X-25.3035 Y22.5529
G01 X-25.3208 Y22.5479
G01 X-25.3378 Y22.5419
G01 X-25.3709 Y22.5275
G01 X-25.6566 Y22.3846
G01 X-25.6868 Y22.3676
G01 X-25.7012 Y22.3580
G01 X-25.7286 Y22.3367
G01 X-25.7414 Y22.3251
G01 X-25.7653 Y22.3000
G01 X-25.7763 Y22.2866
G01 X-25.7962 Y22.2582
G01 X-25.8051 Y22.2433
G01 X-25.9637 Y21.9260
G01 X-25.9764 Y21.8922
G01 X-25.9856 Y21.8574
G01 X-25.9912 Y21.8217
G01 X-25.9930 Y21.7857
G01 X-25.9930 Y21.2143
G01 X-25.9912 Y21.1783
G01 X-25.9889 Y21.1604
G01 X-25.9815 Y21.1251
G01 X-25.9764 Y21.1078
G01 X-25.9705 Y21.0907
G01 X-25.9561 Y21.0577
G01 X-25.8051 Y20.7567
G01 X-25.7962 Y20.7418
G01 X-25.7763 Y20.7134
G01 X-25.7653 Y20.7000
G01 X-25.7414 Y20.6749
G01 X-25.7286 Y20.6633
G01 X-25.7012 Y20.6420
G01 X-25.6868 Y20.6324
G01 X-25.6566 Y20.6154
G01 X-25.3709 Y20.4725
G01 X-25.3546 Y20.4649
G01 X-25.3208 Y20.4521
G01 X-25.3035 Y20.4471
G01 X-25.2682 Y20.4397
G01 X-25.2503 Y20.4374
G01 X-25.2143 Y20.4355
G01 X-24.0714 Y20.4355
G01 X-24.0354 Y20.4374
G01 X-24.0175 Y20.4397
G01 X-23.9822 Y20.4471
G01 X-23.9649 Y20.4521
G01 X-23.9479 Y20.4581
G01 X-23.9148 Y20.4725
G01 X-23.6138 Y20.6235
G01 X-23.5845 Y20.6420
G01 X-23.5706 Y20.6523
G01 X-23.5443 Y20.6749
G01 X-23.5321 Y20.6872
G01 X-23.5204 Y20.7000
G01 X-23.4991 Y20.7274
G01 X-23.4895 Y20.7418
G01 X-23.4725 Y20.7720
G01 X-23.3220 Y21.0740
G01 X-23.3093 Y21.1078
G01 X-23.3001 Y21.1426
G01 X-23.2945 Y21.1783
G01 X-23.2927 Y21.2143
G01 X-23.2927 Y21.7857
G01 X-23.2945 Y21.8217
G01 X-23.2969 Y21.8396
G01 X-23.3042 Y21.8749
G01 X-23.3152 Y21.9093
G01 X-23.3297 Y21.9423
G01 X-23.4725 Y22.2280
G01 X-23.4894 Y22.2580
G01 X-23.4989 Y22.2723
G01 X-23.5199 Y22.2994
G01 X-23.5436 Y22.3244
G01 X-23.5695 Y22.3469
G01 X-23.5833 Y22.3572
G01 X-23.6123 Y22.3756
G01 X-23.6430 Y22.3912
G01 X-23.6750 Y22.4036
G01 X-23.7081 Y22.4129
G01 X-23.7419 Y22.4189
G01 X-23.7762 Y22.4215
G01 X-23.8105 Y22.4207
G01 X-23.8447 Y22.4166
G01 X-23.8782 Y22.4092
G01 X-23.9109 Y22.3985
G01 X-23.9423 Y22.3846
G01 X-23.9723 Y22.3678
G01 X-24.0004 Y22.3481
G01 X-24.0265 Y22.3257
G01 X-24.0503 Y22.3009
G01 X-24.0715 Y22.2738
G01 X-24.0899 Y22.2448
G01 X-24.1055 Y22.2142
G01 X-24.1179 Y22.1822
G01 X-24.1230 Y22.1657
G01 X-24.1306 Y22.1322
G01 X-24.1349 Y22.0981
G01 X-24.1358 Y22.0810
G01 X-24.1350 Y22.0466
G01 X-24.1309 Y22.0125
G01 X-24.1235 Y21.9789
G01 X-24.1185 Y21.9625
G01 X-24.1062 Y21.9304
G01 X-23.9930 Y21.7030
G00 X-23.9930 Y21.7030
G01 F76.20
G01 Z-0.2000
G01 F150.00
G01 X-23.9930 Y21.2970
G01 X-24.0467 Y21.1896
G01 X-24.1541 Y21.1359
G01 X-24.3558 Y21.1359
G01 X-24.5852 Y22.2830
G01 X-24.5936 Y22.3163
G01 X-24.6052 Y22.3486
G01 X-24.6199 Y22.3796
G01 X-24.6376 Y22.4091
G01 X-24.6580 Y22.4366
G01 X-24.6811 Y22.4620
G01 X-24.7066 Y22.4851
G01 X-24.7342 Y22.5055
G01 X-24.7636 Y22.5232
G01 X-24.7947 Y22.5378
G01 X-24.8270 Y22.5494
G01 X-24.8603 Y22.5577
G01 X-24.8943 Y22.5628
G01 X-24.9286 Y22.5645
G01 X-25.2143 Y22.5645
G01 X-25.2503 Y22.5626
G01 X-25.2682 Y22.5603
G01 X-25.3035 Y22.5529
G01 X-25.3208 Y22.5479
G01 X-25.3378 Y22.5419
G01 X-25.3709 Y22.5275
G01 X-25.6566 Y22.3846
G01 X-25.6868 Y22.3676
G01 X-25.7012 Y22.3580
G01 X-25.7286 Y22.3367
G01 X-25.7414 Y22.3251
G01 X-25.7653 Y22.3000
G01 X-25.7763 Y22.2866
G01 X-25.7962 Y22.2582
G01 X-25.8051 Y22.2433
G01 X-25.9637 Y21.9260
G01 X-25.9764 Y21.8922
G01 X-25.9856 Y21.8574
G01 X-25.9912 Y21.8217
G01 X-25.9930 Y21.7857
G01 X-25.9930 Y21.2143
G01 X-25.9912 Y21.1783
G01 X-25.9889 Y21.1604
G01 X-25.9815 Y21.1251
G01 X-25.9764 Y21.1078
G01 X-25.9705 Y21.0907
G01 X-25.9561 Y21.0577
G01 X-25.8051 Y20.7567
G01 X-25.7962 Y20.7418
G01 X-25.7763 Y20.7134
G01 X-25.7653 Y20.7000
G01 X-25.7414 Y20.6749
G01 X-25.7286 Y20.6633
G01 X-25.7012 Y20.6420
G01 X-25.6868 Y20.6324
G01 X-25.6566 Y20.6154
G01 X-25.3709 Y20.4725
G01 X-25.3546 Y20.4649
G01 X-25.3208 Y20.4521
G01 X-25.3035 Y20.4471
G01 X-25.2682 Y20.4397
G01 X-25.2503 Y20.4374
G01 X-25.2143 Y20.4355
G01 X-24.0714 Y20.4355
G01 X-24.0354 Y20.4374
G01 X-24.0175 Y20.4397
G01 X-23.9822 Y20.4471
G01 X-23.9649 Y20.4521
G01 X-23.9479 Y20.4581
G01 X-23.9148 Y20.4725
G01 X-23.6138 Y20.6235
G01 X-23.5845 Y20.6420
G01 X-23.5706 Y20.6523
G01 X-23.5443 Y20.6749
G01 X-23.5321 Y20.6872
G01 X-23.5204 Y20.7000
G01 X-23.4991 Y20.7274
G01 X-23.4895 Y20.7418
G01 X-23.4725 Y20.7720
G01 X-23.3220 Y21.0740
G01 X-23.3093 Y21.1078
G01 X-23.3001 Y21.1426
G01 X-23.2945 Y21.1783
G01 X-23.2927 Y21.2143
G01 X-23.2927 Y21.7857
G01 X-23.2945 Y21.8217
G01 X-23.2969 Y21.8396
G01 X-23.3042 Y21.8749
G01 X-23.3152 Y21.9093
G01 X-23.3297 Y21.9423
G01 X-23.4725 Y22.2280
G01 X-23.4894 Y22.2580
G01 X-23.4989 Y22.2723
G01 X-23.5199 Y22.2994
G01 X-23.5436 Y22.3244
G01 X-23.5695 Y22.3469
G01 X-23.5833 Y22.3572
G01 X-23.6123 Y22.3756
G01 X-23.6430 Y22.3912
G01 X-23.6750 Y22.4036
G01 X-23.7081 Y22.4129
G01 X-23.7419 Y22.4189
G01 X-23.7762 Y22.4215
G01 X-23.8105 Y22.4207
G01 X-23.8447 Y22.4166
G01 X-23.8782 Y22.4092
G01 X-23.9109 Y22.3985
G01 X-23.9423 Y22.3846
G01 X-23.9723 Y22.3678
G01 X-24.0004 Y22.3481
G01 X-24.0265 Y22.3257
G01 X-24.0503 Y22.3009
G01 X-24.0715 Y22.2738
G01 X-24.0899 Y22.2448
G01 X-24.1055 Y22.2142
G01 X-24.1179 Y22.1822
G01 X-24.1230 Y22.1657
G01 X-24.1306 Y22.1322
G01 X-24.1349 Y22.0981
G01 X-24.1358 Y22.0810
G01 X-24.1350 Y22.0466
G01 X-24.1309 Y22.0125
G01 X-24.1235 Y21.9789
G01 X-24.1185 Y21.9625
G01 X-24.1062 Y21.9304
G01 X-23.9930 Y21.7030
G00 X-23.9930 Y21.7030
G01 F76.20
G01 Z-0.2836
G01 F150.00
G01 X-23.9930 Y21.2970
G01 X-24.0467 Y21.1896
G01 X-24.1541 Y21.1359
G01 X-24.3558 Y21.1359
G01 X-24.5852 Y22.2830
G01 X-24.5936 Y22.3163
G01 X-24.6052 Y22.3486
G01 X-24.6199 Y22.3796
G01 X-24.6376 Y22.4091
G01 X-24.6580 Y22.4366
G01 X-24.6811 Y22.4620
G01 X-24.7066 Y22.4851
G01 X-24.7342 Y22.5055
G01 X-24.7636 Y22.5232
G01 X-24.7947 Y22.5378
G01 X-24.8270 Y22.5494
G01 X-24.8603 Y22.5577
G01 X-24.8943 Y22.5628
G01 X-24.9286 Y22.5645
G01 X-25.2143 Y22.5645
G01 X-25.2503 Y22.5626
G01 X-25.2682 Y22.5603
G01 X-25.3035 Y22.5529
G01 X-25.3208 Y22.5479
G01 X-25.3378 Y22.5419
G01 X-25.3709 Y22.5275
G01 X-25.6566 Y22.3846
G01 X-25.6868 Y22.3676
G01 X-25.7012 Y22.3580
G01 X-25.7286 Y22.3367
G01 X-25.7414 Y22.3251
G01 X-25.7653 Y22.3000
G01 X-25.7763 Y22.2866
G01 X-25.7962 Y22.2582
G01 X-25.8051 Y22.2433
G01 X-25.9637 Y21.9260
G01 X-25.9764 Y21.8922
G01 X-25.9856 Y21.8574
G01 X-25.9912 Y21.8217
G01 X-25.9930 Y21.7857
G01 X-25.9930 Y21.2143
G01 X-25.9912 Y21.1783
G01 X-25.9889 Y21.1604
G01 X-25.9815 Y21.1251
G01 X-25.9764 Y21.1078
G01 X-25.9705 Y21.0907
G01 X-25.9561 Y21.0577
G01 X-25.8051 Y20.7567
G01 X-25.7962 Y20.7418
G01 X-25.7763 Y20.7134
G01 X-25.7653 Y20.7000
G01 X-25.7414 Y20.6749
G01 X-25.7286 Y20.6633
G01 X-25.7012 Y20.6420
G01 X-25.6868 Y20.6324
G01 X-25.6566 Y20.6154
G01 X-25.3709 Y20.4725
G01 X-25.3546 Y20.4649
G01 X-25.3208 Y20.4521
G01 X-25.3035 Y20.4471
G01 X-25.2682 Y20.4397
G01 X-25.2503 Y20.4374
G01 X-25.2143 Y20.4355
G01 X-24.0714 Y20.4355
G01 X-24.0354 Y20.4374
G01 X-24.0175 Y20.4397
G01 X-23.9822 Y20.4471
G01 X-23.9649 Y20.4521
G01 X-23.9479 Y20.4581
G01 X-23.9148 Y20.4725
G01 X-23.6138 Y20.6235
G01 X-23.5845 Y20.6420
G01 X-23.5706 Y20.6523
G01 X-23.5443 Y20.6749
G01 X-23.5321 Y20.6872
G01 X-23.5204 Y20.7000
G01 X-23.4991 Y20.7274
G01 X-23.4895 Y20.7418
G01 X-23.4725 Y20.7720
G01 X-23.3220 Y21.0740
G01 X-23.3093 Y21.1078
G01 X-23.3001 Y21.1426
G01 X-23.2945 Y21.1783
G01 X-23.2927 Y21.2143
G01 X-23.2927 Y21.7857
G01 X-23.2945 Y21.8217
G01 X-23.2969 Y21.8396
G01 X-23.3042 Y21.8749
G01 X-23.3152 Y21.9093
G01 X-23.3297 Y21.9423
G01 X-23.4725 Y22.2280
G01 X-23.4894 Y22.2580
G01 X-23.4989 Y22.2723
G01 X-23.5199 Y22.2994
G01 X-23.5436 Y22.3244
G01 X-23.5695 Y22.3469
G01 X-23.5833 Y22.3572
G01 X-23.6123 Y22.3756
G01 X-23.6430 Y22.3912
G01 X-23.6750 Y22.4036
G01 X-23.7081 Y22.4129
G01 X-23.7419 Y22.4189
G01 X-23.7762 Y22.4215
G01 X-23.8105 Y22.4207
G01 X-23.8447 Y22.4166
G01 X-23.8782 Y22.4092
G01 X-23.9109 Y22.3985
G01 X-23.9423 Y22.3846
G01 X-23.9723 Y22.3678
G01 X-24.0004 Y22.3481
G01 X-24.0265 Y22.3257
G01 X-24.0503 Y22.3009
G01 X-24.0715 Y22.2738
G01 X-24.0899 Y22.2448
G01 X-24.1055 Y22.2142
G01 X-24.1179 Y22.1822
G01 X-24.1230 Y22.1657
G01 X-24.1306 Y22.1322
G01 X-24.1349 Y22.0981
G01 X-24.1358 Y22.0810
G01 X-24.1350 Y22.0466
G01 X-24.1309 Y22.0125
G01 X-24.1235 Y21.9789
G01 X-24.1185 Y21.9625
G01 X-24.1062 Y21.9304
G01 X-23.9930 Y21.7030
G00 Z1.0000
G00 X-25.0700 Y23.7073
G01 F76.20
G01 Z-0.1000
G01 F150.00
G01 X-25.1316 Y23.7073
G01 X-25.2390 Y23.7610
G01 X-25.2927 Y23.8684
G01 X-25.2927 Y24.2745
G01 X-25.2390 Y24.3819
G01 X-25.2080 Y24.3973
G01 X-25.0700 Y23.7073
G00 X-25.0700 Y23.7073
G01 F76.20
G01 Z-0.2000
G01 F150.00
G01 X-25.1316 Y23.7073
G01 X-25.2390 Y23.7610
G01 X-25.2927 Y23.8684
G01 X-25.2927 Y24.2745
G01 X-25.2390 Y24.3819
G01 X-25.2080 Y24.3973
G01 X-25.0700 Y23.7073
G00 X-25.0700 Y23.7073
G01 F76.20
G01 Z-0.2836
G01 F150.00
G01 X-25.1316 Y23.7073
G01 X-25.2390 Y23.7610
G01 X-25.2927 Y23.8684
G01 X-25.2927 Y24.2745
G01 X-25.2390 Y24.3819
G01 X-25.2080 Y24.3973
G01 X-25.0700 Y23.7073
G00 Z1.0000
G00 X-23.9930 Y24.2745
G01 F76.20
G01 Z-0.1000
G01 F150.00
G01 X-23.9930 Y23.8684
G01 X-24.0467 Y23.7610
G01 X-24.1541 Y23.7073
G01 X-24.3558 Y23.7073
G01 X-24.5852 Y24.8544
G01 X-24.5936 Y24.8877
G01 X-24.6052 Y24.9200
G01 X-24.6199 Y24.9510
G01 X-24.6376 Y24.9805
G01 X-24.6580 Y25.0080
G01 X-24.6811 Y25.0335
G01 X-24.7066 Y25.0565
G01 X-24.7342 Y25.0770
G01 X-24.7636 Y25.0946
G01 X-24.7947 Y25.1093
G01 X-24.8270 Y25.1208
G01 X-24.8603 Y25.1292
G01 X-24.8943 Y25.1342
G01 X-24.9286 Y25.1359
G01 X-25.2143 Y25.1359
G01 X-25.2503 Y25.1340
G01 X-25.2682 Y25.1317
G01 X-25.3035 Y25.1243
G01 X-25.3208 Y25.1193
G01 X-25.3378 Y25.1134
G01 X-25.3709 Y25.0989
G01 X-25.6566 Y24.9561
G01 X-25.6719 Y24.9479
G01 X-25.7012 Y24.9294
G01 X-25.7286 Y24.9082
G01 X-25.7414 Y24.8965
G01 X-25.7537 Y24.8843
G01 X-25.7763 Y24.8580
G01 X-25.7866 Y24.8441
G01 X-25.8051 Y24.8148
G01 X-25.9637 Y24.4974
G01 X-25.9764 Y24.4637
G01 X-25.9856 Y24.4288
G01 X-25.9912 Y24.3932
G01 X-25.9930 Y24.3571
G01 X-25.9930 Y23.7857
G01 X-25.9912 Y23.7497
G01 X-25.9889 Y23.7318
G01 X-25.9815 Y23.6965
G01 X-25.9764 Y23.6792
G01 X-25.9705 Y23.6622
G01 X-25.9561 Y23.6291
G01 X-25.8132 Y23.3434
G01 X-25.8051 Y23.3281
G01 X-25.7866 Y23.2988
G01 X-25.7653 Y23.2714
G01 X-25.7537 Y23.2586
G01 X-25.7414 Y23.2463
G01 X-25.7152 Y23.2237
G01 X-25.7012 Y23.2134
G01 X-25.6719 Y23.1949
G01 X-25.3709 Y23.0439
G01 X-25.3546 Y23.0363
G01 X-25.3208 Y23.0236
G01 X-25.3035 Y23.0185
G01 X-25.2682 Y23.0111
G01 X-25.2503 Y23.0088
G01 X-25.2143 Y23.0070
G01 X-24.0714 Y23.0070
G01 X-24.0354 Y23.0088
G01 X-24.0175 Y23.0111
G01 X-23.9822 Y23.0185
G01 X-23.9649 Y23.0236
G01 X-23.9479 Y23.0295
G01 X-23.9148 Y23.0439
G01 X-23.6138 Y23.1949
G01 X-23.5989 Y23.2038
G01 X-23.5706 Y23.2237
G01 X-23.5572 Y23.2347
G01 X-23.5321 Y23.2586
G01 X-23.5204 Y23.2714
G01 X-23.4991 Y23.2988
G01 X-23.4895 Y23.3132
G01 X-23.4725 Y23.3434
G01 X-23.3220 Y23.6454
G01 X-23.3093 Y23.6792
G01 X-23.3001 Y23.7141
G01 X-23.2945 Y23.7497
G01 X-23.2927 Y23.7857
G01 X-23.2927 Y24.3571
G01 X-23.2945 Y24.3932
G01 X-23.2969 Y24.4110
G01 X-23.3042 Y24.4463
G01 X-23.3152 Y24.4807
G01 X-23.3297 Y24.5137
G01 X-23.4725 Y24.7995
G01 X-23.4894 Y24.8294
G01 X-23.5091 Y24.8576
G01 X-23.5199 Y24.8709
G01 X-23.5436 Y24.8958
G01 X-23.5563 Y24.9074
G01 X-23.5833 Y24.9286
G01 X-23.6123 Y24.9471
G01 X-23.6429 Y24.9626
G01 X-23.6750 Y24.9751
G01 X-23.7081 Y24.9843
G01 X-23.7419 Y24.9903
G01 X-23.7762 Y24.9929
G01 X-23.8105 Y24.9922
G01 X-23.8447 Y24.9880
G01 X-23.8782 Y24.9806
G01 X-23.9109 Y24.9699
G01 X-23.9423 Y24.9561
G01 X-23.9723 Y24.9392
G01 X-24.0004 Y24.9195
G01 X-24.0265 Y24.8971
G01 X-24.0503 Y24.8723
G01 X-24.0715 Y24.8453
G01 X-24.0899 Y24.8163
G01 X-24.1055 Y24.7856
G01 X-24.1179 Y24.7536
G01 X-24.1272 Y24.7205
G01 X-24.1306 Y24.7037
G01 X-24.1349 Y24.6696
G01 X-24.1358 Y24.6352
G01 X-24.1334 Y24.6009
G01 X-24.1309 Y24.5839
G01 X-24.1235 Y24.5504
G01 X-24.1185 Y24.5339
G01 X-24.1062 Y24.5018
G01 X-23.9930 Y24.2745
G00 X-23.9930 Y24.2745
G01 F76.20
G01 Z-0.2000
G01 F150.00
G01 X-23.9930 Y23.8684
G01 X-24.0467 Y23.7610
G01 X-24.1541 Y23.7073
G01 X-24.3558 Y23.7073
G01 X-24.5852 Y24.8544
G01 X-24.5936 Y24.8877
G01 X-24.6052 Y24.9200
G01 X-24.6199 Y24.9510
G01 X-24.6376 Y24.9805
G01 X-24.6580 Y25.0080
G01 X-24.6811 Y25.0335
G01 X-24.7066 Y25.0565
G01 X-24.7342 Y25.0770
G01 X-24.7636 Y25.0946
G01 X-24.7947 Y25.1093
G01 X-24.8270 Y25.1208
G01 X-24.8603 Y25.1292
G01 X-24.8943 Y25.1342
G01 X-24.9286 Y25.1359
G01 X-25.2143 Y25.1359
G01 X-25.2503 Y25.1340
G01 X-25.2682 Y25.1317
G01 X-25.3035 Y25.1243
G01 X-25.3208 Y25.1193
G01 X-25.3378 Y25.1134
G01 X-25.3709 Y25.0989
G01 X-25.6566 Y24.9561
G01 X-25.6719 Y24.9479
G01 X-25.7012 Y24.9294
G01 X-25.7286 Y24.9082
G01 X-25.7414 Y24.8965
G01 X-25.7537 Y24.8843
G01 X-25.7763 Y24.8580
G01 X-25.7866 Y24.8441
G01 X-25.8051 Y24.8148
G01 X-25.9637 Y24.4974
G01 X-25.9764 Y24.4637
G01 X-25.9856 Y24.4288
G01 X-25.9912 Y24.3932
G01 X-25.9930 Y24.3571
G01 X-25.9930 Y23.7857
G01 X-25.9912 Y23.7497
G01 X-25.9889 Y23.7318
G01 X-25.9815 Y23.6965
G01 X-25.9764 Y23.6792
G01 X-25.9705 Y23.6622
G01 X-25.9561 Y23.6291
G01 X-25.8132 Y23.3434
G01 X-25.8051 Y23.3281
G01 X-25.7866 Y23.2988
G01 X-25.7653 Y23.2714
G01 X-25.7537 Y23.2586
G01 X-25.7414 Y23.2463
G01 X-25.7152 Y23.2237
G01 X-25.7012 Y23.2134
G01 X-25.6719 Y23.1949
G01 X-25.3709 Y23.0439
G01 X-25.3546 Y23.0363
G01 X-25.3208 Y23.0236
G01 X-25.3035 Y23.0185
G01 X-25.2682 Y23.0111
G01 X-25.2503 Y23.0088
G01 X-25.2143 Y23.0070
G01 X-24.0714 Y23.0070
G01 X-24.0354 Y23.0088
G01 X-24.0175 Y23.0111
G01 X-23.9822 Y23.0185
G01 X-23.9649 Y23.0236
G01 X-23.9479 Y23.0295
G01 X-23.9148 Y23.0439
G01 X-23.6138 Y23.1949
G01 X-23.5989 Y23.2038
G01 X-23.5706 Y23.2237
G01 X-23.5572 Y23.2347
G01 X-23.5321 Y23.2586
G01 X-23.5204 Y23.2714
G01 X-23.4991 Y23.2988
G01 X-23.4895 Y23.3132
G01 X-23.4725 Y23.3434
G01 X-23.3220 Y23.6454
G01 X-23.3093 Y23.6792
G01 X-23.3001 Y23.7141
G01 X-23.2945 Y23.7497
G01 X-23.2927 Y23.7857
G01 X-23.2927 Y24.3571
G01 X-23.2945 Y24.3932
G01 X-23.2969 Y24.4110
G01 X-23.3042 Y24.4463
G01 X-23.3152 Y24.4807
G01 X-23.3297 Y24.5137
G01 X-23.4725 Y24.7995
G01 X-23.4894 Y24.8294
G01 X-23.5091 Y24.8576
G01 X-23.5199 Y24.8709
G01 X-23.5436 Y24.8958
G01 X-23.5563 Y24.9074
G01 X-23.5833 Y24.9286
G01 X-23.6123 Y24.9471
G01 X-23.6429 Y24.9626
G01 X-23.6750 Y24.9751
G01 X-23.7081 Y24.9843
G01 X-23.7419 Y24.9903
G01 X-23.7762 Y24.9929
G01 X-23.8105 Y24.9922
G01 X-23.8447 Y24.9880
G01 X-23.8782 Y24.9806
G01 X-23.9109 Y24.9699
G01 X-23.9423 Y24.9561
G01 X-23.9723 Y24.9392
G01 X-24.0004 Y24.9195
G01 X-24.0265 Y24.8971
G01 X-24.0503 Y24.8723
G01 X-24.0715 Y24.8453
G01 X-24.0899 Y24.8163
G01 X-24.1055 Y24.7856
G01 X-24.1179 Y24.7536
G01 X-24.1272 Y24.7205
G01 X-24.1306 Y24.7037
G01 X-24.1349 Y24.6696
G01 X-24.1358 Y24.6352
G01 X-24.1334 Y24.6009
G01 X-24.1309 Y24.5839
G01 X-24.1235 Y24.5504
G01 X-24.1185 Y24.5339
G01 X-24.1062 Y24.5018
G01 X-23.9930 Y24.2745
G00 X-23.9930 Y24.2745
G01 F76.20
G01 Z-0.2836
G01 F150.00
G01 X-23.9930 Y23.8684
G01 X-24.0467 Y23.7610
G01 X-24.1541 Y23.7073
G01 X-24.3558 Y23.7073
G01 X-24.5852 Y24.8544
G01 X-24.5936 Y24.8877
G01 X-24.6052 Y24.9200
G01 X-24.6199 Y24.9510
G01 X-24.6376 Y24.9805
G01 X-24.6580 Y25.0080
G01 X-24.6811 Y25.0335
G01 X-24.7066 Y25.0565
G01 X-24.7342 Y25.0770
G01 X-24.7636 Y25.0946
G01 X-24.7947 Y25.1093
G01 X-24.8270 Y25.1208
G01 X-24.8603 Y25.1292
G01 X-24.8943 Y25.1342
G01 X-24.9286 Y25.1359
G01 X-25.2143 Y25.1359
G01 X-25.2503 Y25.1340
G01 X-25.2682 Y25.1317
G01 X-25.3035 Y25.1243
G01 X-25.3208 Y25.1193
G01 X-25.3378 Y25.1134
G01 X-25.3709 Y25.0989
G01 X-25.6566 Y24.9561
G01 X-25.6719 Y24.9479
G01 X-25.7012 Y24.9294
G01 X-25.7286 Y24.9082
G01 X-25.7414 Y24.8965
G01 X-25.7537 Y24.8843
G01 X-25.7763 Y24.8580
G01 X-25.7866 Y24.8441
G01 X-25.8051 Y24.8148
G01 X-25.9637 Y24.4974
G01 X-25.9764 Y24.4637
G01 X-25.9856 Y24.4288
G01 X-25.9912 Y24.3932
G01 X-25.9930 Y24.3571
G01 X-25.9930 Y23.7857
G01 X-25.9912 Y23.7497
G01 X-25.9889 Y23.7318
G01 X-25.9815 Y23.6965
G01 X-25.9764 Y23.6792
G01 X-25.9705 Y23.6622
G01 X-25.9561 Y23.6291
G01 X-25.8132 Y23.3434
G01 X-25.8051 Y23.3281
G01 X-25.7866 Y23.2988
G01 X-25.7653 Y23.2714
G01 X-25.7537 Y23.2586
G01 X-25.7414 Y23.2463
G01 X-25.7152 Y23.2237
G01 X-25.7012 Y23.2134
G01 X-25.6719 Y23.1949
G01 X-25.3709 Y23.0439
G01 X-25.3546 Y23.0363
G01 X-25.3208 Y23.0236
G01 X-25.3035 Y23.0185
G01 X-25.2682 Y23.0111
G01 X-25.2503 Y23.0088
G01 X-25.2143 Y23.0070
G01 X-24.0714 Y23.0070
G01 X-24.0354 Y23.0088
G01 X-24.0175 Y23.0111
G01 X-23.9822 Y23.0185
G01 X-23.9649 Y23.0236
G01 X-23.9479 Y23.0295
G01 X-23.9148 Y23.0439
G01 X-23.6138 Y23.1949
G01 X-23.5989 Y23.2038
G01 X-23.5706 Y23.2237
G01 X-23.5572 Y23.2347
G01 X-23.5321 Y23.2586
G01 X-23.5204 Y23.2714
G01 X-23.4991 Y23.2988
G01 X-23.4895 Y23.3132
G01 X-23.4725 Y23.3434
G01 X-23.3220 Y23.6454
G01 X-23.3093 Y23.6792
G01 X-23.3001 Y23.7141
G01 X-23.2945 Y23.7497
G01 X-23.2927 Y23.7857
G01 X-23.2927 Y24.3571
G01 X-23.2945 Y24.3932
G01 X-23.2969 Y24.4110
G01 X-23.3042 Y24.4463
G01 X-23.3152 Y24.4807
G01 X-23.3297 Y24.5137
G01 X-23.4725 Y24.7995
G01 X-23.4894 Y24.8294
G01 X-23.5091 Y24.8576
G01 X-23.5199 Y24.8709
G01 X-23.5436 Y24.8958
G01 X-23.5563 Y24.9074
G01 X-23.5833 Y24.9286
G01 X-23.6123 Y24.9471
G01 X-23.6429 Y24.9626
G01 X-23.6750 Y24.9751
G01 X-23.7081 Y24.9843
G01 X-23.7419 Y24.9903
G01 X-23.7762 Y24.9929
G01 X-23.8105 Y24.9922
G01 X-23.8447 Y24.9880
G01 X-23.8782 Y24.9806
G01 X-23.9109 Y24.9699
G01 X-23.9423 Y24.9561
G01 X-23.9723 Y24.9392
G01 X-24.0004 Y24.9195
G01 X-24.0265 Y24.8971
G01 X-24.0503 Y24.8723
G01 X-24.0715 Y24.8453
G01 X-24.0899 Y24.8163
G01 X-24.1055 Y24.7856
G01 X-24.1179 Y24.7536
G01 X-24.1272 Y24.7205
G01 X-24.1306 Y24.7037
G01 X-24.1349 Y24.6696
G01 X-24.1358 Y24.6352
G01 X-24.1334 Y24.6009
G01 X-24.1309 Y24.5839
G01 X-24.1235 Y24.5504
G01 X-24.1185 Y24.5339
G01 X-24.1062 Y24.5018
G01 X-23.9930 Y24.2745
G00 Z1.0000
G00 X-23.6429 Y25.7213
G01 F76.20
G01 Z-0.1000
G01 F150.00
G01 X-23.6257 Y25.7217
G01 X-23.5915 Y25.7250
G01 X-23.5578 Y25.7317
G01 X-23.5412 Y25.7363
G01 X-23.5089 Y25.7479
G01 X-23.4931 Y25.7549
G01 X-23.4628 Y25.7711
G01 X-23.4343 Y25.7902
G01 X-23.4077 Y25.8120
G01 X-23.3952 Y25.8238
G01 X-23.3722 Y25.8493
G01 X-23.3616 Y25.8628
G01 X-23.3425 Y25.8914
G01 X-23.3263 Y25.9217
G01 X-23.3132 Y25.9535
G01 X-23.3078 Y25.9698
G01 X-23.2994 Y26.0031
G01 X-23.2944 Y26.0371
G01 X-23.2931 Y26.0542
G01 X-23.2931 Y26.0886
G01 X-23.2944 Y26.1058
G01 X-23.2994 Y26.1397
G01 X-23.3032 Y26.1565
G01 X-23.3132 Y26.1894
G01 X-23.3193 Y26.2054
G01 X-23.3340 Y26.2365
G01 X-23.3517 Y26.2660
G01 X-23.3616 Y26.2800
G01 X-23.3834 Y26.3066
G01 X-23.4077 Y26.3309
G01 X-23.4207 Y26.3421
G01 X-23.4483 Y26.3626
G01 X-23.4628 Y26.3718
G01 X-23.4931 Y26.3880
G01 X-23.5249 Y26.4011
G01 X-23.5578 Y26.4111
G01 X-23.5745 Y26.4149
G01 X-23.6085 Y26.4199
G01 X-23.6257 Y26.4212
G01 X-25.2121 Y26.4216
G01 X-25.2927 Y26.5827
G01 X-25.2927 Y26.8459
G01 X-25.2390 Y26.9533
G01 X-25.1316 Y27.0070
G01 X-23.6429 Y27.0070
G01 X-23.6085 Y27.0087
G01 X-23.5745 Y27.0137
G01 X-23.5412 Y27.0220
G01 X-23.5089 Y27.0336
G01 X-23.4931 Y27.0406
G01 X-23.4628 Y27.0568
G01 X-23.4343 Y27.0759
G01 X-23.4077 Y27.0977
G01 X-23.3952 Y27.1095
G01 X-23.3722 Y27.1350
G01 X-23.3616 Y27.1485
G01 X-23.3425 Y27.1771
G01 X-23.3263 Y27.2074
G01 X-23.3193 Y27.2231
G01 X-23.3132 Y27.2392
G01 X-23.3032 Y27.2721
G01 X-23.2965 Y27.3058
G01 X-23.2944 Y27.3228
G01 X-23.2927 Y27.3571
G01 X-23.2944 Y27.3915
G01 X-23.2994 Y27.4255
G01 X-23.3032 Y27.4422
G01 X-23.3078 Y27.4588
G01 X-23.3193 Y27.4911
G01 X-23.3340 Y27.5222
G01 X-23.3517 Y27.5517
G01 X-23.3616 Y27.5657
G01 X-23.3834 Y27.5923
G01 X-23.4077 Y27.6166
G01 X-23.4207 Y27.6278
G01 X-23.4483 Y27.6483
G01 X-23.4628 Y27.6575
G01 X-23.4931 Y27.6737
G01 X-23.5249 Y27.6868
G01 X-23.5412 Y27.6922
G01 X-23.5745 Y27.7006
G01 X-23.6085 Y27.7056
G01 X-23.6257 Y27.7069
G01 X-25.2143 Y27.7073
G01 X-25.2503 Y27.7055
G01 X-25.2682 Y27.7031
G01 X-25.3035 Y27.6958
G01 X-25.3378 Y27.6848
G01 X-25.3546 Y27.6780
G01 X-25.6566 Y27.5275
G01 X-25.6868 Y27.5105
G01 X-25.7152 Y27.4906
G01 X-25.7286 Y27.4796
G01 X-25.7537 Y27.4557
G01 X-25.7763 Y27.4294
G01 X-25.7962 Y27.4011
G01 X-25.8132 Y27.3709
G01 X-25.9637 Y27.0688
G01 X-25.9764 Y27.0351
G01 X-25.9815 Y27.0178
G01 X-25.9889 Y26.9825
G01 X-25.9926 Y26.9466
G01 X-25.9930 Y26.5000
G01 X-25.9912 Y26.4640
G01 X-25.9856 Y26.4284
G01 X-25.9815 Y26.4108
G01 X-25.9705 Y26.3764
G01 X-25.9561 Y26.3434
G01 X-25.9243 Y26.2798
G01 X-25.9432 Y26.2515
G01 X-25.9594 Y26.2211
G01 X-25.9726 Y26.1894
G01 X-25.9825 Y26.1565
G01 X-25.9863 Y26.1397
G01 X-25.9913 Y26.1058
G01 X-25.9930 Y26.0714
G01 X-25.9913 Y26.0371
G01 X-25.9863 Y26.0031
G01 X-25.9780 Y25.9698
G01 X-25.9664 Y25.9374
G01 X-25.9517 Y25.9064
G01 X-25.9340 Y25.8769
G01 X-25.9135 Y25.8493
G01 X-25.8905 Y25.8238
G01 X-25.8650 Y25.8007
G01 X-25.8374 Y25.7803
G01 X-25.8229 Y25.7711
G01 X-25.7926 Y25.7549
G01 X-25.7608 Y25.7417
G01 X-25.7445 Y25.7363
G01 X-25.7112 Y25.7280
G01 X-25.6772 Y25.7229
G01 X-25.6600 Y25.7217
G01 X-23.6429 Y25.7213
G00 X-23.6429 Y25.7213
G01 F76.20
G01 Z-0.2000
G01 F150.00
G01 X-23.6257 Y25.7217
G01 X-23.5915 Y25.7250
G01 X-23.5578 Y25.7317
G01 X-23.5412 Y25.7363
G01 X-23.5089 Y25.7479
G01 X-23.4931 Y25.7549
G01 X-23.4628 Y25.7711
G01 X-23.4343 Y25.7902
G01 X-23.4077 Y25.8120
G01 X-23.3952 Y25.8238
G01 X-23.3722 Y25.8493
G01 X-23.3616 Y25.8628
G01 X-23.3425 Y25.8914
G01 X-23.3263 Y25.9217
G01 X-23.3132 Y25.9535
G01 X-23.3078 Y25.9698
G01 X-23.2994 Y26.0031
G01 X-23.2944 Y26.0371
G01 X-23.2931 Y26.0542
G01 X-23.2931 Y26.0886
G01 X-23.2944 Y26.1058
G01 X-23.2994 Y26.1397
G01 X-23.3032 Y26.1565
G01 X-23.3132 Y26.1894
G01 X-23.3193 Y26.2054
G01 X-23.3340 Y26.2365
G01 X-23.3517 Y26.2660
G01 X-23.3616 Y26.2800
G01 X-23.3834 Y26.3066
G01 X-23.4077 Y26.3309
G01 X-23.4207 Y26.3421
G01 X-23.4483 Y26.3626
G01 X-23.4628 Y26.3718
G01 X-23.4931 Y26.3880
G01 X-23.5249 Y26.4011
G01 X-23.5578 Y26.4111
G01 X-23.5745 Y26.4149
G01 X-23.6085 Y26.4199
G01 X-23.6257 Y26.4212
G01 X-25.2121 Y26.4216
G01 X-25.2927 Y26.5827
G01 X-25.2927 Y26.8459
G01 X-25.2390 Y26.9533
G01 X-25.1316 Y27.0070
G01 X-23.6429 Y27.0070
G01 X-23.6085 Y27.0087
G01 X-23.5745 Y27.0137
G01 X-23.5412 Y27.0220
G01 X-23.5089 Y27.0336
G01 X-23.4931 Y27.0406
G01 X-23.4628 Y27.0568
G01 X-23.4343 Y27.0759
G01 X-23.4077 Y27.0977
G01 X-23.3952 Y27.1095
G01 X-23.3722 Y27.1350
G01 X-23.3616 Y27.1485
G01 X-23.3425 Y27.1771
G01 X-23.3263 Y27.2074
G01 X-23.3193 Y27.2231
G01 X-23.3132 Y27.2392
G01 X-23.3032 Y27.2721
G01 X-23.2965 Y27.3058
G01 X-23.2944 Y27.3228
G01 X-23.2927 Y27.3571
G01 X-23.2944 Y27.3915
G01 X-23.2994 Y27.4255
G01 X-23.3032 Y27.4422
G01 X-23.3078 Y27.4588
G01 X-23.3193 Y27.4911
G01 X-23.3340 Y27.5222
G01 X-23.3517 Y27.5517
G01 X-23.3616 Y27.5657
G01 X-23.3834 Y27.5923
G01 X-23.4077 Y27.6166
G01 X-23.4207 Y27.6278
G01 X-23.4483 Y27.6483
G01 X-23.4628 Y27.6575
G01 X-23.4931 Y27.6737
G01 X-23.5249 Y27.6868
G01 X-23.5412 Y27.6922
G01 X-23.5745 Y27.7006
G01 X-23.6085 Y27.7056
G01 X-23.6257 Y27.7069
G01 X-25.2143 Y27.7073
G01 X-25.2503 Y27.7055
G01 X-25.2682 Y27.7031
G01 X-25.3035 Y27.6958
G01 X-25.3378 Y27.6848
G01 X-25.3546 Y27.6780
G01 X-25.6566 Y27.5275
G01 X-25.6868 Y27.5105
G01 X-25.7152 Y27.4906
G01 X-25.7286 Y27.4796
G01 X-25.7537 Y27.4557
G01 X-25.7763 Y27.4294
G01 X-25.7962 Y27.4011
G01 X-25.8132 Y27.3709
G01 X-25.9637 Y27.0688
G01 X-25.9764 Y27.0351
G01 X-25.9815 Y27.0178
G01 X-25.9889 Y26.9825
G01 X-25.9926 Y26.9466
G01 X-25.9930 Y26.5000
G01 X-25.9912 Y26.4640
G01 X-25.9856 Y26.4284
G01 X-25.9815 Y26.4108
G01 X-25.9705 Y26.3764
G01 X-25.9561 Y26.3434
G01 X-25.9243 Y26.2798
G01 X-25.9432 Y26.2515
G01 X-25.9594 Y26.2211
G01 X-25.9726 Y26.1894
G01 X-25.9825 Y26.1565
G01 X-25.9863 Y26.1397
G01 X-25.9913 Y26.1058
G01 X-25.9930 Y26.0714
G01 X-25.9913 Y26.0371
G01 X-25.9863 Y26.0031
G01 X-25.9780 Y25.9698
G01 X-25.9664 Y25.9374
G01 X-25.9517 Y25.9064
G01 X-25.9340 Y25.8769
G01 X-25.9135 Y25.8493
G01 X-25.8905 Y25.8238
G01 X-25.8650 Y25.8007
G01 X-25.8374 Y25.7803
G01 X-25.8229 Y25.7711
G01 X-25.7926 Y25.7549
G01 X-25.7608 Y25.7417
G01 X-25.7445 Y25.7363
G01 X-25.7112 Y25.7280
G01 X-25.6772 Y25.7229
G01 X-25.6600 Y25.7217
G01 X-23.6429 Y25.7213
G00 X-23.6429 Y25.7213
G01 F76.20
G01 Z-0.2836
G01 F150.00
G01 X-23.6257 Y25.7217
G01 X-23.5915 Y25.7250
G01 X-23.5578 Y25.7317
G01 X-23.5412 Y25.7363
G01 X-23.5089 Y25.7479
G01 X-23.4931 Y25.7549
G01 X-23.4628 Y25.7711
G01 X-23.4343 Y25.7902
G01 X-23.4077 Y25.8120
G01 X-23.3952 Y25.8238
G01 X-23.3722 Y25.8493
G01 X-23.3616 Y25.8628
G01 X-23.3425 Y25.8914
G01 X-23.3263 Y25.9217
G01 X-23.3132 Y25.9535
G01 X-23.3078 Y25.9698
G01 X-23.2994 Y26.0031
G01 X-23.2944 Y26.0371
G01 X-23.2931 Y26.0542
G01 X-23.2931 Y26.0886
G01 X-23.2944 Y26.1058
G01 X-23.2994 Y26.1397
G01 X-23.3032 Y26.1565
G01 X-23.3132 Y26.1894
G01 X-23.3193 Y26.2054
G01 X-23.3340 Y26.2365
G01 X-23.3517 Y26.2660
G01 X-23.3616 Y26.2800
G01 X-23.3834 Y26.3066
G01 X-23.4077 Y26.3309
G01 X-23.4207 Y26.3421
G01 X-23.4483 Y26.3626
G01 X-23.4628 Y26.3718
G01 X-23.4931 Y26.3880
G01 X-23.5249 Y26.4011
G01 X-23.5578 Y26.4111
G01 X-23.5745 Y26.4149
G01 X-23.6085 Y26.4199
G01 X-23.6257 Y26.4212
G01 X-25.2121 Y26.4216
G01 X-25.2927 Y26.5827
G01 X-25.2927 Y26.8459
G01 X-25.2390 Y26.9533
G01 X-25.1316 Y27.0070
G01 X-23.6429 Y27.0070
G01 X-23.6085 Y27.0087
G01 X-23.5745 Y27.0137
G01 X-23.5412 Y27.0220
G01 X-23.5089 Y27.0336
G01 X-23.4931 Y27.0406
G01 X-23.4628 Y27.0568
G01 X-23.4343 Y27.0759
G01 X-23.4077 Y27.0977
G01 X-23.3952 Y27.1095
G01 X-23.3722 Y27.1350
G01 X-23.3616 Y27.1485
G01 X-23.3425 Y27.1771
G01 X-23.3263 Y27.2074
G01 X-23.3193 Y27.2231
G01 X-23.3132 Y27.2392
G01 X-23.3032 Y27.2721
G01 X-23.2965 Y27.3058
G01 X-23.2944 Y27.3228
G01 X-23.2927 Y27.3571
G01 X-23.2944 Y27.3915
G01 X-23.2994 Y27.4255
G01 X-23.3032 Y27.4422
G01 X-23.3078 Y27.4588
G01 X-23.3193 Y27.4911
G01 X-23.3340 Y27.5222
G01 X-23.3517 Y27.5517
G01 X-23.3616 Y27.5657
G01 X-23.3834 Y27.5923
G01 X-23.4077 Y27.6166
G01 X-23.4207 Y27.6278
G01 X-23.4483 Y27.6483
G01 X-23.4628 Y27.6575
G01 X-23.4931 Y27.6737
G01 X-23.5249 Y27.6868
G01 X-23.5412 Y27.6922
G01 X-23.5745 Y27.7006
G01 X-23.6085 Y27.7056
G01 X-23.6257 Y27.7069
G01 X-25.2143 Y27.7073
G01 X-25.2503 Y27.7055
G01 X-25.2682 Y27.7031
G01 X-25.3035 Y27.6958
G01 X-25.3378 Y27.6848
G01 X-25.3546 Y27.6780
G01 X-25.6566 Y27.5275
G01 X-25.6868 Y27.5105
G01 X-25.7152 Y27.4906
G01 X-25.7286 Y27.4796
G01 X-25.7537 Y27.4557
G01 X-25.7763 Y27.4294
G01 X-25.7962 Y27.4011
G01 X-25.8132 Y27.3709
G01 X-25.9637 Y27.0688
G01 X-25.9764 Y27.0351
G01 X-25.9815 Y27.0178
G01 X-25.9889 Y26.9825
G01 X-25.9926 Y26.9466
G01 X-25.9930 Y26.5000
G01 X-25.9912 Y26.4640
G01 X-25.9856 Y26.4284
G01 X-25.9815 Y26.4108
G01 X-25.9705 Y26.3764
G01 X-25.9561 Y26.3434
G01 X-25.9243 Y26.2798
G01 X-25.9432 Y26.2515
G01 X-25.9594 Y26.2211
G01 X-25.9726 Y26.1894
G01 X-25.9825 Y26.1565
G01 X-25.9863 Y26.1397
G01 X-25.9913 Y26.1058
G01 X-25.9930 Y26.0714
G01 X-25.9913 Y26.0371
G01 X-25.9863 Y26.0031
G01 X-25.9780 Y25.9698
G01 X-25.9664 Y25.9374
G01 X-25.9517 Y25.9064
G01 X-25.9340 Y25.8769
G01 X-25.9135 Y25.8493
G01 X-25.8905 Y25.8238
G01 X-25.8650 Y25.8007
G01 X-25.8374 Y25.7803
G01 X-25.8229 Y25.7711
G01 X-25.7926 Y25.7549
G01 X-25.7608 Y25.7417
G01 X-25.7445 Y25.7363
G01 X-25.7112 Y25.7280
G01 X-25.6772 Y25.7229
G01 X-25.6600 Y25.7217
G01 X-23.6429 Y25.7213
G00 Z1.0000
G00 X-26.2927 Y28.8641
G01 F76.20
G01 Z-0.1000
G01 F150.00
G01 X-23.6429 Y28.8641
G01 X-23.6257 Y28.8645
G01 X-23.5915 Y28.8679
G01 X-23.5578 Y28.8746
G01 X-23.5249 Y28.8846
G01 X-23.4931 Y28.8977
G01 X-23.4628 Y28.9139
G01 X-23.4343 Y28.9330
G01 X-23.4077 Y28.9548
G01 X-23.3834 Y28.9791
G01 X-23.3616 Y29.0057
G01 X-23.3425 Y29.0343
G01 X-23.3263 Y29.0646
G01 X-23.3132 Y29.0963
G01 X-23.3032 Y29.1292
G01 X-23.2965 Y29.1629
G01 X-23.2931 Y29.1971
G01 X-23.2931 Y29.2315
G01 X-23.2965 Y29.2657
G01 X-23.3032 Y29.2994
G01 X-23.3078 Y29.3159
G01 X-23.3193 Y29.3483
G01 X-23.3340 Y29.3794
G01 X-23.3425 Y29.3943
G01 X-23.3616 Y29.4229
G01 X-23.3834 Y29.4494
G01 X-23.3952 Y29.4619
G01 X-23.4207 Y29.4850
G01 X-23.4483 Y29.5054
G01 X-23.4628 Y29.5146
G01 X-23.4931 Y29.5308
G01 X-23.5249 Y29.5440
G01 X-23.5412 Y29.5494
G01 X-23.5745 Y29.5577
G01 X-23.6085 Y29.5628
G01 X-23.6429 Y29.5645
G01 X-26.2927 Y29.5645
G01 X-26.2931 Y30.0886
G01 X-26.2944 Y30.1058
G01 X-26.2994 Y30.1397
G01 X-26.3078 Y30.1731
G01 X-26.3193 Y30.2054
G01 X-26.3340 Y30.2365
G01 X-26.3517 Y30.2660
G01 X-26.3616 Y30.2800
G01 X-26.3834 Y30.3066
G01 X-26.4077 Y30.3309
G01 X-26.4343 Y30.3527
G01 X-26.4483 Y30.3626
G01 X-26.4778 Y30.3803
G01 X-26.5089 Y30.3949
G01 X-26.5412 Y30.4065
G01 X-26.5745 Y30.4149
G01 X-26.5915 Y30.4178
G01 X-26.6257 Y30.4212
G01 X-26.6600 Y30.4212
G01 X-26.6772 Y30.4199
G01 X-26.7112 Y30.4149
G01 X-26.7445 Y30.4065
G01 X-26.7608 Y30.4011
G01 X-26.7926 Y30.3880
G01 X-26.8229 Y30.3718
G01 X-26.8374 Y30.3626
G01 X-26.8650 Y30.3421
G01 X-26.8780 Y30.3309
G01 X-26.9023 Y30.3066
G01 X-26.9135 Y30.2936
G01 X-26.9340 Y30.2660
G01 X-26.9432 Y30.2515
G01 X-26.9594 Y30.2211
G01 X-26.9726 Y30.1894
G01 X-26.9780 Y30.1731
G01 X-26.9863 Y30.1397
G01 X-26.9913 Y30.1058
G01 X-26.9926 Y30.0886
G01 X-26.9930 Y28.3571
G01 X-26.9913 Y28.3228
G01 X-26.9863 Y28.2888
G01 X-26.9780 Y28.2555
G01 X-26.9664 Y28.2231
G01 X-26.9594 Y28.2074
G01 X-26.9432 Y28.1771
G01 X-26.9241 Y28.1485
G01 X-26.9023 Y28.1220
G01 X-26.8905 Y28.1095
G01 X-26.8650 Y28.0865
G01 X-26.8374 Y28.0660
G01 X-26.8079 Y28.0483
G01 X-26.7769 Y28.0336
G01 X-26.7445 Y28.0220
G01 X-26.7112 Y28.0137
G01 X-26.6772 Y28.0087
G01 X-26.6429 Y28.0070
G01 X-26.6085 Y28.0087
G01 X-26.5745 Y28.0137
G01 X-26.5412 Y28.0220
G01 X-26.5089 Y28.0336
G01 X-26.4778 Y28.0483
G01 X-26.4483 Y28.0660
G01 X-26.4207 Y28.0865
G01 X-26.3952 Y28.1095
G01 X-26.3722 Y28.1350
G01 X-26.3517 Y28.1626
G01 X-26.3425 Y28.1771
G01 X-26.3263 Y28.2074
G01 X-26.3132 Y28.2392
G01 X-26.3032 Y28.2721
G01 X-26.2994 Y28.2888
G01 X-26.2944 Y28.3228
G01 X-26.2927 Y28.3571
G01 X-26.2927 Y28.8641
G00 X-26.2927 Y28.8641
G01 F76.20
G01 Z-0.2000
G01 F150.00
G01 X-23.6429 Y28.8641
G01 X-23.6257 Y28.8645
G01 X-23.5915 Y28.8679
G01 X-23.5578 Y28.8746
G01 X-23.5249 Y28.8846
G01 X-23.4931 Y28.8977
G01 X-23.4628 Y28.9139
G01 X-23.4343 Y28.9330
G01 X-23.4077 Y28.9548
G01 X-23.3834 Y28.9791
G01 X-23.3616 Y29.0057
G01 X-23.3425 Y29.0343
G01 X-23.3263 Y29.0646
G01 X-23.3132 Y29.0963
G01 X-23.3032 Y29.1292
G01 X-23.2965 Y29.1629
G01 X-23.2931 Y29.1971
G01 X-23.2931 Y29.2315
G01 X-23.2965 Y29.2657
G01 X-23.3032 Y29.2994
G01 X-23.3078 Y29.3159
G01 X-23.3193 Y29.3483
G01 X-23.3340 Y29.3794
G01 X-23.3425 Y29.3943
G01 X-23.3616 Y29.4229
G01 X-23.3834 Y29.4494
G01 X-23.3952 Y29.4619
G01 X-23.4207 Y29.4850
G01 X-23.4483 Y29.5054
G01 X-23.4628 Y29.5146
G01 X-23.4931 Y29.5308
G01 X-23.5249 Y29.5440
G01 X-23.5412 Y29.5494
G01 X-23.5745 Y29.5577
G01 X-23.6085 Y29.5628
G01 X-23.6429 Y29.5645
G01 X-26.2927 Y29.5645
G01 X-26.2931 Y30.0886
G01 X-26.2944 Y30.1058
G01 X-26.2994 Y30.1397
G01 X-26.3078 Y30.1731
G01 X-26.3193 Y30.2054
G01 X-26.3340 Y30.2365
G01 X-26.3517 Y30.2660
G01 X-26.3616 Y30.2800
G01 X-26.3834 Y30.3066
G01 X-26.4077 Y30.3309
G01 X-26.4343 Y30.3527
G01 X-26.4483 Y30.3626
G01 X-26.4778 Y30.3803
G01 X-26.5089 Y30.3949
G01 X-26.5412 Y30.4065
G01 X-26.5745 Y30.4149
G01 X-26.5915 Y30.4178
G01 X-26.6257 Y30.4212
G01 X-26.6600 Y30.4212
G01 X-26.6772 Y30.4199
G01 X-26.7112 Y30.4149
G01 X-26.7445 Y30.4065
G01 X-26.7608 Y30.4011
G01 X-26.7926 Y30.3880
G01 X-26.8229 Y30.3718
G01 X-26.8374 Y30.3626
G01 X-26.8650 Y30.3421
G01 X-26.8780 Y30.3309
G01 X-26.9023 Y30.3066
G01 X-26.9135 Y30.2936
G01 X-26.9340 Y30.2660
G01 X-26.9432 Y30.2515
G01 X-26.9594 Y30.2211
G01 X-26.9726 Y30.1894
G01 X-26.9780 Y30.1731
G01 X-26.9863 Y30.1397
G01 X-26.9913 Y30.1058
G01 X-26.9926 Y30.0886
G01 X-26.9930 Y28.3571
G01 X-26.9913 Y28.3228
G01 X-26.9863 Y28.2888
G01 X-26.9780 Y28.2555
G01 X-26.9664 Y28.2231
G01 X-26.9594 Y28.2074
G01 X-26.9432 Y28.1771
G01 X-26.9241 Y28.1485
G01 X-26.9023 Y28.1220
G01 X-26.8905 Y28.1095
G01 X-26.8650 Y28.0865
G01 X-26.8374 Y28.0660
G01 X-26.8079 Y28.0483
G01 X-26.7769 Y28.0336
G01 X-26.7445 Y28.0220
G01 X-26.7112 Y28.0137
G01 X-26.6772 Y28.0087
G01 X-26.6429 Y28.0070
G01 X-26.6085 Y28.0087
G01 X-26.5745 Y28.0137
G01 X-26.5412 Y28.0220
G01 X-26.5089 Y28.0336
G01 X-26.4778 Y28.0483
G01 X-26.4483 Y28.0660
G01 X-26.4207 Y28.0865
G01 X-26.3952 Y28.1095
G01 X-26.3722 Y28.1350
G01 X-26.3517 Y28.1626
G01 X-26.3425 Y28.1771
G01 X-26.3263 Y28.2074
G01 X-26.3132 Y28.2392
G01 X-26.3032 Y28.2721
G01 X-26.2994 Y28.2888
G01 X-26.2944 Y28.3228
G01 X-26.2927 Y28.3571
G01 X-26.2927 Y28.8641
G00 X-26.2927 Y28.8641
G01 F76.20
G01 Z-0.2836
G01 F150.00
G01 X-23.6429 Y28.8641
G01 X-23.6257 Y28.8645
G01 X-23.5915 Y28.8679
G01 X-23.5578 Y28.8746
G01 X-23.5249 Y28.8846
G01 X-23.4931 Y28.8977
G01 X-23.4628 Y28.9139
G01 X-23.4343 Y28.9330
G01 X-23.4077 Y28.9548
G01 X-23.3834 Y28.9791
G01 X-23.3616 Y29.0057
G01 X-23.3425 Y29.0343
G01 X-23.3263 Y29.0646
G01 X-23.3132 Y29.0963
G01 X-23.3032 Y29.1292
G01 X-23.2965 Y29.1629
G01 X-23.2931 Y29.1971
G01 X-23.2931 Y29.2315
G01 X-23.2965 Y29.2657
G01 X-23.3032 Y29.2994
G01 X-23.3078 Y29.3159
G01 X-23.3193 Y29.3483
G01 X-23.3340 Y29.3794
G01 X-23.3425 Y29.3943
G01 X-23.3616 Y29.4229
G01 X-23.3834 Y29.4494
G01 X-23.3952 Y29.4619
G01 X-23.4207 Y29.4850
G01 X-23.4483 Y29.5054
G01 X-23.4628 Y29.5146
G01 X-23.4931 Y29.5308
G01 X-23.5249 Y29.5440
G01 X-23.5412 Y29.5494
G01 X-23.5745 Y29.5577
G01 X-23.6085 Y29.5628
G01 X-23.6429 Y29.5645
G01 X-26.2927 Y29.5645
G01 X-26.2931 Y30.0886
G01 X-26.2944 Y30.1058
G01 X-26.2994 Y30.1397
G01 X-26.3078 Y30.1731
G01 X-26.3193 Y30.2054
G01 X-26.3340 Y30.2365
G01 X-26.3517 Y30.2660
G01 X-26.3616 Y30.2800
G01 X-26.3834 Y30.3066
G01 X-26.4077 Y30.3309
G01 X-26.4343 Y30.3527
G01 X-26.4483 Y30.3626
G01 X-26.4778 Y30.3803
G01 X-26.5089 Y30.3949
G01 X-26.5412 Y30.4065
G01 X-26.5745 Y30.4149
G01 X-26.5915 Y30.4178
G01 X-26.6257 Y30.4212
G01 X-26.6600 Y30.4212
G01 X-26.6772 Y30.4199
G01 X-26.7112 Y30.4149
G01 X-26.7445 Y30.4065
G01 X-26.7608 Y30.4011
G01 X-26.7926 Y30.3880
G01 X-26.8229 Y30.3718
G01 X-26.8374 Y30.3626
G01 X-26.8650 Y30.3421
G01 X-26.8780 Y30.3309
G01 X-26.9023 Y30.3066
G01 X-26.9135 Y30.2936
G01 X-26.9340 Y30.2660
G01 X-26.9432 Y30.2515
G01 X-26.9594 Y30.2211
G01 X-26.9726 Y30.1894
G01 X-26.9780 Y30.1731
G01 X-26.9863 Y30.1397
G01 X-26.9913 Y30.1058
G01 X-26.9926 Y30.0886
G01 X-26.9930 Y28.3571
G01 X-26.9913 Y28.3228
G01 X-26.9863 Y28.2888
G01 X-26.9780 Y28.2555
G01 X-26.9664 Y28.2231
G01 X-26.9594 Y28.2074
G01 X-26.9432 Y28.1771
G01 X-26.9241 Y28.1485
G01 X-26.9023 Y28.1220
G01 X-26.8905 Y28.1095
G01 X-26.8650 Y28.0865
G01 X-26.8374 Y28.0660
G01 X-26.8079 Y28.0483
G01 X-26.7769 Y28.0336
G01 X-26.7445 Y28.0220
G01 X-26.7112 Y28.0137
G01 X-26.6772 Y28.0087
G01 X-26.6429 Y28.0070
G01 X-26.6085 Y28.0087
G01 X-26.5745 Y28.0137
G01 X-26.5412 Y28.0220
G01 X-26.5089 Y28.0336
G01 X-26.4778 Y28.0483
G01 X-26.4483 Y28.0660
G01 X-26.4207 Y28.0865
G01 X-26.3952 Y28.1095
G01 X-26.3722 Y28.1350
G01 X-26.3517 Y28.1626
G01 X-26.3425 Y28.1771
G01 X-26.3263 Y28.2074
G01 X-26.3132 Y28.2392
G01 X-26.3032 Y28.2721
G01 X-26.2994 Y28.2888
G01 X-26.2944 Y28.3228
G01 X-26.2927 Y28.3571
G01 X-26.2927 Y28.8641
G00 Z1.0000
G00 X-25.0700 Y31.2787
G01 F76.20
G01 Z-0.1000
G01 F150.00
G01 X-25.1316 Y31.2787
G01 X-25.2390 Y31.3324
G01 X-25.2927 Y31.4398
G01 X-25.2927 Y31.8459
G01 X-25.2390 Y31.9533
G01 X-25.2080 Y31.9688
G01 X-25.0700 Y31.2787
G00 X-25.0700 Y31.2787
G01 F76.20
G01 Z-0.2000
G01 F150.00
G01 X-25.1316 Y31.2787
G01 X-25.2390 Y31.3324
G01 X-25.2927 Y31.4398
G01 X-25.2927 Y31.8459
G01 X-25.2390 Y31.9533
G01 X-25.2080 Y31.9688
G01 X-25.0700 Y31.2787
G00 X-25.0700 Y31.2787
G01 F76.20
G01 Z-0.2836
G01 F150.00
G01 X-25.1316 Y31.2787
G01 X-25.2390 Y31.3324
G01 X-25.2927 Y31.4398
G01 X-25.2927 Y31.8459
G01 X-25.2390 Y31.9533
G01 X-25.2080 Y31.9688
G01 X-25.0700 Y31.2787
G00 Z1.0000
G00 X-23.9930 Y31.8459
G01 F76.20
G01 Z-0.1000
G01 F150.00
G01 X-23.9930 Y31.4398
G01 X-24.0467 Y31.3324
G01 X-24.1541 Y31.2787
G01 X-24.3558 Y31.2787
G01 X-24.5852 Y32.4258
G01 X-24.5936 Y32.4591
G01 X-24.6052 Y32.4914
G01 X-24.6199 Y32.5225
G01 X-24.6376 Y32.5519
G01 X-24.6580 Y32.5795
G01 X-24.6811 Y32.6049
G01 X-24.7066 Y32.6279
G01 X-24.7342 Y32.6484
G01 X-24.7636 Y32.6660
G01 X-24.7947 Y32.6807
G01 X-24.8270 Y32.6923
G01 X-24.8603 Y32.7006
G01 X-24.8943 Y32.7056
G01 X-24.9286 Y32.7073
G01 X-25.2143 Y32.7073
G01 X-25.2503 Y32.7055
G01 X-25.2682 Y32.7031
G01 X-25.2859 Y32.6999
G01 X-25.3208 Y32.6907
G01 X-25.3378 Y32.6848
G01 X-25.3709 Y32.6703
G01 X-25.6566 Y32.5275
G01 X-25.6719 Y32.5194
G01 X-25.7012 Y32.5009
G01 X-25.7152 Y32.4906
G01 X-25.7414 Y32.4679
G01 X-25.7653 Y32.4428
G01 X-25.7763 Y32.4294
G01 X-25.7962 Y32.4011
G01 X-25.8051 Y32.3862
G01 X-25.9637 Y32.0688
G01 X-25.9764 Y32.0351
G01 X-25.9856 Y32.0002
G01 X-25.9912 Y31.9646
G01 X-25.9930 Y31.9286
G01 X-25.9930 Y31.3571
G01 X-25.9912 Y31.3211
G01 X-25.9889 Y31.3032
G01 X-25.9815 Y31.2679
G01 X-25.9764 Y31.2506
G01 X-25.9705 Y31.2336
G01 X-25.9561 Y31.2005
G01 X-25.8051 Y30.8995
G01 X-25.7962 Y30.8846
G01 X-25.7763 Y30.8563
G01 X-25.7653 Y30.8429
G01 X-25.7414 Y30.8178
G01 X-25.7286 Y30.8061
G01 X-25.7012 Y30.7848
G01 X-25.6868 Y30.7752
G01 X-25.6566 Y30.7582
G01 X-25.3709 Y30.6154
G01 X-25.3546 Y30.6077
G01 X-25.3208 Y30.5950
G01 X-25.3035 Y30.5899
G01 X-25.2682 Y30.5826
G01 X-25.2503 Y30.5803
G01 X-25.2143 Y30.5784
G01 X-24.0714 Y30.5784
G01 X-24.0354 Y30.5803
G01 X-24.0175 Y30.5826
G01 X-23.9822 Y30.5899
G01 X-23.9649 Y30.5950
G01 X-23.9479 Y30.6009
G01 X-23.9148 Y30.6154
G01 X-23.6138 Y30.7664
G01 X-23.5845 Y30.7848
G01 X-23.5706 Y30.7951
G01 X-23.5443 Y30.8178
G01 X-23.5321 Y30.8300
G01 X-23.5204 Y30.8429
G01 X-23.4991 Y30.8702
G01 X-23.4895 Y30.8846
G01 X-23.4725 Y30.9148
G01 X-23.3220 Y31.2169
G01 X-23.3093 Y31.2506
G01 X-23.3001 Y31.2855
G01 X-23.2945 Y31.3211
G01 X-23.2927 Y31.3571
G01 X-23.2927 Y31.9286
G01 X-23.2945 Y31.9646
G01 X-23.2969 Y31.9825
G01 X-23.3042 Y32.0178
G01 X-23.3152 Y32.0521
G01 X-23.3297 Y32.0852
G01 X-23.4725 Y32.3709
G01 X-23.4894 Y32.4008
G01 X-23.4989 Y32.4152
G01 X-23.5199 Y32.4423
G01 X-23.5436 Y32.4673
G01 X-23.5695 Y32.4898
G01 X-23.5833 Y32.5000
G01 X-23.6123 Y32.5185
G01 X-23.6430 Y32.5340
G01 X-23.6750 Y32.5465
G01 X-23.7081 Y32.5557
G01 X-23.7419 Y32.5617
G01 X-23.7762 Y32.5643
G01 X-23.8105 Y32.5636
G01 X-23.8447 Y32.5595
G01 X-23.8782 Y32.5520
G01 X-23.9109 Y32.5413
G01 X-23.9423 Y32.5275
G01 X-23.9723 Y32.5106
G01 X-24.0004 Y32.4909
G01 X-24.0265 Y32.4685
G01 X-24.0503 Y32.4437
G01 X-24.0715 Y32.4167
G01 X-24.0899 Y32.3877
G01 X-24.1055 Y32.3570
G01 X-24.1179 Y32.3250
G01 X-24.1230 Y32.3086
G01 X-24.1306 Y32.2751
G01 X-24.1349 Y32.2410
G01 X-24.1358 Y32.2066
G01 X-24.1334 Y32.1724
G01 X-24.1309 Y32.1553
G01 X-24.1235 Y32.1218
G01 X-24.1185 Y32.1053
G01 X-24.1062 Y32.0732
G01 X-23.9930 Y31.8459
G00 X-23.9930 Y31.8459
G01 F76.20
G01 Z-0.2000
G01 F150.00
G01 X-23.9930 Y31.4398
G01 X-24.0467 Y31.3324
G01 X-24.1541 Y31.2787
G01 X-24.3558 Y31.2787
G01 X-24.5852 Y32.4258
G01 X-24.5936 Y32.4591
G01 X-24.6052 Y32.4914
G01 X-24.6199 Y32.5225
G01 X-24.6376 Y32.5519
G01 X-24.6580 Y32.5795
G01 X-24.6811 Y32.6049
G01 X-24.7066 Y32.6279
G01 X-24.7342 Y32.6484
G01 X-24.7636 Y32.6660
G01 X-24.7947 Y32.6807
G01 X-24.8270 Y32.6923
G01 X-24.8603 Y32.7006
G01 X-24.8943 Y32.7056
G01 X-24.9286 Y32.7073
G01 X-25.2143 Y32.7073
G01 X-25.2503 Y32.7055
G01 X-25.2682 Y32.7031
G01 X-25.2859 Y32.6999
G01 X-25.3208 Y32.6907
G01 X-25.3378 Y32.6848
G01 X-25.3709 Y32.6703
G01 X-25.6566 Y32.5275
G01 X-25.6719 Y32.5194
G01 X-25.7012 Y32.5009
G01 X-25.7152 Y32.4906
G01 X-25.7414 Y32.4679
G01 X-25.7653 Y32.4428
G01 X-25.7763 Y32.4294
G01 X-25.7962 Y32.4011
G01 X-25.8051 Y32.3862
G01 X-25.9637 Y32.0688
G01 X-25.9764 Y32.0351
G01 X-25.9856 Y32.0002
G01 X-25.9912 Y31.9646
G01 X-25.9930 Y31.9286
G01 X-25.9930 Y31.3571
G01 X-25.9912 Y31.3211
G01 X-25.9889 Y31.3032
G01 X-25.9815 Y31.2679
G01 X-25.9764 Y31.2506
G01 X-25.9705 Y31.2336
G01 X-25.9561 Y31.2005
G01 X-25.8051 Y30.8995
G01 X-25.7962 Y30.8846
G01 X-25.7763 Y30.8563
G01 X-25.7653 Y30.8429
G01 X-25.7414 Y30.8178
G01 X-25.7286 Y30.8061
G01 X-25.7012 Y30.7848
G01 X-25.6868 Y30.7752
G01 X-25.6566 Y30.7582
G01 X-25.3709 Y30.6154
G01 X-25.3546 Y30.6077
G01 X-25.3208 Y30.5950
G01 X-25.3035 Y30.5899
G01 X-25.2682 Y30.5826
G01 X-25.2503 Y30.5803
G01 X-25.2143 Y30.5784
G01 X-24.0714 Y30.5784
G01 X-24.0354 Y30.5803
G01 X-24.0175 Y30.5826
G01 X-23.9822 Y30.5899
G01 X-23.9649 Y30.5950
G01 X-23.9479 Y30.6009
G01 X-23.9148 Y30.6154
G01 X-23.6138 Y30.7664
G01 X-23.5845 Y30.7848
G01 X-23.5706 Y30.7951
G01 X-23.5443 Y30.8178
G01 X-23.5321 Y30.8300
G01 X-23.5204 Y30.8429
G01 X-23.4991 Y30.8702
G01 X-23.4895 Y30.8846
G01 X-23.4725 Y30.9148
G01 X-23.3220 Y31.2169
G01 X-23.3093 Y31.2506
G01 X-23.3001 Y31.2855
G01 X-23.2945 Y31.3211
G01 X-23.2927 Y31.3571
G01 X-23.2927 Y31.9286
G01 X-23.2945 Y31.9646
G01 X-23.2969 Y31.9825
G01 X-23.3042 Y32.0178
G01 X-23.3152 Y32.0521
G01 X-23.3297 Y32.0852
G01 X-23.4725 Y32.3709
G01 X-23.4894 Y32.4008
G01 X-23.4989 Y32.4152
G01 X-23.5199 Y32.4423
G01 X-23.5436 Y32.4673
G01 X-23.5695 Y32.4898
G01 X-23.5833 Y32.5000
G01 X-23.6123 Y32.5185
G01 X-23.6430 Y32.5340
G01 X-23.6750 Y32.5465
G01 X-23.7081 Y32.5557
G01 X-23.7419 Y32.5617
G01 X-23.7762 Y32.5643
G01 X-23.8105 Y32.5636
G01 X-23.8447 Y32.5595
G01 X-23.8782 Y32.5520
G01 X-23.9109 Y32.5413
G01 X-23.9423 Y32.5275
G01 X-23.9723 Y32.5106
G01 X-24.0004 Y32.4909
G01 X-24.0265 Y32.4685
G01 X-24.0503 Y32.4437
G01 X-24.0715 Y32.4167
G01 X-24.0899 Y32.3877
G01 X-24.1055 Y32.3570
G01 X-24.1179 Y32.3250
G01 X-24.1230 Y32.3086
G01 X-24.1306 Y32.2751
G01 X-24.1349 Y32.2410
G01 X-24.1358 Y32.2066
G01 X-24.1334 Y32.1724
G01 X-24.1309 Y32.1553
G01 X-24.1235 Y32.1218
G01 X-24.1185 Y32.1053
G01 X-24.1062 Y32.0732
G01 X-23.9930 Y31.8459
G00 X-23.9930 Y31.8459
G01 F76.20
G01 Z-0.2836
G01 F150.00
G01 X-23.9930 Y31.4398
G01 X-24.0467 Y31.3324
G01 X-24.1541 Y31.2787
G01 X-24.3558 Y31.2787
G01 X-24.5852 Y32.4258
G01 X-24.5936 Y32.4591
G01 X-24.6052 Y32.4914
G01 X-24.6199 Y32.5225
G01 X-24.6376 Y32.5519
G01 X-24.6580 Y32.5795
G01 X-24.6811 Y32.6049
G01 X-24.7066 Y32.6279
G01 X-24.7342 Y32.6484
G01 X-24.7636 Y32.6660
G01 X-24.7947 Y32.6807
G01 X-24.8270 Y32.6923
G01 X-24.8603 Y32.7006
G01 X-24.8943 Y32.7056
G01 X-24.9286 Y32.7073
G01 X-25.2143 Y32.7073
G01 X-25.2503 Y32.7055
G01 X-25.2682 Y32.7031
G01 X-25.2859 Y32.6999
G01 X-25.3208 Y32.6907
G01 X-25.3378 Y32.6848
G01 X-25.3709 Y32.6703
G01 X-25.6566 Y32.5275
G01 X-25.6719 Y32.5194
G01 X-25.7012 Y32.5009
G01 X-25.7152 Y32.4906
G01 X-25.7414 Y32.4679
G01 X-25.7653 Y32.4428
G01 X-25.7763 Y32.4294
G01 X-25.7962 Y32.4011
G01 X-25.8051 Y32.3862
G01 X-25.9637 Y32.0688
G01 X-25.9764 Y32.0351
G01 X-25.9856 Y32.0002
G01 X-25.9912 Y31.9646
G01 X-25.9930 Y31.9286
G01 X-25.9930 Y31.3571
G01 X-25.9912 Y31.3211
G01 X-25.9889 Y31.3032
G01 X-25.9815 Y31.2679
G01 X-25.9764 Y31.2506
G01 X-25.9705 Y31.2336
G01 X-25.9561 Y31.2005
G01 X-25.8051 Y30.8995
G01 X-25.7962 Y30.8846
G01 X-25.7763 Y30.8563
G01 X-25.7653 Y30.8429
G01 X-25.7414 Y30.8178
G01 X-25.7286 Y30.8061
G01 X-25.7012 Y30.7848
G01 X-25.6868 Y30.7752
G01 X-25.6566 Y30.7582
G01 X-25.3709 Y30.6154
G01 X-25.3546 Y30.6077
G01 X-25.3208 Y30.5950
G01 X-25.3035 Y30.5899
G01 X-25.2682 Y30.5826
G01 X-25.2503 Y30.5803
G01 X-25.2143 Y30.5784
G01 X-24.0714 Y30.5784
G01 X-24.0354 Y30.5803
G01 X-24.0175 Y30.5826
G01 X-23.9822 Y30.5899
G01 X-23.9649 Y30.5950
G01 X-23.9479 Y30.6009
G01 X-23.9148 Y30.6154
G01 X-23.6138 Y30.7664
G01 X-23.5845 Y30.7848
G01 X-23.5706 Y30.7951
G01 X-23.5443 Y30.8178
G01 X-23.5321 Y30.8300
G01 X-23.5204 Y30.8429
G01 X-23.4991 Y30.8702
G01 X-23.4895 Y30.8846
G01 X-23.4725 Y30.9148
G01 X-23.3220 Y31.2169
G01 X-23.3093 Y31.2506
G01 X-23.3001 Y31.2855
G01 X-23.2945 Y31.3211
G01 X-23.2927 Y31.3571
G01 X-23.2927 Y31.9286
G01 X-23.2945 Y31.9646
G01 X-23.2969 Y31.9825
G01 X-23.3042 Y32.0178
G01 X-23.3152 Y32.0521
G01 X-23.3297 Y32.0852
G01 X-23.4725 Y32.3709
G01 X-23.4894 Y32.4008
G01 X-23.4989 Y32.4152
G01 X-23.5199 Y32.4423
G01 X-23.5436 Y32.4673
G01 X-23.5695 Y32.4898
G01 X-23.5833 Y32.5000
G01 X-23.6123 Y32.5185
G01 X-23.6430 Y32.5340
G01 X-23.6750 Y32.5465
G01 X-23.7081 Y32.5557
G01 X-23.7419 Y32.5617
G01 X-23.7762 Y32.5643
G01 X-23.8105 Y32.5636
G01 X-23.8447 Y32.5595
G01 X-23.8782 Y32.5520
G01 X-23.9109 Y32.5413
G01 X-23.9423 Y32.5275
G01 X-23.9723 Y32.5106
G01 X-24.0004 Y32.4909
G01 X-24.0265 Y32.4685
G01 X-24.0503 Y32.4437
G01 X-24.0715 Y32.4167
G01 X-24.0899 Y32.3877
G01 X-24.1055 Y32.3570
G01 X-24.1179 Y32.3250
G01 X-24.1230 Y32.3086
G01 X-24.1306 Y32.2751
G01 X-24.1349 Y32.2410
G01 X-24.1358 Y32.2066
G01 X-24.1334 Y32.1724
G01 X-24.1309 Y32.1553
G01 X-24.1235 Y32.1218
G01 X-24.1185 Y32.1053
G01 X-24.1062 Y32.0732
G01 X-23.9930 Y31.8459
G00 Z1.0000
G00 X-23.9930 Y34.5602
G01 F76.20
G01 Z-0.1000
G01 F150.00
G01 X-23.9930 Y34.1541
G01 X-24.0735 Y33.9931
G01 X-24.1360 Y33.9307
G01 X-24.2970 Y33.8502
G01 X-24.9888 Y33.8502
G01 X-25.1497 Y33.9307
G01 X-25.2122 Y33.9931
G01 X-25.2927 Y34.1541
G01 X-25.2927 Y34.5602
G01 X-25.1795 Y34.7875
G01 X-25.1672 Y34.8196
G01 X-25.1623 Y34.8361
G01 X-25.1581 Y34.8528
G01 X-25.1523 Y34.8866
G01 X-25.1507 Y34.9037
G01 X-25.1500 Y34.9381
G01 X-25.1526 Y34.9724
G01 X-25.1585 Y35.0062
G01 X-25.1628 Y35.0229
G01 X-25.1736 Y35.0555
G01 X-25.1802 Y35.0713
G01 X-25.1958 Y35.1020
G01 X-25.2047 Y35.1167
G01 X-25.2245 Y35.1448
G01 X-25.2470 Y35.1707
G01 X-25.2592 Y35.1828
G01 X-25.2853 Y35.2052
G01 X-25.3135 Y35.2249
G01 X-25.3434 Y35.2418
G01 X-25.3749 Y35.2556
G01 X-25.4075 Y35.2663
G01 X-25.4411 Y35.2738
G01 X-25.4752 Y35.2779
G01 X-25.4923 Y35.2787
G01 X-25.5267 Y35.2777
G01 X-25.5608 Y35.2734
G01 X-25.5943 Y35.2658
G01 X-25.6269 Y35.2549
G01 X-25.6583 Y35.2409
G01 X-25.6734 Y35.2328
G01 X-25.7024 Y35.2143
G01 X-25.7162 Y35.2041
G01 X-25.7421 Y35.1815
G01 X-25.7543 Y35.1694
G01 X-25.7766 Y35.1433
G01 X-25.7963 Y35.1151
G01 X-25.8132 Y35.0852
G01 X-25.9561 Y34.7995
G01 X-25.9705 Y34.7664
G01 X-25.9764 Y34.7494
G01 X-25.9815 Y34.7321
G01 X-25.9889 Y34.6968
G01 X-25.9912 Y34.6789
G01 X-25.9930 Y34.6429
G01 X-25.9930 Y34.0714
G01 X-25.9912 Y34.0354
G01 X-25.9889 Y34.0175
G01 X-25.9815 Y33.9822
G01 X-25.9764 Y33.9649
G01 X-25.9705 Y33.9479
G01 X-25.9561 Y33.9148
G01 X-25.8057 Y33.6149
G01 X-25.7975 Y33.6010
G01 X-25.7793 Y33.5745
G01 X-25.7587 Y33.5497
G01 X-25.7476 Y33.5381
G01 X-25.6048 Y33.3952
G01 X-25.5810 Y33.3736
G01 X-25.5553 Y33.3542
G01 X-25.5280 Y33.3372
G01 X-25.5137 Y33.3297
G01 X-25.2117 Y33.1791
G01 X-25.1780 Y33.1664
G01 X-25.1431 Y33.1572
G01 X-25.1074 Y33.1517
G01 X-25.0714 Y33.1498
G01 X-24.2143 Y33.1498
G01 X-24.1783 Y33.1517
G01 X-24.1604 Y33.1540
G01 X-24.1426 Y33.1572
G01 X-24.1078 Y33.1664
G01 X-24.0907 Y33.1723
G01 X-24.0577 Y33.1868
G01 X-23.7720 Y33.3297
G01 X-23.7439 Y33.3454
G01 X-23.7173 Y33.3636
G01 X-23.6926 Y33.3841
G01 X-23.5381 Y33.5381
G01 X-23.5164 Y33.5619
G01 X-23.5064 Y33.5745
G01 X-23.4882 Y33.6010
G01 X-23.4725 Y33.6291
G01 X-23.3297 Y33.9148
G01 X-23.3152 Y33.9479
G01 X-23.3042 Y33.9822
G01 X-23.2969 Y34.0175
G01 X-23.2945 Y34.0354
G01 X-23.2927 Y34.0714
G01 X-23.2927 Y34.6429
G01 X-23.2945 Y34.6789
G01 X-23.2969 Y34.6968
G01 X-23.3042 Y34.7321
G01 X-23.3152 Y34.7664
G01 X-23.3297 Y34.7995
G01 X-23.4725 Y35.0852
G01 X-23.4894 Y35.1151
G01 X-23.4989 Y35.1294
G01 X-23.5199 Y35.1566
G01 X-23.5436 Y35.1815
G01 X-23.5563 Y35.1931
G01 X-23.5833 Y35.2143
G01 X-23.6123 Y35.2328
G01 X-23.6430 Y35.2483
G01 X-23.6750 Y35.2608
G01 X-23.7081 Y35.2700
G01 X-23.7419 Y35.2760
G01 X-23.7762 Y35.2786
G01 X-23.8105 Y35.2779
G01 X-23.8447 Y35.2738
G01 X-23.8782 Y35.2663
G01 X-23.9109 Y35.2556
G01 X-23.9423 Y35.2418
G01 X-23.9723 Y35.2249
G01 X-24.0004 Y35.2052
G01 X-24.0265 Y35.1828
G01 X-24.0503 Y35.1580
G01 X-24.0715 Y35.1310
G01 X-24.0899 Y35.1020
G01 X-24.1055 Y35.0713
G01 X-24.1179 Y35.0393
G01 X-24.1230 Y35.0229
G01 X-24.1306 Y34.9894
G01 X-24.1349 Y34.9553
G01 X-24.1358 Y34.9209
G01 X-24.1334 Y34.8866
G01 X-24.1309 Y34.8696
G01 X-24.1235 Y34.8361
G01 X-24.1185 Y34.8196
G01 X-24.1062 Y34.7875
G01 X-23.9930 Y34.5602
G00 X-23.9930 Y34.5602
G01 F76.20
G01 Z-0.2000
G01 F150.00
G01 X-23.9930 Y34.1541
G01 X-24.0735 Y33.9931
G01 X-24.1360 Y33.9307
G01 X-24.2970 Y33.8502
G01 X-24.9888 Y33.8502
G01 X-25.1497 Y33.9307
G01 X-25.2122 Y33.9931
G01 X-25.2927 Y34.1541
G01 X-25.2927 Y34.5602
G01 X-25.1795 Y34.7875
G01 X-25.1672 Y34.8196
G01 X-25.1623 Y34.8361
G01 X-25.1581 Y34.8528
G01 X-25.1523 Y34.8866
G01 X-25.1507 Y34.9037
G01 X-25.1500 Y34.9381
G01 X-25.1526 Y34.9724
G01 X-25.1585 Y35.0062
G01 X-25.1628 Y35.0229
G01 X-25.1736 Y35.0555
G01 X-25.1802 Y35.0713
G01 X-25.1958 Y35.1020
G01 X-25.2047 Y35.1167
G01 X-25.2245 Y35.1448
G01 X-25.2470 Y35.1707
G01 X-25.2592 Y35.1828
G01 X-25.2853 Y35.2052
G01 X-25.3135 Y35.2249
G01 X-25.3434 Y35.2418
G01 X-25.3749 Y35.2556
G01 X-25.4075 Y35.2663
G01 X-25.4411 Y35.2738
G01 X-25.4752 Y35.2779
G01 X-25.4923 Y35.2787
G01 X-25.5267 Y35.2777
G01 X-25.5608 Y35.2734
G01 X-25.5943 Y35.2658
G01 X-25.6269 Y35.2549
G01 X-25.6583 Y35.2409
G01 X-25.6734 Y35.2328
G01 X-25.7024 Y35.2143
G01 X-25.7162 Y35.2041
G01 X-25.7421 Y35.1815
G01 X-25.7543 Y35.1694
G01 X-25.7766 Y35.1433
G01 X-25.7963 Y35.1151
G01 X-25.8132 Y35.0852
G01 X-25.9561 Y34.7995
G01 X-25.9705 Y34.7664
G01 X-25.9764 Y34.7494
G01 X-25.9815 Y34.7321
G01 X-25.9889 Y34.6968
G01 X-25.9912 Y34.6789
G01 X-25.9930 Y34.6429
G01 X-25.9930 Y34.0714
G01 X-25.9912 Y34.0354
G01 X-25.9889 Y34.0175
G01 X-25.9815 Y33.9822
G01 X-25.9764 Y33.9649
G01 X-25.9705 Y33.9479
G01 X-25.9561 Y33.9148
G01 X-25.8057 Y33.6149
G01 X-25.7975 Y33.6010
G01 X-25.7793 Y33.5745
G01 X-25.7587 Y33.5497
G01 X-25.7476 Y33.5381
G01 X-25.6048 Y33.3952
G01 X-25.5810 Y33.3736
G01 X-25.5553 Y33.3542
G01 X-25.5280 Y33.3372
G01 X-25.5137 Y33.3297
G01 X-25.2117 Y33.1791
G01 X-25.1780 Y33.1664
G01 X-25.1431 Y33.1572
G01 X-25.1074 Y33.1517
G01 X-25.0714 Y33.1498
G01 X-24.2143 Y33.1498
G01 X-24.1783 Y33.1517
G01 X-24.1604 Y33.1540
G01 X-24.1426 Y33.1572
G01 X-24.1078 Y33.1664
G01 X-24.0907 Y33.1723
G01 X-24.0577 Y33.1868
G01 X-23.7720 Y33.3297
G01 X-23.7439 Y33.3454
G01 X-23.7173 Y33.3636
G01 X-23.6926 Y33.3841
G01 X-23.5381 Y33.5381
G01 X-23.5164 Y33.5619
G01 X-23.5064 Y33.5745
G01 X-23.4882 Y33.6010
G01 X-23.4725 Y33.6291
G01 X-23.3297 Y33.9148
G01 X-23.3152 Y33.9479
G01 X-23.3042 Y33.9822
G01 X-23.2969 Y34.0175
G01 X-23.2945 Y34.0354
G01 X-23.2927 Y34.0714
G01 X-23.2927 Y34.6429
G01 X-23.2945 Y34.6789
G01 X-23.2969 Y34.6968
G01 X-23.3042 Y34.7321
G01 X-23.3152 Y34.7664
G01 X-23.3297 Y34.7995
G01 X-23.4725 Y35.0852
G01 X-23.4894 Y35.1151
G01 X-23.4989 Y35.1294
G01 X-23.5199 Y35.1566
G01 X-23.5436 Y35.1815
G01 X-23.5563 Y35.1931
G01 X-23.5833 Y35.2143
G01 X-23.6123 Y35.2328
G01 X-23.6430 Y35.2483
G01 X-23.6750 Y35.2608
G01 X-23.7081 Y35.2700
G01 X-23.7419 Y35.2760
G01 X-23.7762 Y35.2786
G01 X-23.8105 Y35.2779
G01 X-23.8447 Y35.2738
G01 X-23.8782 Y35.2663
G01 X-23.9109 Y35.2556
G01 X-23.9423 Y35.2418
G01 X-23.9723 Y35.2249
G01 X-24.0004 Y35.2052
G01 X-24.0265 Y35.1828
G01 X-24.0503 Y35.1580
G01 X-24.0715 Y35.1310
G01 X-24.0899 Y35.1020
G01 X-24.1055 Y35.0713
G01 X-24.1179 Y35.0393
G01 X-24.1230 Y35.0229
G01 X-24.1306 Y34.9894
G01 X-24.1349 Y34.9553
G01 X-24.1358 Y34.9209
G01 X-24.1334 Y34.8866
G01 X-24.1309 Y34.8696
G01 X-24.1235 Y34.8361
G01 X-24.1185 Y34.8196
G01 X-24.1062 Y34.7875
G01 X-23.9930 Y34.5602
G00 X-23.9930 Y34.5602
G01 F76.20
G01 Z-0.2836
